mrViewer/ocio/nuke-default/luts/slog2.spi1d
Version 1
From -0.125 1.125
Length 4101
Components 1
{
        -0.0633356327319
        -0.0632450834242
        -0.0631545341166
        -0.0630639848089
        -0.0629734355013
        -0.0628828861936
        -0.0627923368859
        -0.0627017875783
        -0.0626112382706
        -0.062520688963
        -0.0624301396553
        -0.0623395903476
        -0.06224904104
        -0.0621584917323
        -0.0620679424247
        -0.061977393117
        -0.0618868438094
        -0.0617962945017
        -0.061705745194
        -0.0616151958864
        -0.0615246465787
        -0.0614340972711
        -0.0613435479634
        -0.0612529986557
        -0.0611624493481
        -0.0610719000404
        -0.0609813507328
        -0.0608908014251
        -0.0608002521174
        -0.0607097028098
        -0.0606191535021
        -0.0605286041945
        -0.0604380548868
        -0.0603475055792
        -0.0602569562715
        -0.0601664069638
        -0.0600758576562
        -0.0599853083485
        -0.0598947590409
        -0.0598042097332
        -0.0597136604255
        -0.0596231111179
        -0.0595325618102
        -0.0594420125026
        -0.0593514631949
        -0.0592609138873
        -0.0591703645796
        -0.0590798152719
        -0.0589892659643
        -0.0588987166566
        -0.058808167349
        -0.0587176180413
        -0.0586270687336
        -0.058536519426
        -0.0584459701183
        -0.0583554208107
        -0.058264871503
        -0.0581743221954
        -0.0580837728877
        -0.05799322358
        -0.0579026742724
        -0.0578121249647
        -0.0577215756571
        -0.0576310263494
        -0.0575404770417
        -0.0574499277341
        -0.0573593784264
        -0.0572688291188
        -0.0571782798111
        -0.0570877305035
        -0.0569971811958
        -0.0569066318881
        -0.0568160825805
        -0.0567255332728
        -0.0566349839652
        -0.0565444346575
        -0.0564538853498
        -0.0563633360422
        -0.0562727867345
        -0.0561822374269
        -0.0560916881192
        -0.0560011388116
        -0.0559105895039
        -0.0558200401962
        -0.0557294908886
        -0.0556389415809
        -0.0555483922733
        -0.0554578429656
        -0.0553672936579
        -0.0552767443503
        -0.0551861950426
        -0.055095645735
        -0.0550050964273
        -0.0549145471197
        -0.054823997812
        -0.0547334485043
        -0.0546428991967
        -0.054552349889
        -0.0544618005814
        -0.0543712512737
        -0.054280701966
        -0.0541901526584
        -0.0540996033507
        -0.0540090540431
        -0.0539185047354
        -0.0538279554278
        -0.0537374061201
        -0.0536468568124
        -0.0535563075048
        -0.0534657581971
        -0.0533752088895
        -0.0532846595818
        -0.0531941102741
        -0.0531035609665
        -0.0530130116588
        -0.0529224623512
        -0.0528319130435
        -0.0527413637358
        -0.0526508144282
        -0.0525602651205
        -0.0524697158129
        -0.0523791665052
        -0.0522886171976
        -0.0521980678899
        -0.0521075185822
        -0.0520169692746
        -0.0519264199669
        -0.0518358706593
        -0.0517453213516
        -0.0516547720439
        -0.0515642227363
        -0.0514736734286
        -0.051383124121
        -0.0512925748133
        -0.0512020255057
        -0.051111476198
        -0.0510209268903
        -0.0509303775827
        -0.050839828275
        -0.0507492789674
        -0.0506587296597
        -0.050568180352
        -0.0504776310444
        -0.0503870817367
        -0.0502965324291
        -0.0502059831214
        -0.0501154338138
        -0.0500248845061
        -0.0499343351984
        -0.0498437858908
        -0.0497532365831
        -0.0496626872755
        -0.0495721379678
        -0.0494815886601
        -0.0493910393525
        -0.0493004900448
        -0.0492099407372
        -0.0491193914295
        -0.0490288421219
        -0.0489382928142
        -0.0488477435065
        -0.0487571941989
        -0.0486666448912
        -0.0485760955836
        -0.0484855462759
        -0.0483949969682
        -0.0483044476606
        -0.0482138983529
        -0.0481233490453
        -0.0480327997376
        -0.04794225043
        -0.0478517011223
        -0.0477611518146
        -0.047670602507
        -0.0475800531993
        -0.0474895038917
        -0.047398954584
        -0.0473084052763
        -0.0472178559687
        -0.047127306661
        -0.0470367573534
        -0.0469462080457
        -0.0468556587381
        -0.0467651094304
        -0.0466745601227
        -0.0465840108151
        -0.0464934615074
        -0.0464029121998
        -0.0463123628921
        -0.0462218135844
        -0.0461312642768
        -0.0460407149691
        -0.0459501656615
        -0.0458596163538
        -0.0457690670461
        -0.0456785177385
        -0.0455879684308
        -0.0454974191232
        -0.0454068698155
        -0.0453163205079
        -0.0452257712002
        -0.0451352218925
        -0.0450446725849
        -0.0449541232772
        -0.0448635739696
        -0.0447730246619
        -0.0446824753542
        -0.0445919260466
        -0.0445013767389
        -0.0444108274313
        -0.0443202781236
        -0.044229728816
        -0.0441391795083
        -0.0440486302006
        -0.043958080893
        -0.0438675315853
        -0.0437769822777
        -0.04368643297
        -0.0435958836623
        -0.0435053343547
        -0.043414785047
        -0.0433242357394
        -0.0432336864317
        -0.0431431371241
        -0.0430525878164
        -0.0429620385087
        -0.0428714892011
        -0.0427809398934
        -0.0426903905858
        -0.0425998412781
        -0.0425092919704
        -0.0424187426628
        -0.0423281933551
        -0.0422376440475
        -0.0421470947398
        -0.0420565454322
        -0.0419659961245
        -0.0418754468168
        -0.0417848975092
        -0.0416943482015
        -0.0416037988939
        -0.0415132495862
        -0.0414227002785
        -0.0413321509709
        -0.0412416016632
        -0.0411510523556
        -0.0410605030479
        -0.0409699537403
        -0.0408794044326
        -0.0407888551249
        -0.0406983058173
        -0.0406077565096
        -0.040517207202
        -0.0404266578943
        -0.0403361085866
        -0.040245559279
        -0.0401550099713
        -0.0400644606637
        -0.039973911356
        -0.0398833620484
        -0.0397928127407
        -0.039702263433
        -0.0396117141254
        -0.0395211648177
        -0.0394306155101
        -0.0393400662024
        -0.0392495168947
        -0.0391589675871
        -0.0390684182794
        -0.0389778689718
        -0.0388873196641
        -0.0387967703565
        -0.0387062210488
        -0.0386156717411
        -0.0385251224335
        -0.0384345731258
        -0.0383440238182
        -0.0382534745105
        -0.0381629252028
        -0.0380723758952
        -0.0379818265875
        -0.0378912772799
        -0.0378007279722
        -0.0377101786645
        -0.0376196293569
        -0.0375290800492
        -0.0374385307416
        -0.0373479814339
        -0.0372574321263
        -0.0371668828186
        -0.0370763335109
        -0.0369857842033
        -0.0368952348956
        -0.036804685588
        -0.0367141362803
        -0.0366235869726
        -0.036533037665
        -0.0364424883573
        -0.0363519390497
        -0.036261389742
        -0.0361708404344
        -0.0360802911267
        -0.035989741819
        -0.0358991925114
        -0.0358086432037
        -0.0357180938961
        -0.0356275445884
        -0.0355369952807
        -0.0354464459731
        -0.0353558966654
        -0.0352653473578
        -0.0351747980501
        -0.0350842487425
        -0.0349936994348
        -0.0349031501271
        -0.0348126008195
        -0.0347220515118
        -0.0346315022042
        -0.0345409528965
        -0.0344504035888
        -0.0343598542812
        -0.0342693049735
        -0.0341787556659
        -0.0340882063582
        -0.0339976570506
        -0.0339071077429
        -0.0338165584352
        -0.0337260091276
        -0.0336354598199
        -0.0335449105123
        -0.0334543612046
        -0.0333638118969
        -0.0332732625893
        -0.0331827132816
        -0.033092163974
        -0.0330016146663
        -0.0329110653587
        -0.032820516051
        -0.0327299667433
        -0.0326394174357
        -0.032548868128
        -0.0324583188204
        -0.0323677695127
        -0.032277220205
        -0.0321866708974
        -0.0320961215897
        -0.0320055722821
        -0.0319150229744
        -0.0318244736668
        -0.0317339243591
        -0.0316433750514
        -0.0315528257438
        -0.0314622764361
        -0.0313717271285
        -0.0312811778208
        -0.0311906285131
        -0.0311000792055
        -0.0310095298978
        -0.0309189805902
        -0.0308284312825
        -0.0307378819749
        -0.0306473326672
        -0.0305567833595
        -0.0304662340519
        -0.0303756847442
        -0.0302851354366
        -0.0301945861289
        -0.0301040368212
        -0.0300134875136
        -0.0299229382059
        -0.0298323888983
        -0.0297418395906
        -0.0296512902829
        -0.0295607409753
        -0.0294701916676
        -0.02937964236
        -0.0292890930523
        -0.0291985437447
        -0.029107994437
        -0.0290174451293
        -0.0289268958217
        -0.028836346514
        -0.0287457972064
        -0.0286552478987
        -0.028564698591
        -0.0284741492834
        -0.0283835999757
        -0.0282930506681
        -0.0282025013604
        -0.0281119520528
        -0.0280214027451
        -0.0279308534374
        -0.0278403041298
        -0.0277497548221
        -0.0276592055145
        -0.0275686562068
        -0.0274781068991
        -0.0273875575915
        -0.0272970082838
        -0.0272064589762
        -0.0271159096685
        -0.0270253603609
        -0.0269348110532
        -0.0268442617455
        -0.0267537124379
        -0.0266631631302
        -0.0265726138226
        -0.0264820645149
        -0.0263915152072
        -0.0263009658996
        -0.0262104165919
        -0.0261198672843
        -0.0260293179766
        -0.025938768669
        -0.0258482193613
        -0.0257576700536
        -0.025667120746
        -0.0255765714383
        -0.0254860221307
        -0.025395472823
        -0.0253049235153
        -0.0252143742077
        -0.0251238249
        -0.0250332755924
        -0.0249427262847
        -0.0248521769771
        -0.0247616276694
        -0.0246710783617
        -0.0245805290541
        -0.0244899797464
        -0.0243994304388
        -0.0243088811311
        -0.0242183318234
        -0.0241277825158
        -0.0240372332081
        -0.0239466839005
        -0.0238561345928
        -0.0237655852852
        -0.0236750359775
        -0.0235844866698
        -0.0234939373622
        -0.0234033880545
        -0.0233128387469
        -0.0232222894392
        -0.0231317401315
        -0.0230411908239
        -0.0229506415162
        -0.0228600922086
        -0.0227695429009
        -0.0226789935932
        -0.0225884442856
        -0.0224978949779
        -0.0224073456703
        -0.0223167963626
        -0.022226247055
        -0.0221356977473
        -0.0220451484396
        -0.021954599132
        -0.0218640498243
        -0.0217735005167
        -0.021682951209
        -0.0215924019013
        -0.0215018525937
        -0.021411303286
        -0.0213207539784
        -0.0212302046707
        -0.0211396553631
        -0.0210491060554
        -0.0209585567477
        -0.0208680074401
        -0.0207774581324
        -0.0206869088248
        -0.0205963595171
        -0.0205058102094
        -0.0204152609018
        -0.0203247115941
        -0.0202341622865
        -0.0201436129788
        -0.0200530636712
        -0.0199625143635
        -0.0198719650558
        -0.0197814157482
        -0.0196908664405
        -0.0196003171329
        -0.0195097678252
        -0.0194192185175
        -0.0193286692099
        -0.0192381199022
        -0.0191475705946
        -0.0190570212869
        -0.0189664719793
        -0.0188759226716
        -0.0187853733639
        -0.0186948240563
        -0.0186042747486
        -0.018513725441
        -0.0184231761333
        -0.0183326268256
        -0.018242077518
        -0.0181515282103
        -0.0180609789027
        -0.017970429595
        -0.0178798802874
        -0.0177893309797
        -0.017698781672
        -0.0176082323644
        -0.0175176830567
        -0.0174271337491
        -0.0173365844414
        -0.0172460351337
        -0.0171554858261
        -0.0170649365184
        -0.0169743872108
        -0.0168838379031
        -0.0167932885955
        -0.0167027392878
        -0.0166121899801
        -0.0165216406725
        -0.0164310913648
        -0.0163405420572
        -0.0162499927495
        -0.0161594434418
        -0.0160688941342
        -0.0159783448265
        -0.0158877955189
        -0.0157972462112
        -0.0157066969036
        -0.0156161475959
        -0.0155255982882
        -0.0154350489806
        -0.0153444996729
        -0.0152539503653
        -0.0151634010576
        -0.0150728517499
        -0.0149823024423
        -0.0148917531346
        -0.014801203827
        -0.0147106545193
        -0.0146201052116
        -0.014529555904
        -0.0144390065963
        -0.0143484572887
        -0.014257907981
        -0.0141673586734
        -0.0140768093657
        -0.013986260058
        -0.0138957107504
        -0.0138051614427
        -0.0137146121351
        -0.0136240628274
        -0.0135335135197
        -0.0134429642121
        -0.0133524149044
        -0.0132618655968
        -0.0131713162891
        -0.0130807669815
        -0.0129902176738
        -0.0128996683661
        -0.0128091190585
        -0.0127185697508
        -0.0126280204432
        -0.0125374711355
        -0.0124469218278
        -0.0123563725202
        -0.0122658232125
        -0.0121752739049
        -0.0120847245972
        -0.0119941752896
        -0.0119036259819
        -0.0118130766742
        -0.0117225273666
        -0.0116319780589
        -0.0115414287513
        -0.0114508794436
        -0.0113603301359
        -0.0112697808283
        -0.0111792315206
        -0.011088682213
        -0.0109981329053
        -0.0109075835977
        -0.01081703429
        -0.0107264849823
        -0.0106359356747
        -0.010545386367
        -0.0104548370594
        -0.0103642877517
        -0.010273738444
        -0.0101831891364
        -0.0100926398287
        -0.0100020905211
        -0.00991154121341
        -0.00982099190575
        -0.00973044259809
        -0.00963989329044
        -0.00954934398278
        -0.00945879467512
        -0.00936824536746
        -0.0092776960598
        -0.00918714675214
        -0.00909659744449
        -0.00900604813683
        -0.00891549882917
        -0.00882494952151
        -0.00873440021385
        -0.00864385090619
        -0.00855330159853
        -0.00846275229088
        -0.00837220298322
        -0.00828165367556
        -0.0081911043679
        -0.00810055506024
        -0.00801000575258
        -0.00791945644493
        -0.00782890713727
        -0.00773835782961
        -0.00764780852195
        -0.00755725921429
        -0.00746670990663
        -0.00737616059897
        -0.00728561129132
        -0.00719506198366
        -0.007104512676
        -0.00701396336834
        -0.00692341406068
        -0.00683286475302
        -0.00674231544537
        -0.00665176613771
        -0.00656121683005
        -0.00647066752239
        -0.00638011821473
        -0.00628956890707
        -0.00619901959942
        -0.00610847029176
        -0.0060179209841
        -0.00592737167644
        -0.00583682236878
        -0.00574627306112
        -0.00565572375346
        -0.00556517444581
        -0.00547462513815
        -0.00538407583049
        -0.00529352652283
        -0.00520297721517
        -0.00511242790751
        -0.00502187859986
        -0.0049313292922
        -0.00484077998454
        -0.00475023067688
        -0.00465968136922
        -0.00456913206156
        -0.00447858275391
        -0.00438803344625
        -0.00429748413859
        -0.00420693483093
        -0.00411638552327
        -0.00402583621561
        -0.00393528690795
        -0.0038447376003
        -0.00375418829264
        -0.00366363898498
        -0.00357308967732
        -0.00348254036966
        -0.003391991062
        -0.00330144175435
        -0.00321089244669
        -0.00312034313903
        -0.00302979383137
        -0.00293924452371
        -0.00284869521605
        -0.00275814590839
        -0.00266759660074
        -0.00257704729308
        -0.00248649798542
        -0.00239594867776
        -0.0023053993701
        -0.00221485006244
        -0.00212430075479
        -0.00203375144713
        -0.00194320213947
        -0.00185265283181
        -0.00176210352415
        -0.00167155421649
        -0.00158100490884
        -0.00149045560118
        -0.00139990629352
        -0.00130935698586
        -0.0012188076782
        -0.00112825837054
        -0.00103770906288
        -0.000947159755226
        -0.000856610447568
        -0.000766061139909
        -0.000675511832251
        -0.000584962524593
        -0.000494413216934
        -0.000403863909276
        -0.000313314601617
        -0.000222765293959
        -0.0001322159863
        -4.1666678642e-05
        4.89079520476e-05
        0.000139636429784
        0.000230536969579
        0.000321609897742
        0.000412855541198
        0.000504274227492
        0.000595866284793
        0.000687632041889
        0.000779571828194
        0.000871685973746
        0.000963974809207
        0.00105643866587
        0.00114907787565
        0.0012418927711
        0.0013348836854
        0.00142805095236
        0.00152139490642
        0.00161491588266
        0.00170861421679
        0.00180249024517
        0.00189654430479
        0.00199077673326
        0.00208518786887
        0.00217977805051
        0.00227454761774
        0.00236949691076
        0.0024646262704
        0.00255993603816
        0.00265542655616
        0.0027510981672
        0.00284695121471
        0.00294298604277
        0.00303920299612
        0.00313560242015
        0.00323218466091
        0.0033289500651
        0.00342589898008
        0.00352303175387
        0.00362034873516
        0.00371785027327
        0.00381553671821
        0.00391340842066
        0.00401146573194
        0.00410970900404
        0.00420813858964
        0.00430675484207
        0.00440555811533
        0.00450454876411
        0.00460372714374
        0.00470309361025
        0.00480264852033
        0.00490239223137
        0.00500232510141
        0.00510244748919
        0.0052027597541
        0.00530326225626
        0.00540395535643
        0.00550483941607
        0.00560591479732
        0.00570718186303
        0.00580864097671
        0.00591029250256
        0.0060121368055
        0.0061141742511
        0.00621640520566
        0.00631883003616
        0.00642144911028
        0.00652426279637
        0.00662727146353
        0.00673047548152
        0.00683387522081
        0.00693747105257
        0.0070412633487
        0.00714525248177
        0.00724943882508
        0.00735382275262
        0.00745840463911
        0.00756318485995
        0.00766816379129
        0.00777334180997
        0.00787871929355
        0.0079842966203
        0.00809007416922
        0.00819605232001
        0.00830223145311
        0.00840861194968
        0.00851519419158
        0.00862197856142
        0.00872896544252
        0.00883615521894
        0.00894354827545
        0.00905114499757
        0.00915894577154
        0.00926695098434
        0.00937516102366
        0.00948357627796
        0.00959219713642
        0.00970102398894
        0.0098100572262
        0.00991929723959
        0.0100287444212
        0.0101383991641
        0.0102482618616
        0.0103583329084
        0.0104686126994
        0.0105791016306
        0.0106898000986
        0.0108007085007
        0.0109118272351
        0.0110231567007
        0.0111346972971
        0.0112464494247
        0.0113584134847
        0.011470589879
        0.0115829790102
        0.0116955812818
        0.0118083970981
        0.011921426864
        0.0120346709852
        0.0121481298683
        0.0122618039205
        0.01237569355
        0.0124897991654
        0.0126041211766
        0.0127186599937
        0.012833416028
        0.0129483896915
        0.0130635813968
        0.0131789915575
        0.0132946205878
        0.0134104689028
        0.0135265369184
        0.0136428250513
        0.0137593337188
        0.0138760633393
        0.0139930143317
        0.0141101871158
        0.0142275821124
        0.0143451997427
        0.014463040429
        0.0145811045943
        0.0146993926625
        0.0148179050581
        0.0149366422067
        0.0150556045343
        0.0151747924681
        0.0152942064359
        0.0154138468663
        0.0155337141889
        0.015653808834
        0.0157741312326
        0.0158946818166
        0.0160154610189
        0.0161364692729
        0.0162577070131
        0.0163791746746
        0.0165008726935
        0.0166228015067
        0.0167449615519
        0.0168673532675
        0.0169899770929
        0.0171128334684
        0.0172359228348
        0.0173592456342
        0.0174828023091
        0.0176065933031
        0.0177306190606
        0.0178548800268
        0.0179793766478
        0.0181041093705
        0.0182290786425
        0.0183542849126
        0.0184797286302
        0.0186054102456
        0.0187313302099
        0.0188574889752
        0.0189838869943
        0.019110524721
        0.0192374026099
        0.0193645211164
        0.0194918806969
        0.0196194818084
        0.0197473249092
        0.0198754104581
        0.0200037389148
        0.0201323107402
        0.0202611263956
        0.0203901863435
        0.0205194910472
        0.0206490409708
        0.0207788365795
        0.0209088783391
        0.0210391667165
        0.0211697021793
        0.0213004851961
        0.0214315162365
        0.0215627957707
        0.02169432427
        0.0218261022067
        0.0219581300536
        0.0220904082848
        0.0222229373751
        0.0223557178003
        0.022488750037
        0.0226220345627
        0.0227555718559
        0.0228893623959
        0.0230234066631
        0.0231577051386
        0.0232922583045
        0.0234270666438
        0.0235621306404
        0.0236974507792
        0.0238330275459
        0.0239688614273
        0.0241049529109
        0.0242413024852
        0.0243779106397
        0.0245147778649
        0.0246519046519
        0.0247892914931
        0.0249269388816
        0.0250648473115
        0.025203017278
        0.025341449277
        0.0254801438053
        0.025619101361
        0.0257583224428
        0.0258978075505
        0.0260375571847
        0.0261775718473
        0.0263178520406
        0.0264583982684
        0.0265992110352
        0.0267402908464
        0.0268816382085
        0.0270232536288
        0.0271651376157
        0.0273072906786
        0.0274497133278
        0.0275924060744
        0.0277353694307
        0.02787860391
        0.0280221100264
        0.0281658882949
        0.0283099392319
        0.0284542633543
        0.0285988611802
        0.0287437332288
        0.02888888002
        0.0290343020749
        0.0291799999155
        0.0293259740649
        0.029472225047
        0.0296187533868
        0.0297655596103
        0.0299126442446
        0.0300600078176
        0.0302076508583
        0.0303555738968
        0.0305037774639
        0.0306522620917
        0.0308010283133
