src/ocio/studio-config/studio-config-v4.0.0_aces-v2.0_ocio-v2.5.ocio
ocio_profile_version: 2.5

environment:
  {}
search_path: ""
strictparsing: true
luma: [0.2126, 0.7152, 0.0722]
name: studio-config-v4.0.0_aces-v2.0_ocio-v2.5
description: |
  Academy Color Encoding System - Studio Config [COLORSPACES v4.0.0] [ACES v2.0] [OCIO v2.5]
  ------------------------------------------------------------------------------------------

  This "OpenColorIO" config is geared toward studios requiring a config that includes a wide variety of camera colorspaces, displays and looks.

roles:
  aces_interchange: ACES2065-1
  cie_xyz_d65_interchange: CIE XYZ-D65 - Display-referred
  color_picking: sRGB Encoded Rec.709 (sRGB)
  color_timing: ACEScct
  compositing_log: ACEScct
  data: Raw
  matte_paint: ACEScct
  scene_linear: ACEScg
  texture_paint: sRGB Encoded Rec.709 (sRGB)

file_rules:
  - !<Rule> {name: EXR, colorspace: ACES2065-1, pattern: "*", extension: exr}
  - !<Rule> {name: Movies, colorspace: Rec.1886 Rec.709 - Display, regex: ".*\\.([mM][pP]4|[mM][oO][vV]|[mM][xX][fF])$"}
  - !<Rule> {name: Default, colorspace: sRGB - Display}

viewing_rules:
  - !<Rule> {name: Any Scene-linear or Log, encodings: [log, scene-linear]}
  - !<Rule> {name: Any Video, encodings: [sdr-video, hdr-video, edr-video, display-linear]}

shared_views:
  - !<View> {name: ACES 2.0 - SDR 100 nits (Rec.709), view_transform: ACES 2.0 - SDR 100 nits (Rec.709), display_colorspace: <USE_DISPLAY_NAME>, rule: Any Scene-linear or Log}
  - !<View> {name: ACES 2.0 - SDR 100 nits (P3 D65), view_transform: ACES 2.0 - SDR 100 nits (P3 D65), display_colorspace: <USE_DISPLAY_NAME>, rule: Any Scene-linear or Log}
  - !<View> {name: ACES 2.0 - HDR 1000 nits (P3 D65), view_transform: ACES 2.0 - HDR 1000 nits (P3 D65), display_colorspace: <USE_DISPLAY_NAME>, rule: Any Scene-linear or Log}
  - !<View> {name: ACES 2.0 - HDR 500 nits (P3 D65), view_transform: ACES 2.0 - HDR 500 nits (P3 D65), display_colorspace: <USE_DISPLAY_NAME>, rule: Any Scene-linear or Log}
  - !<View> {name: ACES 2.0 - HDR 2000 nits (P3 D65), view_transform: ACES 2.0 - HDR 2000 nits (P3 D65), display_colorspace: <USE_DISPLAY_NAME>, rule: Any Scene-linear or Log}
  - !<View> {name: ACES 2.0 - HDR 4000 nits (P3 D65), view_transform: ACES 2.0 - HDR 4000 nits (P3 D65), display_colorspace: <USE_DISPLAY_NAME>, rule: Any Scene-linear or Log}
  - !<View> {name: ACES 2.0 - HDR 500 nits (Rec.2020), view_transform: ACES 2.0 - HDR 500 nits (Rec.2020), display_colorspace: <USE_DISPLAY_NAME>, rule: Any Scene-linear or Log}
  - !<View> {name: ACES 2.0 - HDR 1000 nits (Rec.2020), view_transform: ACES 2.0 - HDR 1000 nits (Rec.2020), display_colorspace: <USE_DISPLAY_NAME>, rule: Any Scene-linear or Log}
  - !<View> {name: ACES 2.0 - HDR 2000 nits (Rec.2020), view_transform: ACES 2.0 - HDR 2000 nits (Rec.2020), display_colorspace: <USE_DISPLAY_NAME>, rule: Any Scene-linear or Log}
  - !<View> {name: ACES 2.0 - HDR 4000 nits (Rec.2020), view_transform: ACES 2.0 - HDR 4000 nits (Rec.2020), display_colorspace: <USE_DISPLAY_NAME>, rule: Any Scene-linear or Log}
  - !<View> {name: ACES 2.0 - HDR 108 nits (P3 D65), view_transform: ACES 2.0 - HDR 108 nits (P3 D65), display_colorspace: <USE_DISPLAY_NAME>, rule: Any Scene-linear or Log}
  - !<View> {name: Un-tone-mapped, view_transform: Un-tone-mapped, display_colorspace: <USE_DISPLAY_NAME>, rule: Any Scene-linear or Log}
  - !<View> {name: Video (colorimetric), view_transform: Video (colorimetric), display_colorspace: <USE_DISPLAY_NAME>, rule: Any Video}

displays:
  sRGB - Display:
    - !<View> {name: Raw, colorspace: Raw}
    - !<Views> [ACES 2.0 - SDR 100 nits (Rec.709), Un-tone-mapped, Video (colorimetric)]
  Gamma 2.2 Rec.709 - Display:
    - !<View> {name: Raw, colorspace: Raw}
    - !<Views> [ACES 2.0 - SDR 100 nits (Rec.709), Un-tone-mapped, Video (colorimetric)]
  Display P3 - Display:
    - !<View> {name: Raw, colorspace: Raw}
    - !<Views> [ACES 2.0 - SDR 100 nits (P3 D65), Un-tone-mapped, Video (colorimetric)]
  Display P3 HDR - Display:
    - !<View> {name: Raw, colorspace: Raw}
    - !<Views> [ACES 2.0 - HDR 1000 nits (P3 D65), ACES 2.0 - SDR 100 nits (Rec.709), Un-tone-mapped, Video (colorimetric)]
  P3-D65 - Display:
    - !<View> {name: Raw, colorspace: Raw}
    - !<Views> [ACES 2.0 - SDR 100 nits (P3 D65), ACES 2.0 - SDR 100 nits (Rec.709), Un-tone-mapped, Video (colorimetric)]
  Rec.1886 Rec.709 - Display:
    - !<View> {name: Raw, colorspace: Raw}
    - !<Views> [ACES 2.0 - SDR 100 nits (Rec.709), Un-tone-mapped, Video (colorimetric)]
  Rec.2100-HLG - Display:
    - !<View> {name: Raw, colorspace: Raw}
    - !<Views> [ACES 2.0 - HDR 1000 nits (P3 D65), Un-tone-mapped, Video (colorimetric)]
  Rec.2100-PQ - Display:
    - !<View> {name: Raw, colorspace: Raw}
    - !<Views> [ACES 2.0 - HDR 500 nits (P3 D65), ACES 2.0 - HDR 1000 nits (P3 D65), ACES 2.0 - HDR 2000 nits (P3 D65), ACES 2.0 - HDR 4000 nits (P3 D65), ACES 2.0 - HDR 500 nits (Rec.2020), ACES 2.0 - HDR 1000 nits (Rec.2020), ACES 2.0 - HDR 2000 nits (Rec.2020), ACES 2.0 - HDR 4000 nits (Rec.2020), ACES 2.0 - SDR 100 nits (Rec.709), Un-tone-mapped, Video (colorimetric)]
  ST2084-P3-D65 - Display:
    - !<View> {name: Raw, colorspace: Raw}
    - !<Views> [ACES 2.0 - HDR 108 nits (P3 D65), ACES 2.0 - HDR 500 nits (P3 D65), ACES 2.0 - HDR 1000 nits (P3 D65), ACES 2.0 - HDR 2000 nits (P3 D65), ACES 2.0 - HDR 4000 nits (P3 D65), ACES 2.0 - SDR 100 nits (Rec.709), Un-tone-mapped, Video (colorimetric)]

virtual_display:
  - !<View> {name: Raw, colorspace: Raw}
  - !<Views> [ACES 2.0 - SDR 100 nits (P3 D65), Video (colorimetric), Un-tone-mapped, ACES 2.0 - SDR 100 nits (Rec.709)]

active_displays: [sRGB - Display, Display P3 - Display, Display P3 HDR - Display, Gamma 2.2 Rec.709 - Display, P3-D65 - Display, Rec.1886 Rec.709 - Display, Rec.2100-HLG - Display, Rec.2100-PQ - Display, ST2084-P3-D65 - Display]
active_views: [ACES 2.0 - HDR 1000 nits (P3 D65), ACES 2.0 - HDR 1000 nits (Rec.2020), ACES 2.0 - HDR 2000 nits (P3 D65), ACES 2.0 - HDR 2000 nits (Rec.2020), ACES 2.0 - HDR 4000 nits (P3 D65), ACES 2.0 - HDR 4000 nits (Rec.2020), ACES 2.0 - HDR 500 nits (P3 D65), ACES 2.0 - HDR 500 nits (Rec.2020), ACES 2.0 - HDR 108 nits (P3 D65), ACES 2.0 - SDR 100 nits (P3 D65), ACES 2.0 - SDR 100 nits (Rec.709), Un-tone-mapped, Video (colorimetric), Raw]
inactive_colorspaces: [CIE XYZ-D65 - Display-referred, CIE XYZ-D65 - Scene-referred]

looks:
  - !<Look>
    name: ACES 1.3 Reference Gamut Compression
    process_space: ACES2065-1
    description: LMT (applied in ACES2065-1) to compress scene-referred values from common cameras into the AP1 gamut
    interchange:
      amf_transform_ids: |
        urn:ampas:aces:transformId:v2.0:InvLook.Academy.ReferenceGamutCompress.a2.v1
        urn:ampas:aces:transformId:v2.0:Look.Academy.ReferenceGamutCompress.a2.v1
    transform: !<BuiltinTransform> {style: ACES-LMT - ACES 1.3 Reference Gamut Compression}


default_view_transform: Un-tone-mapped

view_transforms:
  - !<ViewTransform>
    name: Un-tone-mapped
    from_scene_reference: !<BuiltinTransform> {style: UTILITY - ACES-AP0_to_CIE-XYZ-D65_BFD}

  - !<ViewTransform>
    name: Video (colorimetric)
    from_display_reference: !<MatrixTransform> {}

  - !<ViewTransform>
    name: ACES 2.0 - SDR 100 nits (Rec.709)
    description: Component of ACES 2 Output Transforms for 100 nit SDR Rec709
    interchange:
      amf_transform_ids: |
        urn:ampas:aces:transformId:v2.0:InvOutput.Academy.Rec709-D65_100nit_in_P3-D65_ST2084.a2.v1
        urn:ampas:aces:transformId:v2.0:InvOutput.Academy.Rec709-D65_100nit_in_P3-D65_sRGB-Piecewise.a2.v1
        urn:ampas:aces:transformId:v2.0:InvOutput.Academy.Rec709-D65_100nit_in_Rec2100-D65_ST2084.a2.v1
        urn:ampas:aces:transformId:v2.0:InvOutput.Academy.Rec709-D65_100nit_in_Rec709-D65_BT1886.a2.v1
        urn:ampas:aces:transformId:v2.0:InvOutput.Academy.Rec709-D65_100nit_in_Rec709-D65_Gamma2pt2.a2.v1
        urn:ampas:aces:transformId:v2.0:InvOutput.Academy.Rec709-D65_100nit_in_Rec709-D65_sRGB-Piecewise.a2.v1
        urn:ampas:aces:transformId:v2.0:InvOutput.Academy.Rec709-D65_48nit_in_P3-D65_Gamma2pt6.a2.v1
        urn:ampas:aces:transformId:v2.0:Output.Academy.Rec709-D65_100nit_in_P3-D65_ST2084.a2.v1
        urn:ampas:aces:transformId:v2.0:Output.Academy.Rec709-D65_100nit_in_P3-D65_sRGB-Piecewise.a2.v1
        urn:ampas:aces:transformId:v2.0:Output.Academy.Rec709-D65_100nit_in_Rec2100-D65_ST2084.a2.v1
        urn:ampas:aces:transformId:v2.0:Output.Academy.Rec709-D65_100nit_in_Rec709-D65_BT1886.a2.v1
        urn:ampas:aces:transformId:v2.0:Output.Academy.Rec709-D65_100nit_in_Rec709-D65_Gamma2pt2.a2.v1
        urn:ampas:aces:transformId:v2.0:Output.Academy.Rec709-D65_100nit_in_Rec709-D65_sRGB-Piecewise.a2.v1
        urn:ampas:aces:transformId:v2.0:Output.Academy.Rec709-D65_48nit_in_P3-D65_Gamma2pt6.a2.v1
    from_scene_reference: !<BuiltinTransform> {style: ACES-OUTPUT - ACES2065-1_to_CIE-XYZ-D65 - SDR-100nit-REC709_2.0}

  - !<ViewTransform>
    name: ACES 2.0 - SDR 100 nits (P3 D65)
    description: Component of ACES 2 Output Transforms for 100 nit SDR P3-D65
    interchange:
      amf_transform_ids: |
        urn:ampas:aces:transformId:v2.0:InvOutput.Academy.P3-D65_100nit_in_P3-D65_sRGB-Piecewise.a2.v1
        urn:ampas:aces:transformId:v2.0:InvOutput.Academy.P3-D65_48nit_in_P3-D65_Gamma2pt6.a2.v1
        urn:ampas:aces:transformId:v2.0:InvOutput.Academy.P3-D65_48nit_in_XYZ-E_Gamma2pt6.a2.v1
        urn:ampas:aces:transformId:v2.0:Output.Academy.P3-D65_100nit_in_P3-D65_sRGB-Piecewise.a2.v1
        urn:ampas:aces:transformId:v2.0:Output.Academy.P3-D65_48nit_in_P3-D65_Gamma2pt6.a2.v1
        urn:ampas:aces:transformId:v2.0:Output.Academy.P3-D65_48nit_in_XYZ-E_Gamma2pt6.a2.v1
    from_scene_reference: !<BuiltinTransform> {style: ACES-OUTPUT - ACES2065-1_to_CIE-XYZ-D65 - SDR-100nit-P3-D65_2.0}

  - !<ViewTransform>
    name: ACES 2.0 - HDR 1000 nits (P3 D65)
    description: Component of ACES 2 Output Transforms for 1000 nit HDR P3-D65
    interchange:
      amf_transform_ids: |
        urn:ampas:aces:transformId:v2.0:InvOutput.Academy.P3-D65_1000nit_in_P3-D65_ST2084.a2.v1
        urn:ampas:aces:transformId:v2.0:InvOutput.Academy.P3-D65_1000nit_in_P3-D65_sRGB-Piecewise.a2.v1
        urn:ampas:aces:transformId:v2.0:InvOutput.Academy.P3-D65_1000nit_in_Rec2100-D65_HLG.a2.v1
        urn:ampas:aces:transformId:v2.0:InvOutput.Academy.P3-D65_1000nit_in_Rec2100-D65_ST2084.a2.v1
        urn:ampas:aces:transformId:v2.0:Output.Academy.P3-D65_1000nit_in_P3-D65_ST2084.a2.v1
        urn:ampas:aces:transformId:v2.0:Output.Academy.P3-D65_1000nit_in_P3-D65_sRGB-Piecewise.a2.v1
        urn:ampas:aces:transformId:v2.0:Output.Academy.P3-D65_1000nit_in_Rec2100-D65_HLG.a2.v1
        urn:ampas:aces:transformId:v2.0:Output.Academy.P3-D65_1000nit_in_Rec2100-D65_ST2084.a2.v1
    from_scene_reference: !<BuiltinTransform> {style: ACES-OUTPUT - ACES2065-1_to_CIE-XYZ-D65 - HDR-1000nit-P3-D65_2.0}

  - !<ViewTransform>
    name: ACES 2.0 - HDR 500 nits (P3 D65)
    description: Component of ACES 2 Output Transforms for 500 nit HDR P3-D65
    interchange:
      amf_transform_ids: |
        urn:ampas:aces:transformId:v2.0:InvOutput.Academy.P3-D65_500nit_in_P3-D65_ST2084.a2.v1
        urn:ampas:aces:transformId:v2.0:InvOutput.Academy.P3-D65_500nit_in_Rec2100-D65_ST2084.a2.v1
        urn:ampas:aces:transformId:v2.0:Output.Academy.P3-D65_500nit_in_P3-D65_ST2084.a2.v1
        urn:ampas:aces:transformId:v2.0:Output.Academy.P3-D65_500nit_in_Rec2100-D65_ST2084.a2.v1
    from_scene_reference: !<BuiltinTransform> {style: ACES-OUTPUT - ACES2065-1_to_CIE-XYZ-D65 - HDR-500nit-P3-D65_2.0}

  - !<ViewTransform>
    name: ACES 2.0 - HDR 2000 nits (P3 D65)
    description: Component of ACES 2 Output Transforms for 2000 nit HDR P3-D65
    interchange:
      amf_transform_ids: |
        urn:ampas:aces:transformId:v2.0:InvOutput.Academy.P3-D65_2000nit_in_P3-D65_ST2084.a2.v1
        urn:ampas:aces:transformId:v2.0:InvOutput.Academy.P3-D65_2000nit_in_Rec2100-D65_ST2084.a2.v1
        urn:ampas:aces:transformId:v2.0:Output.Academy.P3-D65_2000nit_in_P3-D65_ST2084.a2.v1
        urn:ampas:aces:transformId:v2.0:Output.Academy.P3-D65_2000nit_in_Rec2100-D65_ST2084.a2.v1
    from_scene_reference: !<BuiltinTransform> {style: ACES-OUTPUT - ACES2065-1_to_CIE-XYZ-D65 - HDR-2000nit-P3-D65_2.0}

  - !<ViewTransform>
    name: ACES 2.0 - HDR 4000 nits (P3 D65)
    description: Component of ACES 2 Output Transforms for 4000 nit HDR P3-D65
    interchange:
      amf_transform_ids: |
        urn:ampas:aces:transformId:v2.0:InvOutput.Academy.P3-D65_4000nit_in_P3-D65_ST2084.a2.v1
        urn:ampas:aces:transformId:v2.0:InvOutput.Academy.P3-D65_4000nit_in_Rec2100-D65_ST2084.a2.v1
        urn:ampas:aces:transformId:v2.0:Output.Academy.P3-D65_4000nit_in_P3-D65_ST2084.a2.v1
        urn:ampas:aces:transformId:v2.0:Output.Academy.P3-D65_4000nit_in_Rec2100-D65_ST2084.a2.v1
    from_scene_reference: !<BuiltinTransform> {style: ACES-OUTPUT - ACES2065-1_to_CIE-XYZ-D65 - HDR-4000nit-P3-D65_2.0}

  - !<ViewTransform>
    name: ACES 2.0 - HDR 500 nits (Rec.2020)
    description: Component of ACES 2 Output Transforms for 500 nit HDR Rec2020
    interchange:
      amf_transform_ids: |
        urn:ampas:aces:transformId:v2.0:InvOutput.Academy.Rec2100-D65_500nit_in_Rec2100-D65_ST2084.a2.v1
        urn:ampas:aces:transformId:v2.0:Output.Academy.Rec2100-D65_500nit_in_Rec2100-D65_ST2084.a2.v1
    from_scene_reference: !<BuiltinTransform> {style: ACES-OUTPUT - ACES2065-1_to_CIE-XYZ-D65 - HDR-500nit-REC2020_2.0}

  - !<ViewTransform>
    name: ACES 2.0 - HDR 1000 nits (Rec.2020)
    description: Component of ACES 2 Output Transforms for 1000 nit HDR Rec2020
    interchange:
      amf_transform_ids: |
        urn:ampas:aces:transformId:v2.0:InvOutput.Academy.Rec2100-D65_1000nit_in_Rec2100-D65_ST2084.a2.v1
        urn:ampas:aces:transformId:v2.0:Output.Academy.Rec2100-D65_1000nit_in_Rec2100-D65_ST2084.a2.v1
    from_scene_reference: !<BuiltinTransform> {style: ACES-OUTPUT - ACES2065-1_to_CIE-XYZ-D65 - HDR-1000nit-REC2020_2.0}

  - !<ViewTransform>
    name: ACES 2.0 - HDR 2000 nits (Rec.2020)
    description: Component of ACES 2 Output Transforms for 2000 nit HDR Rec2020
    interchange:
      amf_transform_ids: |
        urn:ampas:aces:transformId:v2.0:InvOutput.Academy.Rec2100-D65_2000nit_in_Rec2100-D65_ST2084.a2.v1
        urn:ampas:aces:transformId:v2.0:Output.Academy.Rec2100-D65_2000nit_in_Rec2100-D65_ST2084.a2.v1
    from_scene_reference: !<BuiltinTransform> {style: ACES-OUTPUT - ACES2065-1_to_CIE-XYZ-D65 - HDR-2000nit-REC2020_2.0}

  - !<ViewTransform>
    name: ACES 2.0 - HDR 4000 nits (Rec.2020)
    description: Component of ACES 2 Output Transforms for 4000 nit HDR Rec2020
    interchange:
      amf_transform_ids: |
        urn:ampas:aces:transformId:v2.0:InvOutput.Academy.Rec2100-D65_4000nit_in_Rec2100-D65_ST2084.a2.v1
        urn:ampas:aces:transformId:v2.0:Output.Academy.Rec2100-D65_4000nit_in_Rec2100-D65_ST2084.a2.v1
    from_scene_reference: !<BuiltinTransform> {style: ACES-OUTPUT - ACES2065-1_to_CIE-XYZ-D65 - HDR-4000nit-REC2020_2.0}

  - !<ViewTransform>
    name: ACES 2.0 - HDR 108 nits (P3 D65)
    description: Component of ACES 2 Output Transforms for 108 nit HDR P3-D65
    interchange:
      amf_transform_ids: |
        urn:ampas:aces:transformId:v2.0:InvOutput.Academy.P3-D65_108nit_in_P3-D65_ST2084.a2.v1
        urn:ampas:aces:transformId:v2.0:Output.Academy.P3-D65_108nit_in_P3-D65_ST2084.a2.v1
    from_scene_reference: !<BuiltinTransform> {style: ACES-OUTPUT - ACES2065-1_to_CIE-XYZ-D65 - HDR-108nit-P3-D65_2.0}

display_colorspaces:
  - !<ColorSpace>
    name: CIE XYZ-D65 - Display-referred
    aliases: [cie_xyz_d65_display, lin_ciexyzd65_display, ocio:lin_ciexyzd65_display]
    interop_id: ocio:lin_ciexyzd65_display
    family: ""
    equalitygroup: ""
    bitdepth: 32f
    description: The "CIE XYZ (D65)" display connection colorspace.
    isdata: false
    encoding: display-linear
    allocation: uniform

  - !<ColorSpace>
    name: sRGB - Display
    aliases: [srgb_display, srgb_rec709_display]
    interop_id: srgb_rec709_display
    family: Display
    equalitygroup: ""
    bitdepth: 32f
    description: Convert CIE XYZ (D65 white) to sRGB (piecewise EOTF), mirror neg. values
    isdata: false
    categories: [file-io]
    encoding: sdr-video
    interchange:
      amf_transform_ids: |
        urn:ampas:aces:transformId:v2.0:InvOutput.Academy.Rec709-D65_100nit_in_Rec709-D65_sRGB-Piecewise.a2.v1
        urn:ampas:aces:transformId:v2.0:Output.Academy.Rec709-D65_100nit_in_Rec709-D65_sRGB-Piecewise.a2.v1
    allocation: uniform
    from_display_reference: !<BuiltinTransform> {style: DISPLAY - CIE-XYZ-D65_to_sRGB - MIRROR NEGS}

  - !<ColorSpace>
    name: Gamma 2.2 Rec.709 - Display
    aliases: [g22_rec709_display]
    interop_id: g22_rec709_display
    family: Display
    equalitygroup: ""
    bitdepth: 32f
    description: Convert CIE XYZ (D65 white) to Gamma2.2, Rec.709, mirror neg. values
    isdata: false
    categories: [file-io]
    encoding: sdr-video
    interchange:
      amf_transform_ids: |
        urn:ampas:aces:transformId:v2.0:InvOutput.Academy.Rec709-D65_100nit_in_Rec709-D65_Gamma2pt2.a2.v1
        urn:ampas:aces:transformId:v2.0:Output.Academy.Rec709-D65_100nit_in_Rec709-D65_Gamma2pt2.a2.v1
    allocation: uniform
    from_display_reference: !<BuiltinTransform> {style: DISPLAY - CIE-XYZ-D65_to_G2.2-REC.709 - MIRROR NEGS}

  - !<ColorSpace>
    name: Display P3 - Display
    aliases: [displayp3_display, srgb_p3d65_display]
    interop_id: srgb_p3d65_display
    family: Display
    equalitygroup: ""
    bitdepth: 32f
    description: Convert CIE XYZ (D65 white) to Apple Display P3, mirror neg. values
    isdata: false
    categories: [file-io]
    encoding: sdr-video
    interchange:
      amf_transform_ids: |
        urn:ampas:aces:transformId:v2.0:InvOutput.Academy.P3-D65_100nit_in_P3-D65_sRGB-Piecewise.a2.v1
        urn:ampas:aces:transformId:v2.0:Output.Academy.P3-D65_100nit_in_P3-D65_sRGB-Piecewise.a2.v1
    allocation: uniform
    from_display_reference: !<BuiltinTransform> {style: DISPLAY - CIE-XYZ-D65_to_DisplayP3}

  - !<ColorSpace>
    name: Display P3 HDR - Display
    aliases: [displayp3_hdr_display, srgbe_p3d65_display]
    interop_id: srgbe_p3d65_display
    family: Display
    equalitygroup: ""
    bitdepth: 32f
    description: Convert CIE XYZ (D65 white) to Apple Display P3 (HDR), mirror neg. values
    isdata: false
    categories: [file-io]
    encoding: edr-video
    interchange:
      amf_transform_ids: |
        urn:ampas:aces:transformId:v2.0:InvOutput.Academy.P3-D65_1000nit_in_P3-D65_sRGB-Piecewise.a2.v1
        urn:ampas:aces:transformId:v2.0:InvOutput.Academy.Rec709-D65_100nit_in_P3-D65_sRGB-Piecewise.a2.v1
        urn:ampas:aces:transformId:v2.0:Output.Academy.P3-D65_1000nit_in_P3-D65_sRGB-Piecewise.a2.v1
        urn:ampas:aces:transformId:v2.0:Output.Academy.Rec709-D65_100nit_in_P3-D65_sRGB-Piecewise.a2.v1
    allocation: uniform
    from_display_reference: !<BuiltinTransform> {style: DISPLAY - CIE-XYZ-D65_to_DisplayP3-HDR}

  - !<ColorSpace>
    name: P3-D65 - Display
    aliases: [p3d65_display, g26_p3d65_display]
    interop_id: g26_p3d65_display
    family: Display
    equalitygroup: ""
    bitdepth: 32f
    description: Convert CIE XYZ (D65 white) to Gamma 2.6, P3-D65, mirror neg. values
    isdata: false
    categories: [file-io]
    encoding: sdr-video
    interchange:
      amf_transform_ids: |
        urn:ampas:aces:transformId:v2.0:InvOutput.Academy.P3-D65_48nit_in_P3-D65_Gamma2pt6.a2.v1
        urn:ampas:aces:transformId:v2.0:InvOutput.Academy.Rec709-D65_48nit_in_P3-D65_Gamma2pt6.a2.v1
        urn:ampas:aces:transformId:v2.0:Output.Academy.P3-D65_48nit_in_P3-D65_Gamma2pt6.a2.v1
        urn:ampas:aces:transformId:v2.0:Output.Academy.Rec709-D65_48nit_in_P3-D65_Gamma2pt6.a2.v1
    allocation: uniform
    from_display_reference: !<BuiltinTransform> {style: DISPLAY - CIE-XYZ-D65_to_G2.6-P3-D65 - MIRROR NEGS}

  - !<ColorSpace>
    name: Rec.1886 Rec.709 - Display
    aliases: [rec1886_rec709_display, g24_rec709_display]
    interop_id: g24_rec709_display
    family: Display
    equalitygroup: ""
    bitdepth: 32f
    description: Convert CIE XYZ (D65 white) to Rec.1886/Rec.709, mirror neg. values
    isdata: false
    categories: [file-io]
    encoding: sdr-video
    interchange:
      amf_transform_ids: |
        urn:ampas:aces:transformId:v2.0:InvOutput.Academy.Rec709-D65_100nit_in_Rec709-D65_BT1886.a2.v1
        urn:ampas:aces:transformId:v2.0:Output.Academy.Rec709-D65_100nit_in_Rec709-D65_BT1886.a2.v1
    allocation: uniform
    from_display_reference: !<BuiltinTransform> {style: DISPLAY - CIE-XYZ-D65_to_REC.1886-REC.709 - MIRROR NEGS}

  - !<ColorSpace>
    name: Rec.2100-HLG - Display
    aliases: [rec2100_hlg_display, hlg_rec2020_display]
    interop_id: hlg_rec2020_display
    family: Display
    equalitygroup: ""
    bitdepth: 32f
    description: Convert CIE XYZ (D65 white) to Rec.2100-HLG, 1000 nit
    isdata: false
    categories: [file-io]
    encoding: hdr-video
    interchange:
      amf_transform_ids: |
        urn:ampas:aces:transformId:v2.0:InvOutput.Academy.P3-D65_1000nit_in_Rec2100-D65_HLG.a2.v1
        urn:ampas:aces:transformId:v2.0:Output.Academy.P3-D65_1000nit_in_Rec2100-D65_HLG.a2.v1
    allocation: uniform
    from_display_reference: !<BuiltinTransform> {style: DISPLAY - CIE-XYZ-D65_to_REC.2100-HLG-1000nit}

  - !<ColorSpace>
    name: Rec.2100-PQ - Display
    aliases: [rec2100_pq_display, pq_rec2020_display]
    interop_id: pq_rec2020_display
    family: Display
    equalitygroup: ""
    bitdepth: 32f
    description: Convert CIE XYZ (D65 white) to Rec.2100-PQ
    isdata: false
    categories: [file-io]
    encoding: hdr-video
    interchange:
      amf_transform_ids: |
        urn:ampas:aces:transformId:v2.0:InvOutput.Academy.P3-D65_1000nit_in_Rec2100-D65_ST2084.a2.v1
        urn:ampas:aces:transformId:v2.0:InvOutput.Academy.P3-D65_2000nit_in_Rec2100-D65_ST2084.a2.v1
        urn:ampas:aces:transformId:v2.0:InvOutput.Academy.P3-D65_4000nit_in_Rec2100-D65_ST2084.a2.v1
        urn:ampas:aces:transformId:v2.0:InvOutput.Academy.P3-D65_500nit_in_Rec2100-D65_ST2084.a2.v1
        urn:ampas:aces:transformId:v2.0:InvOutput.Academy.Rec2100-D65_1000nit_in_Rec2100-D65_ST2084.a2.v1
        urn:ampas:aces:transformId:v2.0:InvOutput.Academy.Rec2100-D65_2000nit_in_Rec2100-D65_ST2084.a2.v1
        urn:ampas:aces:transformId:v2.0:InvOutput.Academy.Rec2100-D65_4000nit_in_Rec2100-D65_ST2084.a2.v1
        urn:ampas:aces:transformId:v2.0:InvOutput.Academy.Rec2100-D65_500nit_in_Rec2100-D65_ST2084.a2.v1
        urn:ampas:aces:transformId:v2.0:InvOutput.Academy.Rec709-D65_100nit_in_Rec2100-D65_ST2084.a2.v1
        urn:ampas:aces:transformId:v2.0:Output.Academy.P3-D65_1000nit_in_Rec2100-D65_ST2084.a2.v1
        urn:ampas:aces:transformId:v2.0:Output.Academy.P3-D65_2000nit_in_Rec2100-D65_ST2084.a2.v1
        urn:ampas:aces:transformId:v2.0:Output.Academy.P3-D65_4000nit_in_Rec2100-D65_ST2084.a2.v1
        urn:ampas:aces:transformId:v2.0:Output.Academy.P3-D65_500nit_in_Rec2100-D65_ST2084.a2.v1
        urn:ampas:aces:transformId:v2.0:Output.Academy.Rec2100-D65_1000nit_in_Rec2100-D65_ST2084.a2.v1
        urn:ampas:aces:transformId:v2.0:Output.Academy.Rec2100-D65_2000nit_in_Rec2100-D65_ST2084.a2.v1
        urn:ampas:aces:transformId:v2.0:Output.Academy.Rec2100-D65_4000nit_in_Rec2100-D65_ST2084.a2.v1
        urn:ampas:aces:transformId:v2.0:Output.Academy.Rec2100-D65_500nit_in_Rec2100-D65_ST2084.a2.v1
        urn:ampas:aces:transformId:v2.0:Output.Academy.Rec709-D65_100nit_in_Rec2100-D65_ST2084.a2.v1
    allocation: uniform
    from_display_reference: !<BuiltinTransform> {style: DISPLAY - CIE-XYZ-D65_to_REC.2100-PQ}

  - !<ColorSpace>
    name: ST2084-P3-D65 - Display
    aliases: [st2084_p3d65_display, pq_p3d65_display]
    interop_id: pq_p3d65_display
    family: Display
    equalitygroup: ""
