src/ocio/nuke-default/luts/alexalogc.spi1d
Version 1
From -0.125 1.125
Length 4101
Components 1
{
        -0.0405780550352
        -0.0405212559211
        -0.040464456807
        -0.0404076576929
        -0.0403508585788
        -0.0402940594647
        -0.0402372603506
        -0.0401804612365
        -0.0401236621224
        -0.0400668630083
        -0.0400100638942
        -0.0399532647801
        -0.039896465666
        -0.0398396665519
        -0.0397828674378
        -0.0397260683237
        -0.0396692692096
        -0.0396124700956
        -0.0395556709815
        -0.0394988718674
        -0.0394420727533
        -0.0393852736392
        -0.0393284745251
        -0.039271675411
        -0.0392148762969
        -0.0391580771828
        -0.0391012780687
        -0.0390444789546
        -0.0389876798405
        -0.0389308807264
        -0.0388740816123
        -0.0388172824982
        -0.0387604833841
        -0.03870368427
        -0.0386468851559
        -0.0385900860418
        -0.0385332869277
        -0.0384764878136
        -0.0384196886995
        -0.0383628895854
        -0.0383060904713
        -0.0382492913572
        -0.0381924922431
        -0.038135693129
        -0.0380788940149
        -0.0380220949008
        -0.0379652957867
        -0.0379084966726
        -0.0378516975585
        -0.0377948984444
        -0.0377380993303
        -0.0376813002162
        -0.0376245011021
        -0.037567701988
        -0.0375109028739
        -0.0374541037598
        -0.0373973046458
        -0.0373405055317
        -0.0372837064176
        -0.0372269073035
        -0.0371701081894
        -0.0371133090753
        -0.0370565099612
        -0.0369997108471
        -0.036942911733
        -0.0368861126189
        -0.0368293135048
        -0.0367725143907
        -0.0367157152766
        -0.0366589161625
        -0.0366021170484
        -0.0365453179343
        -0.0364885188202
        -0.0364317197061
        -0.036374920592
        -0.0363181214779
        -0.0362613223638
        -0.0362045232497
        -0.0361477241356
        -0.0360909250215
        -0.0360341259074
        -0.0359773267933
        -0.0359205276792
        -0.0358637285651
        -0.035806929451
        -0.0357501303369
        -0.0356933312228
        -0.0356365321087
        -0.0355797329946
        -0.0355229338805
        -0.0354661347664
        -0.0354093356523
        -0.0353525365382
        -0.0352957374241
        -0.0352389383101
        -0.035182139196
        -0.0351253400819
        -0.0350685409678
        -0.0350117418537
        -0.0349549427396
        -0.0348981436255
        -0.0348413445114
        -0.0347845453973
        -0.0347277462832
        -0.0346709471691
        -0.034614148055
        -0.0345573489409
        -0.0345005498268
        -0.0344437507127
        -0.0343869515986
        -0.0343301524845
        -0.0342733533704
        -0.0342165542563
        -0.0341597551422
        -0.0341029560281
        -0.034046156914
        -0.0339893577999
        -0.0339325586858
        -0.0338757595717
        -0.0338189604576
        -0.0337621613435
        -0.0337053622294
        -0.0336485631153
        -0.0335917640012
        -0.0335349648871
        -0.033478165773
        -0.0334213666589
        -0.0333645675448
        -0.0333077684307
        -0.0332509693166
        -0.0331941702025
        -0.0331373710884
        -0.0330805719743
        -0.0330237728603
        -0.0329669737462
        -0.0329101746321
        -0.032853375518
        -0.0327965764039
        -0.0327397772898
        -0.0326829781757
        -0.0326261790616
        -0.0325693799475
        -0.0325125808334
        -0.0324557817193
        -0.0323989826052
        -0.0323421834911
        -0.032285384377
        -0.0322285852629
        -0.0321717861488
        -0.0321149870347
        -0.0320581879206
        -0.0320013888065
        -0.0319445896924
        -0.0318877905783
        -0.0318309914642
        -0.0317741923501
        -0.031717393236
        -0.0316605941219
        -0.0316037950078
        -0.0315469958937
        -0.0314901967796
        -0.0314333976655
        -0.0313765985514
        -0.0313197994373
        -0.0312630003232
        -0.0312062012091
        -0.031149402095
        -0.0310926029809
        -0.0310358038668
        -0.0309790047527
        -0.0309222056386
        -0.0308654065246
        -0.0308086074105
        -0.0307518082964
        -0.0306950091823
        -0.0306382100682
        -0.0305814109541
        -0.03052461184
        -0.0304678127259
        -0.0304110136118
        -0.0303542144977
        -0.0302974153836
        -0.0302406162695
        -0.0301838171554
        -0.0301270180413
        -0.0300702189272
        -0.0300134198131
        -0.029956620699
        -0.0298998215849
        -0.0298430224708
        -0.0297862233567
        -0.0297294242426
        -0.0296726251285
        -0.0296158260144
        -0.0295590269003
        -0.0295022277862
        -0.0294454286721
        -0.029388629558
        -0.0293318304439
        -0.0292750313298
        -0.0292182322157
        -0.0291614331016
        -0.0291046339875
        -0.0290478348734
        -0.0289910357593
        -0.0289342366452
        -0.0288774375311
        -0.028820638417
        -0.0287638393029
        -0.0287070401888
        -0.0286502410748
        -0.0285934419607
        -0.0285366428466
        -0.0284798437325
        -0.0284230446184
        -0.0283662455043
        -0.0283094463902
        -0.0282526472761
        -0.028195848162
        -0.0281390490479
        -0.0280822499338
        -0.0280254508197
        -0.0279686517056
        -0.0279118525915
        -0.0278550534774
        -0.0277982543633
        -0.0277414552492
        -0.0276846561351
        -0.027627857021
        -0.0275710579069
        -0.0275142587928
        -0.0274574596787
        -0.0274006605646
        -0.0273438614505
        -0.0272870623364
        -0.0272302632223
        -0.0271734641082
        -0.0271166649941
        -0.02705986588
        -0.0270030667659
        -0.0269462676518
        -0.0268894685377
        -0.0268326694236
        -0.0267758703095
        -0.0267190711954
        -0.0266622720813
        -0.0266054729672
        -0.0265486738531
        -0.0264918747391
        -0.026435075625
        -0.0263782765109
        -0.0263214773968
        -0.0262646782827
        -0.0262078791686
        -0.0261510800545
        -0.0260942809404
        -0.0260374818263
        -0.0259806827122
        -0.0259238835981
        -0.025867084484
        -0.0258102853699
        -0.0257534862558
        -0.0256966871417
        -0.0256398880276
        -0.0255830889135
        -0.0255262897994
        -0.0254694906853
        -0.0254126915712
        -0.0253558924571
        -0.025299093343
        -0.0252422942289
        -0.0251854951148
        -0.0251286960007
        -0.0250718968866
        -0.0250150977725
        -0.0249582986584
        -0.0249014995443
        -0.0248447004302
        -0.0247879013161
        -0.024731102202
        -0.0246743030879
        -0.0246175039738
        -0.0245607048597
        -0.0245039057456
        -0.0244471066315
        -0.0243903075174
        -0.0243335084033
        -0.0242767092893
        -0.0242199101752
        -0.0241631110611
        -0.024106311947
        -0.0240495128329
        -0.0239927137188
        -0.0239359146047
        -0.0238791154906
        -0.0238223163765
        -0.0237655172624
        -0.0237087181483
        -0.0236519190342
        -0.0235951199201
        -0.023538320806
        -0.0234815216919
        -0.0234247225778
        -0.0233679234637
        -0.0233111243496
        -0.0232543252355
        -0.0231975261214
        -0.0231407270073
        -0.0230839278932
        -0.0230271287791
        -0.022970329665
        -0.0229135305509
        -0.0228567314368
        -0.0227999323227
        -0.0227431332086
        -0.0226863340945
        -0.0226295349804
        -0.0225727358663
        -0.0225159367522
        -0.0224591376381
        -0.022402338524
        -0.0223455394099
        -0.0222887402958
        -0.0222319411817
        -0.0221751420676
        -0.0221183429536
        -0.0220615438395
        -0.0220047447254
        -0.0219479456113
        -0.0218911464972
        -0.0218343473831
        -0.021777548269
        -0.0217207491549
        -0.0216639500408
        -0.0216071509267
        -0.0215503518126
        -0.0214935526985
        -0.0214367535844
        -0.0213799544703
        -0.0213231553562
        -0.0212663562421
        -0.021209557128
        -0.0211527580139
        -0.0210959588998
        -0.0210391597857
        -0.0209823606716
        -0.0209255615575
        -0.0208687624434
        -0.0208119633293
        -0.0207551642152
        -0.0206983651011
        -0.020641565987
        -0.0205847668729
        -0.0205279677588
        -0.0204711686447
        -0.0204143695306
        -0.0203575704165
        -0.0203007713024
        -0.0202439721883
        -0.0201871730742
        -0.0201303739601
        -0.020073574846
        -0.0200167757319
        -0.0199599766178
        -0.0199031775038
        -0.0198463783897
        -0.0197895792756
        -0.0197327801615
        -0.0196759810474
        -0.0196191819333
        -0.0195623828192
        -0.0195055837051
        -0.019448784591
        -0.0193919854769
        -0.0193351863628
        -0.0192783872487
        -0.0192215881346
        -0.0191647890205
        -0.0191079899064
        -0.0190511907923
        -0.0189943916782
        -0.0189375925641
        -0.01888079345
        -0.0188239943359
        -0.0187671952218
        -0.0187103961077
        -0.0186535969936
        -0.0185967978795
        -0.0185399987654
        -0.0184831996513
        -0.0184264005372
        -0.0183696014231
        -0.018312802309
        -0.0182560031949
        -0.0181992040808
        -0.0181424049667
        -0.0180856058526
        -0.0180288067385
        -0.0179720076244
        -0.0179152085103
        -0.0178584093962
        -0.0178016102821
        -0.0177448111681
        -0.017688012054
        -0.0176312129399
        -0.0175744138258
        -0.0175176147117
        -0.0174608155976
        -0.0174040164835
        -0.0173472173694
        -0.0172904182553
        -0.0172336191412
        -0.0171768200271
        -0.017120020913
        -0.0170632217989
        -0.0170064226848
        -0.0169496235707
        -0.0168928244566
        -0.0168360253425
        -0.0167792262284
        -0.0167224271143
        -0.0166656280002
        -0.0166088288861
        -0.016552029772
        -0.0164952306579
        -0.0164384315438
        -0.0163816324297
        -0.0163248333156
        -0.0162680342015
        -0.0162112350874
        -0.0161544359733
        -0.0160976368592
        -0.0160408377451
        -0.015984038631
        -0.0159272395169
        -0.0158704404028
        -0.0158136412887
        -0.0157568421746
        -0.0157000430605
        -0.0156432439464
        -0.0155864448323
        -0.0155296457183
        -0.0154728466042
        -0.0154160474901
        -0.015359248376
        -0.0153024492619
        -0.0152456501478
        -0.0151888510337
        -0.0151320519196
        -0.0150752528055
        -0.0150184536914
        -0.0149616545773
        -0.0149048554632
        -0.0148480563491
        -0.014791257235
        -0.0147344581209
        -0.0146776590068
        -0.0146208598927
        -0.0145640607786
        -0.0145072616645
        -0.0144504625504
        -0.0143936634363
        -0.0143368643222
        -0.0142800652081
        -0.014223266094
        -0.0141664669799
        -0.0141096678658
        -0.0140528687517
        -0.0139960696376
        -0.0139392705235
        -0.0138824714094
        -0.0138256722953
        -0.0137688731812
        -0.0137120740671
        -0.013655274953
        -0.0135984758389
        -0.0135416767248
        -0.0134848776107
        -0.0134280784966
        -0.0133712793826
        -0.0133144802685
        -0.0132576811544
        -0.0132008820403
        -0.0131440829262
        -0.0130872838121
        -0.013030484698
        -0.0129736855839
        -0.0129168864698
        -0.0128600873557
        -0.0128032882416
        -0.0127464891275
        -0.0126896900134
        -0.0126328908993
        -0.0125760917852
        -0.0125192926711
        -0.012462493557
        -0.0124056944429
        -0.0123488953288
        -0.0122920962147
        -0.0122352971006
        -0.0121784979865
        -0.0121216988724
        -0.0120648997583
        -0.0120081006442
        -0.0119513015301
        -0.011894502416
        -0.0118377033019
        -0.0117809041878
        -0.0117241050737
        -0.0116673059596
        -0.0116105068455
        -0.0115537077314
        -0.0114969086173
        -0.0114401095032
        -0.0113833103891
        -0.011326511275
        -0.0112697121609
        -0.0112129130468
        -0.0111561139328
        -0.0110993148187
        -0.0110425157046
        -0.0109857165905
        -0.0109289174764
        -0.0108721183623
        -0.0108153192482
        -0.0107585201341
        -0.01070172102
        -0.0106449219059
        -0.0105881227918
        -0.0105313236777
        -0.0104745245636
        -0.0104177254495
        -0.0103609263354
        -0.0103041272213
        -0.0102473281072
        -0.0101905289931
        -0.010133729879
        -0.0100769307649
        -0.0100201316508
        -0.00996333253671
        -0.00990653342261
        -0.00984973430851
        -0.00979293519441
        -0.00973613608032
        -0.00967933696622
        -0.00962253785212
        -0.00956573873803
        -0.00950893962393
        -0.00945214050983
        -0.00939534139573
        -0.00933854228164
        -0.00928174316754
        -0.00922494405344
        -0.00916814493934
        -0.00911134582525
        -0.00905454671115
        -0.00899774759705
        -0.00894094848295
        -0.00888414936886
        -0.00882735025476
        -0.00877055114066
        -0.00871375202656
        -0.00865695291247
        -0.00860015379837
        -0.00854335468427
        -0.00848655557017
        -0.00842975645608
        -0.00837295734198
        -0.00831615822788
        -0.00825935911378
        -0.00820255999969
        -0.00814576088559
        -0.00808896177149
        -0.0080321626574
        -0.0079753635433
        -0.0079185644292
        -0.0078617653151
        -0.00780496620101
        -0.00774816708691
        -0.00769136797281
        -0.00763456885871
        -0.00757776974462
        -0.00752097063052
        -0.00746417151642
        -0.00740737240232
        -0.00735057328823
        -0.00729377417413
        -0.00723697506003
        -0.00718017594593
        -0.00712337683184
        -0.00706657771774
        -0.00700977860364
        -0.00695297948954
        -0.00689618037545
        -0.00683938126135
        -0.00678258214725
        -0.00672578303315
        -0.00666898391906
        -0.00661218480496
        -0.00655538569086
        -0.00649858657677
        -0.00644178746267
        -0.00638498834857
        -0.00632818923447
        -0.00627139012038
        -0.00621459100628
        -0.00615779189218
        -0.00610099277808
        -0.00604419366399
        -0.00598739454989
        -0.00593059543579
        -0.00587379632169
        -0.0058169972076
        -0.0057601980935
        -0.0057033989794
        -0.0056465998653
        -0.00558980075121
        -0.00553300163711
        -0.00547620252301
        -0.00541940340891
        -0.00536260429482
        -0.00530580518072
        -0.00524900606662
        -0.00519220695253
        -0.00513540783843
        -0.00507860872433
        -0.00502180961023
        -0.00496501049614
        -0.00490821138204
        -0.00485141226794
        -0.00479461315384
        -0.00473781403975
        -0.00468101492565
        -0.00462421581155
        -0.00456741669745
        -0.00451061758336
        -0.00445381846926
        -0.00439701935516
        -0.00434022024106
        -0.00428342112697
        -0.00422662201287
        -0.00416982289877
        -0.00411302378467
        -0.00405622467058
        -0.00399942555648
        -0.00394262644238
        -0.00388582732828
        -0.00382902821419
        -0.00377222910009
        -0.00371542998599
        -0.0036586308719
        -0.0036018317578
        -0.0035450326437
        -0.0034882335296
        -0.00343143441551
        -0.00337463530141
        -0.00331783618731
        -0.00326103707321
        -0.00320423795912
        -0.00314743884502
        -0.00309063973092
        -0.00303384061682
        -0.00297704150273
        -0.00292024238863
        -0.00286344327453
        -0.00280664416043
        -0.00274984504634
        -0.00269304593224
        -0.00263624681814
        -0.00257944770404
        -0.00252264858995
        -0.00246584947585
        -0.00240905036175
        -0.00235225124766
        -0.00229545213356
        -0.00223865301946
        -0.00218185390536
        -0.00212505479127
        -0.00206825567717
        -0.00201145656307
        -0.00195465744897
        -0.00189785833488
        -0.00184105922078
        -0.00178426010668
        -0.00172746099258
        -0.00167066187849
        -0.00161386276439
        -0.00155706365029
        -0.00150026453619
        -0.0014434654221
        -0.001386666308
        -0.0013298671939
        -0.0012730680798
        -0.00121626896571
        -0.00115946985161
        -0.00110267073751
        -0.00104587162341
        -0.000989072509317
        -0.00093227339522
        -0.000875474281123
        -0.000818675167025
        -0.000761876052928
        -0.00070507693883
        -0.000648277824733
        -0.000591478710636
        -0.000534679596538
        -0.000477880482441
        -0.000421081368343
        -0.000364282254246
        -0.000307483140149
        -0.000250684026051
        -0.000193884911954
        -0.000137085797856
        -8.0286683759e-05
        -2.34875696616e-05
        3.33115444358e-05
        9.01106585332e-05
        0.000146909772631
        0.000203708886728
        0.000260508000825
        0.000317307114923
        0.00037410622902
        0.000430905343118
        0.000487704457215
        0.000544503571312
        0.00060130268541
        0.000658101799507
        0.000714900913605
        0.000771700027702
        0.000828499141799
        0.000885298255897
        0.000942097369994
        0.000998896484092
        0.00105569559819
        0.00111249471229
        0.00116929382638
        0.00122609294048
        0.00128289205458
        0.00133969116868
        0.00139649028277
        0.00145328939687
        0.00151008851097
        0.00156688762507
        0.00162368673916
        0.00168048585326
        0.00173728496736
        0.00179408408146
        0.00185088319555
        0.00190768230965
        0.00196448142375
        0.00202128053784
        0.00207807965194
        0.00213487876604
        0.00219167788014
        0.00224847699423
        0.00230527610833
        0.00236207522243
        0.00241887433653
        0.00247567345062
        0.00253247256472
        0.00258927167882
        0.00264607079292
        0.00270286990701
        0.00275966902111
        0.00281646813521
        0.00287326724931
        0.0029300663634
        0.0029868654775
        0.0030436645916
        0.0031004637057
        0.00315726281979
        0.00321406193389
        0.00327086104799
        0.00332766016209
        0.00338445927618
        0.00344125839028
        0.00349805750438
        0.00355485661847
        0.00361165573257
        0.00366845484667
        0.00372525396077
        0.00378205307486
        0.00383885218896
        0.00389565130306
        0.00395245041716
        0.00400924953125
        0.00406604864535
        0.00412284775945
        0.00417964687355
        0.00423644598764
        0.00429324510174
        0.00435004421584
        0.00440684332994
        0.00446364244403
        0.00452044155813
        0.00457724067223
        0.00463403978633
        0.00469083890042
        0.00474763801452
        0.00480443712862
        0.00486123624271
        0.00491803535681
        0.00497483447091
        0.00503163358501
        0.0050884326991
        0.0051452318132
        0.0052020309273
        0.0052588300414
        0.00531562915549
        0.00537242826959
        0.00542922738369
        0.00548602649779
        0.00554282561188
        0.00559962472598
        0.00565642384008
        0.00571322295418
        0.00577002206827
        0.00582682118237
        0.00588362029647
        0.00594041941057
        0.00599721852466
        0.00605401763876
        0.00611081675286
        0.00616761586696
        0.00622441498105
        0.00628121409515
        0.00633801320925
        0.00639481232334
        0.00645161143744
        0.00650841055154
        0.00656520966564
        0.00662200877973
        0.00667880789383
        0.00673560700793
        0.00679240612203
        0.00684920523612
        0.00690600435022
        0.00696280346432
        0.00701960257842
        0.00707640169251
        0.00713320080661
        0.00718999992071
        0.00724679903481
        0.0073035981489
        0.007360397263
        0.0074171963771
        0.0074739954912
        0.00753079460529
        0.00758759371939
        0.00764439283349
        0.00770119194759
        0.00775799106168
        0.00781479017578
        0.00787158928988
        0.00792838840397
        0.00798518751807
        0.00804198663217
        0.00809878574627
        0.00815558486036
        0.00821238397446
        0.00826918308856
        0.00832598220266
        0.00838278131675
        0.00843958043085
        0.00849637954495
        0.00855317865905
        0.00860997777314
        0.00866677688724
        0.00872357600134
        0.00878037511544
        0.00883717422953
        0.00889397334363
        0.00895077245773
        0.00900757157183
        0.00906437068592
        0.00912116980002
        0.00917796891412
        0.00923476802821
        0.00929156714231
        0.00934836625641
        0.00940516537051
        0.0094619644846
        0.0095187635987
        0.0095755627128
        0.0096323618269
        0.00968916094099
        0.00974596005509
        0.00980275916919
        0.00985955828329
        0.00991635739738
        0.00997315651148
        0.0100299556256
        0.0100867547397
        0.0101435538538
        0.0102003529679
        0.010257152082
        0.0103139511961
        0.0103707503102
        0.0104275494243
        0.0104843485384
        0.0105411476525
        0.0105979945725
        0.0106548941119
        0.0107119554729
        0.0107691791157
        0.010826565502
        0.0108841150944
        0.0109418283571
        0.0109997057557
        0.011057747757
        0.011115954829
        0.0111743274412
        0.0112328660644
        0.0112915711708
        0.0113504432338
        0.0114094827283
        0.0114686901304
