src/ocio/nuke-default/luts/arrilogc4.spi1d
Version 1
From -0.125 1.125
Length 4101
Components 1
{
        -0.04787857605223088
        -0.04774689677743528
        -0.04761564626506587
        -0.0474848231190243
        -0.047354425947758065
        -0.04722445336424573
        -0.04709490398598214
        -0.04696577643496373
        -0.046837069337673884
        -0.046708781325068296
        -0.04658091103256043
        -0.04645345710000698
        -0.046326418171693445
        -0.046199792896319675
        -0.04607357992698548
        -0.04594777792117634
        -0.04582238554074913
        -0.04569740145191785
        -0.04557282432523946
        -0.045448652835599734
        -0.04532488566219917
        -0.04520152148853894
        -0.04507855900240687
        -0.044955996895863506
        -0.04483383386522819
        -0.04471206861106519
        -0.044590699838169885
        -0.04446972625555498
        -0.04434914657643679
        -0.04422895951822153
        -0.04410916380249169
        -0.04398975815499241
        -0.043870741305617994
        -0.043752111988398304
        -0.04363386894148536
        -0.04351601090713991
        -0.04339853663171802
        -0.043281444865657784
        -0.04316473436346598
        -0.043048403883704886
        -0.04293245218897901
        -0.042816878045921984
        -0.04270168022518339
        -0.04258685750141575
        -0.04247240865326139
        -0.0423583324633396
        -0.04224462771823353
        -0.04213129320847739
        -0.0420183277285435
        -0.041905730076829545
        -0.04179349905564577
        -0.04168163347120221
        -0.04157013213359604
        -0.04145899385679886
        -0.04134821745864413
        -0.04123780176081457
        -0.04112774558882963
        -0.041018047772033016
        -0.04090870714358019
        -0.04079972254042603
        -0.040691092803312394
        -0.0405828167767558
        -0.04047489330903519
        -0.040367321252179615
        -0.04026009946195603
        -0.04015322679785718
        -0.040046702123089396
        -0.039940524304560555
        -0.039834692212868006
        -0.03972920472228654
        -0.039624060710756456
        -0.03951925905987161
        -0.039414798654867494
        -0.03931067838460941
        -0.03920689714158063
        -0.03910345382187062
        -0.03900034732516334
        -0.03889757655472544
        -0.038795140417394715
        -0.03869303782356837
        -0.03859126768719152
        -0.03848982892574557
        -0.038388720460236725
        -0.038287941215184536
        -0.03818749011861041
        -0.03808736610202626
        -0.037987568100423114
        -0.03788809505225976
        -0.03778894589945153
        -0.03769011958735896
        -0.03759161506477661
        -0.0374934312839219
        -0.037395567200423946
        -0.03729802177331244
        -0.03720079396500661
        -0.03710388274130414
        -0.037007287071370194
        -0.036911005927726476
        -0.036815038286240234
        -0.03671938312611344
        -0.036624039429871885
        -0.03652900618335437
        -0.03643428237570191
        -0.03633986699934702
        -0.03624575905000293
        -0.03615195752665295
        -0.03605846143153984
        -0.03596526977015512
        -0.03587238155122859
        -0.03577979578671771
        -0.03568751149179711
        -0.03559552768484814
        -0.03550384338744841
        -0.035412457624361356
        -0.03532136942352593
        -0.035230577816046195
        -0.035140081836181065
        -0.035049880521334
        -0.034959972912042794
        -0.034870358051969357
        -0.034781034987889536
        -0.03469200276968298
        -0.03460326045032304
        -0.0345148070858667
        -0.03442664173544451
        -0.03433876346125062
        -0.034251171328532753
        -0.034163864405582306
        -0.03407684176372443
        -0.03399010247730813
        -0.03390364562369644
        -0.033817470283256594
        -0.03373157553935027
        -0.03364596047832383
        -0.033560624189498546
        -0.033475565765161024
        -0.033390784300553436
        -0.033306278893863984
        -0.03322204864621724
        -0.033138092661664634
        -0.0330544100471749
        -0.03297099991262458
        -0.03288786137078856
        -0.032804993537330615
        -0.03272239553079404
        -0.03264006647259224
        -0.0325580054869994
        -0.032476211701141164
        -0.032394684244985344
        -0.0323134222513327
        -0.03223242485580765
        -0.03215169119684915
        -0.03207122041570148
        -0.031991011656405124
        -0.03191106406578767
        -0.031831376793454734
        -0.0317519489917809
        -0.03167277981590073
        -0.03159386842369974
        -0.03151521397580548
        -0.031436815635578604
        -0.03135867256910393
        -0.031280783945181606
        -0.031203148935318274
        -0.031125766713718236
        -0.031048636457274646
        -0.03097175734556083
        -0.030895128560821494
        -0.03081874928796405
        -0.030742618714549946
        -0.03066673603078601
        -0.030591100429515856
        -0.03051571110621129
        -0.030440567258963748
        -0.03036566808847577
        -0.030291012798052505
        -0.03021660059359321
        -0.03014243068358284
        -0.030068502279083614
        -0.02999481459372661
        -0.029921366843703414
        -0.02984815824775778
        -0.029775188027177317
        -0.02970245540578522
        -0.029629959609931984
        -0.029557699868487212
        -0.02948567541283138
        -0.029413885476847677
        -0.029342329296913862
        -0.029271006111894125
        -0.029199915163131
        -0.029129055694437307
        -0.029058426952088073
        -0.02898802818481256
        -0.028917858643786234
        -0.028847917582622833
        -0.028778204257366394
        -0.028708717926483374
        -0.02863945785085474
        -0.02857042329376812
        -0.028501613520909935
        -0.02843302780035764
        -0.02836466540257191
        -0.02829652560038886
        -0.028228607669012355
        -0.02816091088600627
        -0.0280934345312868
        -0.02802617788711483
        -0.02795914023808828
        -0.02789232087113449
        -0.027825719075502655
        -0.027759334142756248
        -0.0276931653667655
        -0.027627212043699858
        -0.027561473472020544
        -0.027495948952473058
        -0.027430637788079745
        -0.027365539284132392
        -0.02730065274818485
        -0.027235977490045617
        -0.02717151282177056
        -0.027107258057655563
        -0.027043212514229233
        -0.026979375510245634
        -0.02691574636667706
        -0.026852324406706776
        -0.026789108955721848
        -0.026726099341305952
        -0.02666329489323223
        -0.026600694943456155
        -0.026538298826108433
        -0.02647610587748791
        -0.026414115436054514
        -0.02635232684242223
        -0.02629073943935207
        -0.026229352571745097
        -0.02616816558663544
        -0.02610717783318336
        -0.02604638866266834
        -0.025985797428482144
        -0.025925403486121976
        -0.025865206193183624
        -0.025805204909354607
        -0.02574539899640737
        -0.025685787818192495
        -0.025626370740631947
        -0.025567147131712317
        -0.025508116361478102
        -0.025449277802025
        -0.025390630827493245
        -0.025332174814060932
        -0.025273909139937392
        -0.025215833185356577
        -0.025157946332570465
        -0.025100247965842492
        -0.025042737471441
        -0.02498541423763271
        -0.024928277654676215
        -0.024871327114815496
        -0.02481456201227346
        -0.024757981743245467
        -0.024701585705892967
        -0.024645373300337045
        -0.02458934392865205
        -0.024533496994859277
        -0.024477831904920554
        -0.02442234806673198
        -0.024367044890117623
        -0.02431192178682322
        -0.024256978170509917
        -0.02420221345674808
        -0.02414762706301099
        -0.024093218408668737
        -0.024038986914982012
        -0.023984932005095924
        -0.023931053104033893
        -0.02387734963869154
        -0.023823821037830553
        -0.023770466732072663
        -0.02371728615389354
        -0.023664278737616784
        -0.0236114439194079
        -0.023558781137268305
        -0.02350628983102934
        -0.023453969442346317
        -0.023401819414692587
        -0.023349839193353615
        -0.023298028225421062
        -0.023246385959786946
        -0.023194911847137734
        -0.023143605339948525
        -0.023092465892477224
        -0.023041492960758733
        -0.022990686002599153
        -0.022940044477570046
        -0.022889567847002662
        -0.02283925557398221
        -0.02278910712334217
        -0.022739121961658563
        -0.022689299557244316
        -0.02263963938014358
        -0.022590140902126098
        -0.0225408035966816
        -0.022491626939014187
        -0.022442610406036755
        -0.022393753476365418
        -0.022345055630313998
        -0.022296516349888454
        -0.0222481351187814
        -0.022199911422366596
        -0.0221518447476935
        -0.022103934583481775
        -0.02205618042011588
        -0.022008581749639634
        -0.021961138065750826
        -0.02191384886379582
        -0.02186671364076417
        -0.021819731895283315
        -0.02177290312761321
        -0.02172622683964101
        -0.02167970253487579
        -0.021633329718443256
        -0.021587107897080474
        -0.021541036579130632
        -0.021495115274537804
        -0.021449343494841754
        -0.021403720753172706
        -0.021358246564246203
        -0.021312920444357925
        -0.021267741911378542
        -0.0212227104847486
        -0.02117782568547339
        -0.02113308703611787
        -0.02108849406080158
        -0.021044046285193567
        -0.020999743236507374
        -0.020955584443495975
        -0.02091156943644678
        -0.020867697747176644
        -0.02082396890902686
        -0.020780382456858232
        -0.020736937927046097
        -0.020693634857475413
        -0.020650472787535835
        -0.02060745125811682
        -0.02056456981160272
        -0.02052182799186797
        -0.020479225344272173
        -0.0204367614156553
        -0.02039443575433286
        -0.0203522479100911
        -0.020310197434182213
        -0.020268283879319567
        -0.020226506799672937
        -0.02018486575086379
        -0.020143360289960503
        -0.020101989975473734
        -0.02006075436735163
        -0.020019653026975254
        -0.01997868551715379
        -0.019937851402120052
        -0.019897150247525665
        -0.01985658162043662
        -0.019816145089328538
        -0.01977584022408217
        -0.01973566659597874
        -0.019695623777695483
        -0.01965571134330098
        -0.01961592886825076
        -0.01957627592938265
        -0.019536752104912406
        -0.019497356974429097
        -0.01945809011889076
        -0.019418951120619803
        -0.01937993956329873
        -0.019341055031965537
        -0.01930229711300945
        -0.019263665394166393
        -0.01922515946451474
        -0.019186778914470806
        -0.019148523335784606
        -0.019110392321535424
        -0.019072385466127547
        -0.019034502365285914
        -0.018996742616051842
        -0.018959105816778725
        -0.018921591567127742
        -0.018884199468063648
        -0.018846929121850483
        -0.01880978013204737
        -0.018772752103504278
        -0.01873584464235784
        -0.018699057356027143
        -0.018662389853209563
        -0.018625841743876603
        -0.018589412639269748
        -0.018553102151896306
        -0.01851690989552533
        -0.01848083548518346
        -0.01844487853715087
        -0.018409038668957153
        -0.018373315499377284
        -0.018337708648427545
        -0.018302217737361477
        -0.01826684238866587
        -0.018231582226056742
        -0.01819643687447533
        -0.0181614059600841
        -0.01812648911026278
        -0.018091685953604397
        -0.01805699611991131
        -0.01802230628621822
        -0.017987503129559837
        -0.017952586279738517
        -0.01791755536534729
        -0.017882410013765875
        -0.01784714985115675
        -0.01781177450246114
        -0.017776283591395072
        -0.017740676740445334
        -0.017704953570865465
        -0.017669113702671747
        -0.017633156754639157
        -0.01759708234429729
        -0.01756089008792631
        -0.01752457960055287
        -0.017488150495946014
        -0.017451602386613054
        -0.017414934883795474
        -0.01737814759746478
        -0.01734124013631834
        -0.017304212107775246
        -0.017267063117972135
        -0.01722979277175897
        -0.017192400672694876
        -0.017154886423043893
        -0.017117249623770776
        -0.017079489874536703
        -0.01704160677369507
        -0.017003599918287194
        -0.016965468904038012
        -0.01692721332535181
        -0.016888832775307876
        -0.016850326845656224
        -0.01681169512681317
        -0.01677293720785708
        -0.016734052676523888
        -0.016695041119202815
        -0.01665590212093186
        -0.01661663526539352
        -0.01657724013491021
        -0.016537716310439966
        -0.016498063371571857
        -0.016458280896521637
        -0.016418368462127134
        -0.016378325643843877
        -0.01633815201574045
        -0.01629784715049408
        -0.016257410619385997
        -0.016216841992296952
        -0.016176140837702566
        -0.016135306722668826
        -0.016094339212847364
        -0.01605323787247099
        -0.016012002264348884
        -0.015970631949862115
        -0.015929126488958827
        -0.01588748544014968
        -0.01584570836050304
        -0.015803794805640405
        -0.015761744329731507
        -0.01571955648548976
        -0.015677230824167318
        -0.015634766895550444
        -0.015592164247954647
        -0.015549422428219896
        -0.0155065409817058
        -0.015463519452286783
        -0.015420357382347205
        -0.015377054312776523
        -0.015333609782964388
        -0.015290023330795759
        -0.015246294492645975
        -0.015202422803375836
        -0.015158407796326644
        -0.015114249003315244
        -0.015069945954629052
        -0.015025498179021041
        -0.014980905203704747
        -0.014936166554349225
        -0.014891281755074015
        -0.014846250328444074
        -0.014801071795464691
        -0.014755745675576413
        -0.01471027148664991
        -0.014664648744980866
        -0.014618876965284813
        -0.014572955660691986
        -0.014526884342742142
        -0.01448066252137936
        -0.014434289704946826
        -0.014387765400181607
        -0.014341089112209406
        -0.014294260344539301
        -0.014247278599058447
        -0.0142001433760268
        -0.01415285417407179
        -0.014105410490182982
        -0.014057811819706738
        -0.014010057656340842
        -0.013962147492129118
        -0.01391408081745602
        -0.013865857121041218
        -0.013817475889934165
        -0.01376893660950862
        -0.0137202387634572
        -0.013671381833785865
        -0.01362236530080843
        -0.013573188643141016
        -0.013523851337696518
        -0.01347435285967904
        -0.0134246926825783
        -0.013374870278164055
        -0.013324885116480448
        -0.013274736665840406
        -0.013224424392819956
        -0.01317394776225257
        -0.013123306237223463
        -0.013072499279063886
        -0.013021526347345392
        -0.012970386899874092
        -0.012919080392684886
        -0.01286760628003567
        -0.012815964014401555
        -0.012764153046469004
        -0.012712172825130031
        -0.012660022797476302
        -0.012607702408793279
        -0.012555211102554312
        -0.012502548320414718
        -0.012449713502205834
        -0.012396706085929077
        -0.012343525507749954
        -0.012290171201992063
        -0.012236642601131078
        -0.012182939135788723
        -0.012129060234726695
        -0.012075005324840604
        -0.012020773831153879
        -0.01196636517681163
        -0.011911778783074537
        -0.011857014069312687
        -0.011802070452999388
        -0.011746947349704981
        -0.011691644173090626
        -0.011636160334902057
        -0.011580495244963332
        -0.011524648311170551
        -0.011468618939485564
        -0.01141240653392964
        -0.011356010496577138
        -0.01129943022754915
        -0.011242665125007108
        -0.011185714585146389
        -0.011128578002189898
        -0.011071254768381607
        -0.011013744273980115
        -0.010956045907252143
        -0.01089815905446603
        -0.010840083099885213
        -0.010781817425761675
        -0.010723361412329362
        -0.010664714437797604
        -0.010605875878344505
        -0.010546845108110289
        -0.010487621499190658
        -0.010428204421630114
        -0.010368593243415249
        -0.01030878733046801
        -0.010248786046638992
        -0.01018858875370064
        -0.010128194811340476
        -0.010067603577154279
        -0.010006814406639256
        -0.00994582665318718
        -0.009884639668077521
        -0.009823252800470547
        -0.009761665397400386
        -0.009699876803768104
        -0.009637886362334711
        -0.009575693413714186
        -0.009513297296366461
        -0.009450697346590391
        -0.009387892898516666
        -0.00932488328410077
        -0.009261667833115843
        -0.009198245873145558
        -0.009134616729576984
        -0.009070779725593387
        -0.009006734182167056
        -0.008942479418052058
        -0.008878014749777003
        -0.00881333949163777
        -0.008748452955690223
        -0.008683354451742873
        -0.00861804328734956
        -0.008552518767802072
        -0.00848678019612276
        -0.00842082687305712
        -0.008354658097066368
        -0.008288273164319963
        -0.008221671368688127
        -0.008154852001734339
        -0.008087814352707789
        -0.008020557708535818
        -0.007953081353816348
        -0.00788538457081026
        -0.007817466639433756
        -0.007749326837250707
        -0.007680964439464975
        -0.007612378718912683
        -0.0075435689460545
        -0.007474534388967876
        -0.0074052743133392425
        -0.007335787982456224
        -0.007266074657199787
        -0.007196133596036383
        -0.007125964055010058
        -0.007055565287734544
        -0.0069849365453853104
        -0.006914077076691615
        -0.006842986127928494
        -0.006771662942908756
        -0.006700106762974941
        -0.006628316826991239
        -0.006556292371335406
        -0.006484032629890632
        -0.006411536834037399
        -0.0063388042126453
        -0.006265833992064837
        -0.006192625396119204
        -0.006119177646096006
        -0.0060454899607390025
        -0.005971561556239776
        -0.005897391646229409
        -0.005822979441770114
        -0.0057483241513468465
        -0.005673424980858868
        -0.005598281133611326
        -0.0055228918103067594
        -0.005447256209036609
        -0.005371373525272673
        -0.005295242951858566
        -0.005218863679001123
        -0.005142234894261789
        -0.00506535578254797
        -0.004988225526104383
        -0.004910843304504331
        -0.004833208294640996
        -0.004755319670718675
        -0.004677176604244001
        -0.004598778264017119
        -0.004520123816122866
        -0.004441212423921877
        -0.0043620432480416995
        -0.004282615446367867
        -0.0042029281740349304
        -0.004122980583417477
        -0.0040427718241211235
        -0.003962301042973451
        -0.003881567384014952
        -0.0038005699884899047
        -0.0037193079948372545
        -0.003637780538681437
        -0.0035559867528231993
        -0.0034739257672303596
        -0.0033915967090285626
        -0.0033089987024919874
        -0.003226130869034045
        -0.003142992327198021
        -0.0030595821926476976
        -0.0029758995781579652
        -0.0028919435936053616
        -0.002807713345958619
        -0.002723207939269162
        -0.0026384264746615806
        -0.002553368050324054
        -0.002468031761498776
        -0.0023824167004723265
        -0.0022965219565660067
        -0.0022103466161261663
        -0.002123889762514472
        -0.0020371504760981706
        -0.0019501278342402932
        -0.00186282091128985
        -0.0017752287785719825
        -0.0016873505043780883
        -0.0015991851539559033
        -0.0015107317894995594
        -0.0014219894701396232
        -0.001332957251933066
        -0.00124363418785324
        -0.0011540193277798016
        -0.0010641117184885987
        -0.0009739104036415384
        -0.0008834144237764215
        -0.0007926228162966903
        -0.0007015346154612603
        -0.0006101488523742114
        -0.0005184645549744762
        -0.00042648074802550815
        -0.00033419645310491035
        -0.0002416106885940237
        -0.00014872246966749476
        -5.553080828278199e-05
        3.796528683033443e-05
        0.00013176681018030965
        0.0002258747595244008
        0.0003202901358792942
        0.00041501394353173234
        0.0005100471900492494
        0.0006053908862908048
        0.0007010460464175947
        0.0007970136879038387
        0.0008932948315475593
        0.0009898905014815028
        0.0010868017251839752
        0.001184029533489815
        0.0012815749606013107
        0.001379439044099264
        0.001477622824953971
        0.0015761273475363216
        0.0016749536596288978
        0.001774102812437129
        0.0018735758606004795
        0.00197337386220363
        0.0020734978787877736
        0.0021739489753618965
        0.00227472822041409
        0.0023758366859229323
        0.0024772754473688817
        0.0025790455837457365
        0.002681148177572078
        0.0027835843149028082
        0.0028863550853406995
        0.0029894615820479898
        0.0030929049017579912
        0.0031966861447867726
        0.003300806415044858
        0.003405266820048974
        0.0035100684709338218
        0.003615212482463902
        0.00372069997304536
        0.0038265320647379213
        0.003932709883266762
        0.004039234558034539
        0.004146107222133392
        0.004253329012356976
        0.004360901069212553
        0.004468824536933164
        0.0045771005634897485
        0.004685730300603392
        0.004794714903757553
        0.004904055532210374
        0.005013753349006992
        0.005123809520991931
        0.005234225218821494
        0.005345001616976225
        0.005456139893773404
        0.005567641231379579
        0.005679506815823133
        0.005791737837006905
        0.005904335488720857
        0.006017300968654753
        0.006130635478410913
        0.006244340223516981
        0.006358416413438778
        0.0064728652615931295
        0.006587687985360776
        0.006702885806099368
        0.006818459949156394
