src/ocio/nuke-default/luts/blackmagicfilmgen5.spi1d
Version 1
From -0.125 1.125
Length 4101
Components 1
{
        -0.026252546922109068
        -0.026215741930265126
        -0.026178936938421188
        -0.026142131946577246
        -0.026105326954733308
        -0.026068521962889366
        -0.026031716971045428
        -0.025994911979201486
        -0.025958106987357545
        -0.025921301995513606
        -0.025884497003669665
        -0.025847692011825726
        -0.025810887019981785
        -0.025774082028137846
        -0.025737277036293905
        -0.025700472044449967
        -0.025663667052606025
        -0.025626862060762083
        -0.025590057068918145
        -0.025553252077074203
        -0.025516447085230265
        -0.025479642093386323
        -0.025442837101542385
        -0.025406032109698443
        -0.025369227117854505
        -0.025332422126010563
        -0.02529561713416662
        -0.025258812142322683
        -0.02522200715047874
        -0.025185202158634803
        -0.025148397166790862
        -0.025111592174946927
        -0.025074787183102985
        -0.025037982191259047
        -0.025001177199415105
        -0.024964372207571164
        -0.024927567215727225
        -0.024890762223883284
        -0.024853957232039346
        -0.024817152240195404
        -0.024780347248351466
        -0.024743542256507524
        -0.024706737264663586
        -0.024669932272819644
        -0.024633127280975702
        -0.024596322289131764
        -0.024559517297287822
        -0.024522712305443884
        -0.024485907313599942
        -0.024449102321756004
        -0.024412297329912062
        -0.024375492338068124
        -0.024338687346224182
        -0.02430188235438024
        -0.024265077362536303
        -0.02422827237069236
        -0.024191467378848423
        -0.02415466238700448
        -0.024117857395160543
        -0.0240810524033166
        -0.024044247411472663
        -0.02400744241962872
        -0.023970637427784783
        -0.02393383243594084
        -0.0238970274440969
        -0.02386022245225296
        -0.02382341746040902
        -0.02378661246856508
        -0.02374980747672114
        -0.0237130024848772
        -0.02367619749303326
        -0.02363939250118932
        -0.02360258750934538
        -0.02356578251750144
        -0.023528977525657503
        -0.02349217253381356
        -0.023455367541969623
        -0.02341856255012568
        -0.023381757558281743
        -0.0233449525664378
        -0.023308147574593863
        -0.02327134258274992
        -0.02323453759090598
        -0.02319773259906204
        -0.0231609276072181
        -0.023124122615374162
        -0.02308731762353022
        -0.023050512631686282
        -0.02301370763984234
        -0.022976902647998402
        -0.02294009765615446
        -0.02290329266431052
        -0.02286648767246658
        -0.02282968268062264
        -0.0227928776887787
        -0.02275607269693476
        -0.02271926770509082
        -0.02268246271324688
        -0.02264565772140294
        -0.022608852729559
        -0.022572047737715057
        -0.02253524274587112
        -0.022498437754027177
        -0.02246163276218324
        -0.022424827770339297
        -0.02238802277849536
        -0.022351217786651417
        -0.02231441279480748
        -0.022277607802963537
        -0.022240802811119596
        -0.022203997819275657
        -0.022167192827431716
        -0.022130387835587777
        -0.022093582843743836
        -0.022056777851899897
        -0.022019972860055956
        -0.021983167868212018
        -0.021946362876368076
        -0.021909557884524134
        -0.021872752892680196
        -0.021835947900836254
        -0.021799142908992316
        -0.021762337917148374
        -0.021725532925304436
        -0.021688727933460494
        -0.021651922941616556
        -0.021615117949772614
        -0.021578312957928676
        -0.021541507966084734
        -0.021504702974240793
        -0.021467897982396855
        -0.021431092990552913
        -0.021394287998708975
        -0.021357483006865033
        -0.021320678015021095
        -0.021283873023177153
        -0.021247068031333215
        -0.021210263039489273
        -0.02117345804764533
        -0.021136653055801393
        -0.02109984806395745
        -0.021063043072113513
        -0.02102623808026957
        -0.020989433088425633
        -0.02095262809658169
        -0.020915823104737753
        -0.02087901811289381
        -0.02084221312104987
        -0.02080540812920593
        -0.02076860313736199
        -0.02073179814551805
        -0.02069499315367411
        -0.02065818816183017
        -0.02062138316998623
        -0.020584578178142292
        -0.02054777318629835
        -0.02051096819445441
        -0.02047416320261047
        -0.02043735821076653
        -0.02040055321892259
        -0.02036374822707865
        -0.02032694323523471
        -0.02029013824339077
        -0.02025333325154683
        -0.02021652825970289
        -0.020179723267858947
        -0.02014291827601501
        -0.020106113284171067
        -0.02006930829232713
        -0.020032503300483187
        -0.01999569830863925
        -0.019958893316795307
        -0.01992208832495137
        -0.019885283333107427
        -0.01984847834126349
        -0.019811673349419547
        -0.019774868357575606
        -0.019738063365731667
        -0.019701258373887726
        -0.019664453382043787
        -0.019627648390199846
        -0.019590843398355907
        -0.019554038406511966
        -0.019517233414668027
        -0.019480428422824086
        -0.019443623430980144
        -0.019406818439136206
        -0.019370013447292264
        -0.019333208455448326
        -0.019296403463604384
        -0.019259598471760446
        -0.019222793479916504
        -0.019185988488072566
        -0.019149183496228624
        -0.019112378504384683
        -0.019075573512540744
        -0.019038768520696803
        -0.019001963528852864
        -0.018965158537008923
        -0.018928353545164985
        -0.018891548553321043
        -0.018854743561477105
        -0.018817938569633163
        -0.01878113357778922
        -0.018744328585945283
        -0.01870752359410134
        -0.018670718602257403
        -0.01863391361041346
        -0.018597108618569523
        -0.01856030362672558
        -0.018523498634881643
        -0.0184866936430377
        -0.01844988865119376
        -0.01841308365934982
        -0.01837627866750588
        -0.01833947367566194
        -0.018302668683818
        -0.01826586369197406
        -0.01822905870013012
        -0.01819225370828618
        -0.01815544871644224
        -0.018118643724598302
        -0.01808183873275436
        -0.01804503374091042
        -0.01800822874906648
        -0.01797142375722254
        -0.0179346187653786
        -0.01789781377353466
        -0.01786100878169072
        -0.01782420378984678
        -0.01778739879800284
        -0.0177505938061589
        -0.017713788814314957
        -0.01767698382247102
        -0.017640178830627077
        -0.01760337383878314
        -0.017566568846939197
        -0.01752976385509526
        -0.017492958863251317
        -0.01745615387140738
        -0.017419348879563437
        -0.0173825438877195
        -0.01734573889587556
        -0.01730893390403162
        -0.01727212891218768
        -0.01723532392034374
        -0.0171985189284998
        -0.01716171393665586
        -0.01712490894481192
        -0.01708810395296798
        -0.017051298961124037
        -0.0170144939692801
        -0.016977688977436158
        -0.01694088398559222
        -0.016904078993748278
        -0.01686727400190434
        -0.016830469010060398
        -0.01679366401821646
        -0.016756859026372518
        -0.016720054034528576
        -0.016683249042684638
        -0.016646444050840696
        -0.016609639058996758
        -0.016572834067152816
        -0.016536029075308878
        -0.016499224083464936
        -0.016462419091620998
        -0.016425614099777056
        -0.016388809107933115
        -0.016352004116089176
        -0.016315199124245235
        -0.016278394132401296
        -0.016241589140557355
        -0.016204784148713416
        -0.016167979156869475
        -0.016131174165025536
        -0.016094369173181595
        -0.016057564181337657
        -0.016020759189493715
        -0.015983954197649773
        -0.015947149205805835
        -0.015910344213961893
        -0.015873539222117955
        -0.015836734230274013
        -0.015799929238430075
        -0.015763124246586133
        -0.015726319254742195
        -0.015689514262898253
        -0.01565270927105431
        -0.015615904279210377
        -0.015579099287366437
        -0.015542294295522495
        -0.015505489303678555
        -0.015468684311834615
        -0.015431879319990675
        -0.015395074328146735
        -0.015358269336302795
        -0.015321464344458855
        -0.015284659352614915
        -0.015247854360770976
        -0.015211049368927034
        -0.015174244377083094
        -0.015137439385239154
        -0.015100634393395214
        -0.015063829401551272
        -0.015027024409707332
        -0.014990219417863392
        -0.014953414426019452
        -0.014916609434175512
        -0.014879804442331572
        -0.01484299945048763
        -0.01480619445864369
        -0.01476938946679975
        -0.01473258447495581
        -0.01469577948311187
        -0.01465897449126793
        -0.01462216949942399
        -0.014585364507580051
        -0.014548559515736111
        -0.014511754523892171
        -0.01447494953204823
        -0.01443814454020429
        -0.01440133954836035
        -0.01436453455651641
        -0.01432772956467247
        -0.01429092457282853
        -0.01425411958098459
        -0.01421731458914065
        -0.01418050959729671
        -0.014143704605452768
        -0.014106899613608828
        -0.014070094621764888
        -0.014033289629920948
        -0.013996484638077008
        -0.013959679646233068
        -0.013922874654389128
        -0.013886069662545188
        -0.013849264670701248
        -0.013812459678857306
        -0.013775654687013366
        -0.013738849695169426
        -0.013702044703325486
        -0.013665239711481546
        -0.013628434719637606
        -0.013591629727793667
        -0.013554824735949727
        -0.013518019744105787
        -0.013481214752261847
        -0.013444409760417905
        -0.013407604768573965
        -0.013370799776730025
        -0.013333994784886085
        -0.013297189793042145
        -0.013260384801198209
        -0.013223579809354269
        -0.013186774817510329
        -0.013149969825666389
        -0.013113164833822447
        -0.013076359841978507
        -0.013039554850134567
        -0.013002749858290627
        -0.012965944866446687
        -0.012929139874602747
        -0.012892334882758807
        -0.012855529890914867
        -0.012818724899070927
        -0.012781919907226985
        -0.012745114915383046
        -0.012708309923539106
        -0.012671504931695166
        -0.012634699939851226
        -0.012597894948007286
        -0.012561089956163346
        -0.012524284964319406
        -0.012487479972475466
        -0.012450674980631524
        -0.012413869988787584
        -0.012377064996943644
        -0.012340260005099704
        -0.012303455013255764
        -0.012266650021411824
        -0.012229845029567884
        -0.012193040037723944
        -0.012156235045880004
        -0.012119430054036064
        -0.012082625062192123
        -0.012045820070348183
        -0.012009015078504243
        -0.011972210086660303
        -0.011935405094816363
        -0.011898600102972423
        -0.011861795111128483
        -0.011824990119284543
        -0.011788185127440603
        -0.011751380135596661
        -0.011714575143752721
        -0.011677770151908781
        -0.011640965160064841
        -0.011604160168220901
        -0.011567355176376961
        -0.011530550184533021
        -0.011493745192689081
        -0.011456940200845141
        -0.011420135209001201
        -0.01138333021715726
        -0.01134652522531332
        -0.01130972023346938
        -0.01127291524162544
        -0.0112361102497815
        -0.01119930525793756
        -0.01116250026609362
        -0.01112569527424968
        -0.01108889028240574
        -0.011052085290561798
        -0.011015280298717858
        -0.010978475306873918
        -0.010941670315029978
        -0.010904865323186038
        -0.010868060331342098
        -0.010831255339498158
        -0.010794450347654218
        -0.010757645355810279
        -0.010720840363966337
        -0.010684035372122397
        -0.010647230380278457
        -0.010610425388434517
        -0.010573620396590577
        -0.010536815404746637
        -0.010500010412902697
        -0.010463205421058757
        -0.010426400429214817
        -0.010389595437370877
        -0.010352790445526935
        -0.010315985453682995
        -0.010279180461839055
        -0.010242375469995115
        -0.010205570478151176
        -0.010168765486307236
        -0.010131960494463296
        -0.010095155502619356
        -0.010058350510775416
        -0.010021545518931474
        -0.009984740527087534
        -0.009947935535243594
        -0.009911130543399654
        -0.009874325551555714
        -0.009837520559711774
        -0.009800715567867834
        -0.009763910576023894
        -0.009727105584179954
        -0.009690300592336014
        -0.009653495600492073
        -0.009616690608648133
        -0.009579885616804193
        -0.009543080624960253
        -0.009506275633116313
        -0.009469470641272373
        -0.009432665649428433
        -0.009395860657584493
        -0.009359055665740553
        -0.009322250673896611
        -0.009285445682052671
        -0.009248640690208731
        -0.009211835698364791
        -0.009175030706520851
        -0.009138225714676911
        -0.009101420722832971
        -0.009064615730989031
        -0.009027810739145091
        -0.00899100574730115
        -0.00895420075545721
        -0.00891739576361327
        -0.00888059077176933
        -0.00884378577992539
        -0.00880698078808145
        -0.00877017579623751
        -0.00873337080439357
        -0.00869656581254963
        -0.00865976082070569
        -0.008622955828861748
        -0.008586150837017808
        -0.008549345845173872
        -0.008512540853329932
        -0.008475735861485992
        -0.008438930869642052
        -0.008402125877798112
        -0.008365320885954172
        -0.008328515894110232
        -0.00829171090226629
        -0.00825490591042235
        -0.00821810091857841
        -0.00818129592673447
        -0.00814449093489053
        -0.00810768594304659
        -0.00807088095120265
        -0.00803407595935871
        -0.00799727096751477
        -0.007960465975670829
        -0.007923660983826889
        -0.007886855991982949
        -0.007850051000139009
        -0.007813246008295069
        -0.007776441016451129
        -0.007739636024607189
        -0.007702831032763248
        -0.007666026040919308
        -0.007629221049075368
        -0.007592416057231428
        -0.007555611065387488
        -0.007518806073543547
        -0.007482001081699607
        -0.0074451960898556675
        -0.0074083910980117275
        -0.007371586106167787
        -0.007334781114323847
        -0.007297976122479907
        -0.007261171130635967
        -0.007224366138792027
        -0.007187561146948086
        -0.007150756155104146
        -0.007113951163260206
        -0.007077146171416266
        -0.007040341179572326
        -0.007003536187728385
        -0.006966731195884445
        -0.006929926204040505
        -0.006893121212196565
        -0.0068563162203526245
        -0.0068195112285086845
        -0.0067827062366647446
        -0.006745901244820805
        -0.006709096252976865
        -0.006672291261132924
        -0.006635486269288984
        -0.006598681277445044
        -0.006561876285601104
        -0.006525071293757164
        -0.006488266301913223
        -0.006451461310069283
        -0.006414656318225343
        -0.006377851326381403
        -0.006341046334537463
        -0.006304241342693522
        -0.006267436350849582
        -0.006230631359005642
        -0.0061938263671617024
        -0.006157021375317762
        -0.006120216383473822
        -0.006083411391629882
        -0.006046606399785942
        -0.006009801407942002
        -0.005972996416098061
        -0.005936191424254121
        -0.005899386432410181
        -0.005862581440566241
        -0.005825776448722301
        -0.00578897145687836
        -0.00575216646503442
        -0.00571536147319048
        -0.00567855648134654
        -0.0056417514895025994
        -0.0056049464976586595
        -0.0055681415058147195
        -0.0055313365139707795
        -0.00549453152212684
        -0.005457726530282899
        -0.005420921538438959
        -0.005384116546595019
        -0.005347311554751079
        -0.005310506562907139
        -0.005273701571063198
        -0.005236896579219258
        -0.005200091587375318
        -0.005163286595531378
        -0.005126481603687437
        -0.005089676611843497
        -0.005052871619999557
        -0.005016066628155621
        -0.004979261636311681
        -0.00494245664446774
        -0.0049056516526238
        -0.00486884666077986
        -0.00483204166893592
        -0.004795236677091979
        -0.004758431685248039
        -0.004721626693404099
        -0.004684821701560159
        -0.004648016709716219
        -0.004611211717872279
        -0.004574406726028339
        -0.004537601734184399
        -0.004500796742340459
        -0.004463991750496519
        -0.004427186758652578
        -0.004390381766808638
        -0.004353576774964698
        -0.004316771783120758
        -0.004279966791276817
        -0.004243161799432877
        -0.004206356807588937
        -0.004169551815744997
        -0.004132746823901057
        -0.004095941832057116
        -0.0040591368402131765
        -0.0040223318483692365
        -0.0039855268565252965
        -0.0039487218646813566
        -0.003911916872837416
        -0.0038751118809934757
        -0.0038383068891495358
        -0.0038015018973055954
        -0.0037646969054616554
        -0.0037278919136177154
        -0.003691086921773775
        -0.003654281929929835
        -0.0036174769380858947
        -0.0035806719462419547
        -0.0035438669543980143
        -0.0035070619625540743
        -0.0034702569707101344
        -0.003433451978866194
        -0.003396646987022254
        -0.0033598419951783136
        -0.0033230370033343736
        -0.003286232011490433
        -0.0032494270196464932
        -0.0032126220278025533
        -0.003175817035958613
        -0.003139012044114673
        -0.0031022070522707325
        -0.0030654020604267925
        -0.003028597068582852
        -0.002991792076738912
        -0.002954987084894972
        -0.002918182093051032
        -0.002881377101207092
        -0.0028445721093631514
        -0.0028077671175192115
        -0.002770962125675271
        -0.002734157133831331
        -0.002697352141987391
        -0.0026605471501434507
        -0.0026237421582995107
        -0.0025869371664555703
        -0.0025501321746116304
        -0.0025133271827676904
        -0.00247652219092375
        -0.00243971719907981
        -0.0024029122072358696
        -0.0023661072153919297
        -0.0023293022235479893
        -0.0022924972317040493
        -0.0022556922398601093
        -0.002218887248016169
        -0.002182082256172229
        -0.0021452772643282885
        -0.0021084722724843486
        -0.002071667280640408
        -0.002034862288796468
        -0.0019980572969525282
        -0.001961252305108588
        -0.0019244473132646476
        -0.0018876423214207077
        -0.0018508373295767675
        -0.0018140323377328273
        -0.0017772273458888871
        -0.001740422354044947
        -0.0017036173622010068
        -0.0016668123703570666
        -0.0016300073785131266
        -0.0015932023866691864
        -0.0015563973948252462
        -0.001519592402981306
        -0.0014827874111373659
        -0.0014459824192934257
        -0.0014091774274494857
        -0.0013723724356055455
        -0.0013355674437616053
        -0.0012987624519176651
        -0.001261957460073725
        -0.0012251524682297848
        -0.0011883474763858446
        -0.0011515424845419046
        -0.0011147374926979644
        -0.0010779325008540242
        -0.001041127509010084
        -0.0010043225171661439
        -0.0009675175253222038
        -0.0009307125334782636
        -0.0008939075416343234
        -0.0008571025497903832
        -0.0008202975579464432
        -0.000783492566102503
        -0.0007466875742585628
        -0.0007098825824146227
        -0.0006730775905706825
        -0.0006362725987267423
        -0.0005994676068828023
        -0.0005626626150388621
        -0.0005258576231949219
        -0.0004890526313509817
        -0.00045224763950704164
        -0.00041544264766310145
        -0.0003786376558191613
        -0.00034183266397522113
        -0.0003050276721312877
        -0.00026822268028734754
        -0.00023141768844340738
        -0.00019461269659946725
        -0.0001578077047555271
        -0.00012100271291158693
        -8.419772106764677e-05
        -4.739272922370663e-05
        -1.0587737379766475e-05
        2.621725446417368e-05
        6.302224630811383e-05
        9.982723815205399e-05
        0.00013663222999599415
        0.00017343722183993428
        0.00021024221368387444
        0.0002470472055278146
        0.00028385219737175476
        0.0003206571892156949
        0.00035746218105963507
        0.0003942671729035752
        0.0004310721647475154
        0.0004678771565914555
        0.0005046821484353957
        0.0005414871402793358
        0.000578292132123276
        0.0006150971239672162
        0.0006519021158111562
        0.0006887071076550964
        0.0007255120994990366
        0.0007623170913429768
        0.0007991220831869169
        0.000835927075030857
        0.0008727320668747972
        0.0009095370587187373
        0.0009463420505626775
        0.0009831470424066177
        0.0010199520342505579
        0.001056757026094498
        0.001093562017938438
        0.0011303670097823782
        0.0011671720016263184
        0.0012039769934702586
        0.0012407819853141988
        0.001277586977158139
        0.0013143919690020791
        0.001351196960846019
        0.0013880019526899593
        0.0014248069445338995
        0.0014616119363778397
        0.0014984169282217798
        0.00153522192006572
        0.0015720269119096602
        0.0016088319037536002
        0.0016456368955975404
        0.0016824418874414806
        0.0017192468792854207
        0.001756051871129361
        0.0017928568629733011
        0.001829661854817241
        0.0018664668466611813
        0.0019032718385051215
        0.0019400768303490616
        0.001976881822193002
        0.002013686814036942
        0.002050491805880882
        0.002087296797724822
        0.0021241017895687626
        0.0021609067814127025
        0.0021977117732566425
        0.002234516765100583
