src/ocio/nuke-default/luts/cineon.spi1d
Version 1
From -0.125 1.125
Length 4101
Components 1
{
        -0.00894259534799
        -0.00893786658315
        -0.00893312648482
        -0.00892837502584
        -0.00892361217896
        -0.00891883791691
        -0.00891405221232
        -0.00890925503776
        -0.00890444636576
        -0.00889962616874
        -0.00889479441909
        -0.00888995108911
        -0.00888509615107
        -0.00888022957713
        -0.0088753513394
        -0.00887046140994
        -0.00886555976071
        -0.00886064636364
        -0.00885572119055
        -0.00885078421324
        -0.00884583540341
        -0.0088408747327
        -0.00883590217269
        -0.00883091769486
        -0.00882592127068
        -0.00882091287149
        -0.00881589246861
        -0.00881086003326
        -0.0088058155366
        -0.00880075894973
        -0.00879569024367
        -0.00879060938937
        -0.00878551635772
        -0.00878041111953
        -0.00877529364555
        -0.00877016390645
        -0.00876502187283
        -0.00875986751523
        -0.00875470080411
        -0.00874952170986
        -0.00874433020281
        -0.0087391262532
        -0.00873390983122
        -0.00872868090696
        -0.00872343945047
        -0.00871818543171
        -0.00871291882058
        -0.00870763958688
        -0.00870234770037
        -0.00869704313073
        -0.00869172584755
        -0.00868639582037
        -0.00868105301864
        -0.00867569741174
        -0.00867032896899
        -0.00866494765961
        -0.00865955345278
        -0.00865414631758
        -0.00864872622303
        -0.00864329313806
        -0.00863784703154
        -0.00863238787226
        -0.00862691562895
        -0.00862143027023
        -0.00861593176468
        -0.00861042008079
        -0.00860489518696
        -0.00859935705155
        -0.00859380564282
        -0.00858824092895
        -0.00858266287805
        -0.00857707145816
        -0.00857146663724
        -0.00856584838317
        -0.00856021666375
        -0.00855457144672
        -0.00854891269971
        -0.00854324039031
        -0.00853755448601
        -0.00853185495423
        -0.00852614176229
        -0.00852041487748
        -0.00851467426696
        -0.00850891989784
        -0.00850315173715
        -0.00849736975182
        -0.00849157390874
        -0.00848576417468
        -0.00847994051635
        -0.00847410290037
        -0.00846825129331
        -0.00846238566162
        -0.00845650597168
        -0.00845061218982
        -0.00844470428225
        -0.00843878221511
        -0.00843284595448
        -0.00842689546633
        -0.00842093071657
        -0.008414951671
        -0.00840895829538
        -0.00840295055535
        -0.00839692841649
        -0.00839089184429
        -0.00838484080415
        -0.0083787752614
        -0.00837269518129
        -0.00836660052896
        -0.00836049126949
        -0.00835436736789
        -0.00834822878904
        -0.00834207549777
        -0.00833590745883
        -0.00832972463687
        -0.00832352699645
        -0.00831731450207
        -0.00831108711811
        -0.0083048448089
        -0.00829858753866
        -0.00829231527154
        -0.00828602797158
        -0.00827972560277
        -0.00827340812899
        -0.00826707551403
        -0.00826072772161
        -0.00825436471534
        -0.00824798645878
        -0.00824159291536
        -0.00823518404844
        -0.00822875982131
        -0.00822232019714
        -0.00821586513904
        -0.00820939461001
        -0.00820290857298
        -0.00819640699078
        -0.00818988982614
        -0.00818335704173
        -0.0081768086001
        -0.00817024446374
        -0.00816366459502
        -0.00815706895623
        -0.00815045750959
        -0.00814383021721
        -0.00813718704111
        -0.00813052794321
        -0.00812385288536
        -0.00811716182932
        -0.00811045473672
        -0.00810373156915
        -0.00809699228807
        -0.00809023685486
        -0.00808346523081
        -0.00807667737712
        -0.00806987325489
        -0.00806305282512
        -0.00805621604874
        -0.00804936288657
        -0.00804249329932
        -0.00803560724764
        -0.00802870469207
        -0.00802178559305
        -0.00801484991094
        -0.00800789760597
        -0.00800092863833
        -0.00799394296806
        -0.00798694055514
        -0.00797992135945
        -0.00797288534075
        -0.00796583245873
        -0.00795876267297
        -0.00795167594296
        -0.00794457222809
        -0.00793745148765
        -0.00793031368083
        -0.00792315876673
        -0.00791598670435
        -0.0079087974526
        -0.00790159097026
        -0.00789436721605
        -0.00788712614857
        -0.00787986772633
        -0.00787259190773
        -0.00786529865107
        -0.00785798791456
        -0.00785065965632
        -0.00784331383433
        -0.00783595040652
        -0.00782856933068
        -0.00782117056451
        -0.00781375406562
        -0.0078063197915
        -0.00779886769956
        -0.00779139774709
        -0.00778390989128
        -0.00777640408923
        -0.00776888029792
        -0.00776133847423
        -0.00775377857495
        -0.00774620055676
        -0.00773860437623
        -0.00773098998983
        -0.00772335735393
        -0.00771570642479
        -0.00770803715855
        -0.00770034951129
        -0.00769264343893
        -0.00768491889733
        -0.00767717584221
        -0.00766941422921
        -0.00766163401384
        -0.00765383515152
        -0.00764601759757
        -0.00763818130717
        -0.00763032623544
        -0.00762245233734
        -0.00761455956777
        -0.00760664788149
        -0.00759871723316
        -0.00759076757734
        -0.00758279886847
        -0.00757481106089
        -0.00756680410882
        -0.00755877796637
        -0.00755073258757
        -0.00754266792629
        -0.00753458393633
        -0.00752648057137
        -0.00751835778495
        -0.00751021553055
        -0.00750205376149
        -0.00749387243101
        -0.00748567149222
        -0.00747745089814
        -0.00746921060164
        -0.00746095055551
        -0.00745267071241
        -0.00744437102491
        -0.00743605144542
        -0.00742771192629
        -0.00741935241972
        -0.00741097287781
        -0.00740257325253
        -0.00739415349576
        -0.00738571355924
        -0.00737725339462
        -0.0073687729534
        -0.00736027218699
        -0.00735175104667
        -0.00734320948363
        -0.0073346474489
        -0.00732606489343
        -0.00731746176803
        -0.00730883802341
        -0.00730019361013
        -0.00729152847868
        -0.00728284257938
        -0.00727413586248
        -0.00726540827806
        -0.00725665977613
        -0.00724789030654
        -0.00723909981904
        -0.00723028826326
        -0.00722145558871
        -0.00721260174477
        -0.00720372668069
        -0.00719483034563
        -0.00718591268861
        -0.00717697365851
        -0.00716801320412
        -0.00715903127408
        -0.00715002781693
        -0.00714100278107
        -0.00713195611479
        -0.00712288776623
        -0.00711379768345
        -0.00710468581433
        -0.00709555210668
        -0.00708639650815
        -0.00707721896626
        -0.00706801942844
        -0.00705879784196
        -0.00704955415398
        -0.00704028831152
        -0.0070310002615
        -0.00702168995067
        -0.0070123573257
        -0.0070030023331
        -0.00699362491926
        -0.00698422503045
        -0.00697480261279
        -0.0069653576123
        -0.00695588997485
        -0.00694639964618
        -0.00693688657191
        -0.00692735069752
        -0.00691779196838
        -0.0069082103297
        -0.00689860572657
        -0.00688897810397
        -0.0068793274067
        -0.00686965357948
        -0.00685995656687
        -0.0068502363133
        -0.00684049276306
        -0.00683072586032
        -0.00682093554911
        -0.00681112177333
        -0.00680128447674
        -0.00679142360296
        -0.0067815390955
        -0.0067716308977
        -0.00676169895279
        -0.00675174320385
        -0.00674176359384
        -0.00673176006555
        -0.00672173256168
        -0.00671168102474
        -0.00670160539716
        -0.00669150562118
        -0.00668138163892
        -0.00667123339239
        -0.00666106082341
        -0.00665086387369
        -0.00664064248481
        -0.00663039659819
        -0.00662012615511
        -0.00660983109671
        -0.00659951136402
        -0.00658916689788
        -0.00657879763901
        -0.006568403528
        -0.00655798450529
        -0.00654754051116
        -0.00653707148576
        -0.00652657736911
        -0.00651605810107
        -0.00650551362136
        -0.00649494386955
        -0.00648434878507
        -0.0064737283072
        -0.0064630823751
        -0.00645241092774
        -0.00644171390398
        -0.00643099124251
        -0.0064202428819
        -0.00640946876054
        -0.00639866881671
        -0.00638784298849
        -0.00637699121387
        -0.00636611343066
        -0.00635520957651
        -0.00634427958894
        -0.00633332340533
        -0.00632234096288
        -0.00631133219866
        -0.00630029704959
        -0.00628923545242
        -0.00627814734377
        -0.00626703266011
        -0.00625589133773
        -0.00624472331279
        -0.00623352852129
        -0.00622230689908
        -0.00621105838186
        -0.00619978290516
        -0.00618848040438
        -0.00617715081473
        -0.00616579407131
        -0.00615441010902
        -0.00614299886264
        -0.00613156026676
        -0.00612009425585
        -0.0061086007642
        -0.00609707972593
        -0.00608553107504
        -0.00607395474533
        -0.00606235067048
        -0.00605071878399
        -0.00603905901919
        -0.00602737130928
        -0.00601565558727
        -0.00600391178604
        -0.00599213983827
        -0.00598033967652
        -0.00596851123316
        -0.00595665444041
        -0.00594476923032
        -0.00593285553478
        -0.00592091328553
        -0.00590894241413
        -0.00589694285198
        -0.00588491453031
        -0.0058728573802
        -0.00586077133256
        -0.00584865631812
        -0.00583651226746
        -0.00582433911098
        -0.00581213677894
        -0.0057999052014
        -0.00578764430828
        -0.0057753540293
        -0.00576303429405
        -0.00575068503191
        -0.00573830617214
        -0.00572589764378
        -0.00571345937573
        -0.00570099129672
        -0.00568849333529
        -0.00567596541982
        -0.00566340747854
        -0.00565081943946
        -0.00563820123045
        -0.00562555277922
        -0.00561287401327
        -0.00560016485994
        -0.00558742524642
        -0.00557465509969
        -0.00556185434658
        -0.00554902291372
        -0.0055361607276
        -0.0055232677145
        -0.00551034380054
        -0.00549738891166
        -0.00548440297362
        -0.00547138591201
        -0.00545833765222
        -0.0054452581195
        -0.00543214723888
        -0.00541900493523
        -0.00540583113325
        -0.00539262575743
        -0.00537938873212
        -0.00536611998144
        -0.00535281942937
        -0.00533948699968
        -0.00532612261597
        -0.00531272620167
        -0.00529929768
        -0.00528583697401
        -0.00527234400655
        -0.00525881870033
        -0.00524526097781
        -0.00523167076132
        -0.00521804797297
        -0.00520439253469
        -0.00519070436824
        -0.00517698339518
        -0.00516322953687
        -0.00514944271451
        -0.00513562284908
        -0.00512176986139
        -0.00510788367205
        -0.0050939642015
        -0.00508001136996
        -0.00506602509748
        -0.00505200530391
        -0.00503795190891
        -0.00502386483195
        -0.00500974399229
        -0.00499558930903
        -0.00498140070105
        -0.00496717808703
        -0.00495292138549
        -0.00493863051471
        -0.00492430539281
        -0.00490994593769
        -0.00489555206707
        -0.00488112369847
        -0.00486666074919
        -0.00485216313637
        -0.00483763077693
        -0.00482306358758
        -0.00480846148485
        -0.00479382438506
        -0.00477915220433
        -0.00476444485859
        -0.00474970226355
        -0.00473492433473
        -0.00472011098746
        -0.00470526213682
        -0.00469037769775
        -0.00467545758494
        -0.00466050171289
        -0.0046455099959
        -0.00463048234806
        -0.00461541868325
        -0.00460031891514
        -0.00458518295722
        -0.00457001072274
        -0.00455480212476
        -0.00453955707613
        -0.00452427548948
        -0.00450895727724
        -0.00449360235164
        -0.00447821062467
        -0.00446278200815
        -0.00444731641364
        -0.00443181375254
        -0.004416273936
        -0.00440069687497
        -0.00438508248018
        -0.00436943066216
        -0.00435374133122
        -0.00433801439744
        -0.00432224977071
        -0.00430644736068
        -0.0042906070768
        -0.00427472882829
        -0.00425881252417
        -0.00424285807323
        -0.00422686538404
        -0.00421083436495
        -0.0041947649241
        -0.0041786569694
        -0.00416251040855
        -0.00414632514901
        -0.00413010109805
        -0.00411383816267
        -0.0040975362497
        -0.00408119526572
        -0.00406481511707
        -0.0040483957099
        -0.00403193695011
        -0.00401543874339
        -0.00399890099519
        -0.00398232361074
        -0.00396570649506
        -0.0039490495529
        -0.00393235268882
        -0.00391561580715
        -0.00389883881196
        -0.00388202160711
        -0.00386516409625
        -0.00384826618275
        -0.0038313277698
        -0.00381434876032
        -0.00379732905702
        -0.00378026856236
        -0.00376316717859
        -0.00374602480769
        -0.00372884135144
        -0.00371161671137
        -0.00369435078877
        -0.00367704348469
        -0.00365969469997
        -0.00364230433517
        -0.00362487229065
        -0.00360739846652
        -0.00358988276263
        -0.00357232507861
        -0.00355472531385
        -0.0035370833675
        -0.00351939913845
        -0.00350167252538
        -0.00348390342668
        -0.00346609174055
        -0.0034482373649
        -0.00343034019743
        -0.00341240013558
        -0.00339441707653
        -0.00337639091724
        -0.00335832155441
        -0.00334020888449
        -0.00332205280369
        -0.00330385320796
        -0.00328560999301
        -0.00326732305431
        -0.00324899228704
        -0.00323061758618
        -0.00321219884642
        -0.00319373596222
        -0.00317522882777
        -0.00315667733701
        -0.00313808138365
        -0.00311944086111
        -0.00310075566258
        -0.00308202568098
        -0.00306325080898
        -0.00304443093898
        -0.00302556596315
        -0.00300665577337
        -0.00298770026129
        -0.00296869931826
        -0.00294965283542
        -0.00293056070362
        -0.00291142281344
        -0.00289223905522
        -0.00287300931902
        -0.00285373349466
        -0.00283441147166
        -0.00281504313931
        -0.00279562838661
        -0.00277616710231
        -0.00275665917488
        -0.00273710449254
        -0.00271750294323
        -0.00269785441461
        -0.0026781587941
        -0.00265841596883
        -0.00263862582566
        -0.00261878825118
        -0.00259890313172
        -0.00257897035332
        -0.00255898980176
        -0.00253896136253
        -0.00251888492088
        -0.00249876036174
        -0.0024785875698
        -0.00245836642946
        -0.00243809682483
        -0.00241777863976
        -0.00239741175783
        -0.00237699606231
        -0.00235653143621
        -0.00233601776227
        -0.00231545492292
        -0.00229484280034
        -0.0022741812764
        -0.0022534702327
        -0.00223270955057
        -0.00221189911102
        -0.00219103879482
        -0.0021701284824
        -0.00214916805396
        -0.00212815738937
        -0.00210709636824
        -0.00208598486987
        -0.00206482277328
        -0.00204360995721
        -0.00202234630009
        -0.00200103168008
        -0.00197966597503
        -0.0019582490625
        -0.00193678081976
        -0.0019152611238
        -0.00189368985128
        -0.0018720668786
        -0.00185039208185
        -0.00182866533682
        -0.00180688651901
        -0.0017850555036
        -0.0017631721655
        -0.00174123637931
        -0.00171924801932
        -0.00169720695953
        -0.00167511307363
        -0.00165296623501
        -0.00163076631676
        -0.00160851319167
        -0.0015862067322
        -0.00156384681055
        -0.00154143329856
        -0.0015189660678
        -0.00149644498953
        -0.00147386993468
        -0.00145124077389
        -0.00142855737748
        -0.00140581961546
        -0.00138302735755
        -0.00136018047311
        -0.00133727883124
        -0.00131432230069
        -0.00129131074991
        -0.00126824404703
        -0.00124512205988
        -0.00122194465594
        -0.0011987117024
        -0.00117542306612
        -0.00115207861366
        -0.00112867821122
        -0.00110522172472
        -0.00108170901974
        -0.00105813996155
        -0.00103451441506
        -0.00101083224491
        -0.000987093315382
        -0.000963297490435
        -0.00093944463371
        -0.000915534608519
        -0.000891567277845
        -0.000867542504342
        -0.000843460150338
        -0.000819320077827
        -0.000795122148476
        -0.000770866223618
        -0.000746552164255
        -0.000722179831054
        -0.00069774908435
        -0.000673259784142
        -0.000648711790095
        -0.000624104961536
        -0.000599439157456
        -0.000574714236508
        -0.000549930057004
        -0.00052508647692
        -0.000500183353888
        -0.000475220545203
        -0.000450197907814
        -0.000425115298329
        -0.000399972573011
        -0.000374769587782
        -0.000349506198215
        -0.000324182259537
        -0.000298797626631
        -0.000273352154029
        -0.000247845695916
        -0.000222278106128
        -0.000196649238149
        -0.000170958945112
        -0.000145207079801
        -0.000119393494643
        -9.35180417134e-05
        -6.75805727335e-05
        -4.15809390683e-05
        -1.55189917268e-05
        1.06054186389e-05
        3.67924417349e-05
        6.30422276259e-05
        8.93549267365e-05
        0.000115730689851
        0.000142169668117
        0.000168672013043
        0.000195237876499
        0.000221867410722
        0.000248560768313
        0.000275318102238
        0.000302139565829
        0.000329025312788
        0.000355975497183
        0.000382990273451
        0.000410069796403
        0.000437214221215
        0.000464423703441
        0.000491698399003
        0.0005190384642
        0.000546444055704
        0.000573915330562
        0.000601452446199
        0.000629055560416
        0.000656724831393
        0.000684460417689
        0.000712262478242
        0.000740131172373
        0.000768066659782
        0.000796069100555
        0.000824138655159
        0.000852275484447
        0.000880479749658
        0.000908751612415
        0.00093709123473
        0.000965498779005
        0.000993974408028
        0.00102251828498
        0.00105113057343
        0.00107981143734
        0.00110856104107
        0.00113737954936
        0.00116626712737
        0.00119522394063
        0.00122425015508
        0.00125334593705
        0.00128251145328
        0.0013117468709
        0.00134105235744
        0.00137042808084
        0.00139987420944
        0.00142939091197
        0.00145897835759
        0.00148863671584
        0.00151836615669
        0.00154816685049
        0.00157803896802
        0.00160798268046
        0.0016379981594
        0.00166808557685
        0.00169824510522
        0.00172847691735
        0.00175878118647
        0.00178915808625
        0.00181960779076
        0.00185013047449
        0.00188072631235
        0.00191139547967
        0.0019421381522
        0.00197295450612
        0.00200384471801
        0.00203480896489
        0.0020658474242
        0.00209696027382
        0.00212814769202
        0.00215940985753
        0.00219074694951
        0.00222215914751
        0.00225364663156
        0.00228520958209
        0.00231684817998
        0.00234856260652
        0.00238035304347
        0.00241221967298
        0.00244416267768
        0.00247618224062
        0.00250827854528
        0.00254045177559
        0.00257270211591
        0.00260502975107
        0.00263743486631
        0.00266991764734
        0.00270247828028
        0.00273511695174
        0.00276783384875
        0.00280062915879
        0.0028335030698
        0.00286645577016
        0.0028994874487
        0.00293259829472
        0.00296578849795
        0.0029990582486
        0.00303240773731
        0.0030658371552
        0.00309934669382
        0.00313293654521
        0.00316660690186
        0.00320035795671
        0.00323418990318
        0.00326810293513
        0.0033020972469
        0.00333617303331
        0.00337033048962
        0.00340456981157
        0.00343889119537
        0.00347329483769
        0.0035077809357
        0.003542349687
        0.00357700128971
        0.00361173594238
        0.00364655384407
        0.00368145519429
        0.00371644019306
        0.00375150904085
        0.00378666193863
        0.00382189908783
        0.00385722069039
        0.00389262694872
        0.00392811806571
        0.00396369424474
        0.00399935568969
        0.0040351026049
        0.00407093519524
        0.00410685366603
        0.00414285822311
        0.00417894907281
        0.00421512642193
        0.0042513904778
        0.00428774144823
        0.00432417954152
        0.00436070496649
        0.00439731793244
        0.00443401864919
        0.00447080732704
        0.00450768417682
        0.00454464940985
        0.00458170323795
        0.00461884587347
        0.00465607752925
        0.00469339841865
        0.00473080875553
        0.00476830875427
        0.00480589862978
        0.00484357859745
        0.00488134887321
        0.0049192096735
        0.0049571612153
        0.00499520371607
        0.00503333739382
        0.00507156246707
        0.00510987915488
        0.00514828767682
        0.00518678825298
        0.005225381104
        0.00526406645103
        0.00530284451576
        0.0053417155204
        0.00538067968772
        0.00541973724098
        0.00545888840401
        0.00549813340117
        0.00553747245735
        0.00557690579798
        0.00561643364903
        0.00565605623703
        0.00569577378902
        0.00573558653261
        0.00577549469594
