src/ocio/nuke-default/luts/clog.spi1d
Version 1
From -0.0684932 1.08676
Length 4101
Components 1
{
        0.0358484075078
        0.035935554637
        0.0360227583253
        0.0361100186095
        0.0361973355263
        0.0362847091125
        0.0363721394048
        0.03645962644
        0.036547170255
        0.0366347708866
        0.0367224283717
        0.0368101427472
        0.03689791405
        0.0369857423171
        0.0370736275854
        0.0371615698919
        0.0372495692737
        0.0373376257677
        0.0374257394111
        0.037513910241
        0.0376021382944
        0.0376904236084
        0.0377787662204
        0.0378671661674
        0.0379556234866
        0.0380441382153
        0.0381327103908
        0.0382213400503
        0.0383100272312
        0.0383987719707
        0.0384875743062
        0.0385764342752
        0.0386653519149
        0.0387543272629
        0.0388433603566
        0.0389324512335
        0.039021599931
        0.0391108064868
        0.0392000709382
        0.039289393323
        0.0393787736788
        0.039468212043
        0.0395577084535
        0.0396472629479
        0.0397368755638
        0.0398265463389
        0.0399162753112
        0.0400060625182
        0.0400959079978
        0.0401858117878
        0.0402757739261
        0.0403657944505
        0.040455873399
        0.0405460108093
        0.0406362067196
        0.0407264611677
        0.0408167741916
        0.0409071458294
        0.0409975761191
        0.0410880650988
        0.0411786128065
        0.0412692192804
        0.0413598845586
        0.0414506086792
        0.0415413916805
        0.0416322336007
        0.041723134478
        0.0418140943507
        0.0419051132571
        0.0419961912354
        0.042087328324
        0.0421785245613
        0.0422697799857
        0.0423610946356
        0.0424524685494
        0.0425439017655
        0.0426353943226
        0.042726946259
        0.0428185576133
        0.0429102284241
        0.04300195873
        0.0430937485696
        0.0431855979815
        0.0432775070044
        0.0433694756769
        0.0434615040378
        0.0435535921259
        0.0436457399798
        0.0437379476384
        0.0438302151405
        0.043922542525
        0.0440149298306
        0.0441073770963
        0.044199884361
        0.0442924516636
        0.0443850790431
        0.0444777665385
        0.0445705141889
        0.0446633220331
        0.0447561901104
        0.0448491184598
        0.0449421071204
        0.0450351561314
        0.0451282655319
        0.0452214353611
        0.0453146656583
        0.0454079564627
        0.0455013078135
        0.0455947197501
        0.0456881923117
        0.0457817255378
        0.0458753194676
        0.0459689741407
        0.0460626895963
        0.0461564658741
        0.0462503030133
        0.0463442010536
        0.0464381600345
        0.0465321799954
        0.0466262609761
        0.046720403016
        0.0468146061548
        0.0469088704323
        0.0470031958879
        0.0470975825616
        0.0471920304929
        0.0472865397216
        0.0473811102876
        0.0474757422306
        0.0475704355905
        0.0476651904071
        0.0477600067203
        0.04785488457
        0.0479498239962
        0.0480448250389
        0.0481398877379
        0.0482350121334
        0.0483301982654
        0.0484254461739
        0.048520755899
        0.0486161274809
        0.0487115609596
        0.0488070563755
        0.0489026137686
        0.0489982331792
        0.0490939146476
        0.0491896582139
        0.0492854639186
        0.049381331802
        0.0494772619043
        0.049573254266
        0.0496693089275
        0.0497654259293
        0.0498616053117
        0.0499578471153
        0.0500541513805
        0.050150518148
        0.0502469474583
        0.0503434393519
        0.0504399938695
        0.0505366110518
        0.0506332909393
        0.0507300335729
        0.0508268389932
        0.0509237072409
        0.0510206383569
        0.051117632382
        0.0512146893569
        0.0513118093226
        0.0514089923199
        0.0515062383896
        0.0516035475729
        0.0517009199106
        0.0517983554436
        0.0518958542131
        0.0519934162601
        0.0520910416256
        0.0521887303507
        0.0522864824765
        0.0523842980442
        0.052482177095
        0.0525801196701
        0.0526781258107
        0.052776195558
        0.0528743289533
        0.052972526038
        0.0530707868533
        0.0531691114407
        0.0532674998415
        0.0533659520971
        0.053464468249
        0.0535630483387
        0.0536616924076
        0.0537604004973
        0.0538591726493
        0.0539580089052
        0.0540569093066
        0.0541558738951
        0.0542549027124
        0.0543539958002
        0.0544531532002
        0.0545523749541
        0.0546516611037
        0.0547510116907
        0.0548504267571
        0.0549499063446
        0.0550494504952
        0.0551490592507
        0.055248732653
        0.0553484707442
        0.0554482735661
        0.0555481411609
        0.0556480735705
        0.055748070837
        0.0558481330025
        0.0559482601091
        0.056048452199
        0.0561487093144
        0.0562490314974
        0.0563494187903
        0.0564498712353
        0.0565503888748
        0.0566509717509
        0.0567516199062
        0.0568523333828
        0.0569531122233
        0.0570539564701
        0.0571548661655
        0.0572558413522
        0.0573568820725
        0.057457988369
        0.0575591602843
        0.057660397861
        0.0577617011416
        0.0578630701689
        0.0579645049854
        0.058066005634
        0.0581675721572
        0.0582692045979
        0.0583709029989
        0.0584726674029
        0.0585744978527
        0.0586763943914
        0.0587783570617
        0.0588803859065
        0.0589824809689
        0.0590846422918
        0.0591868699181
        0.059289163891
        0.0593915242535
        0.0594939510486
        0.0595964443196
        0.0596990041094
        0.0598016304614
        0.0599043234186
        0.0600070830244
        0.060109909322
        0.0602128023546
        0.0603157621656
        0.0604187887984
        0.0605218822962
        0.0606250427025
        0.0607282700607
        0.0608315644143
        0.0609349258067
        0.0610383542815
        0.0611418498821
        0.0612454126522
        0.0613490426353
        0.0614527398751
        0.0615565044152
        0.0616603362994
        0.0617642355712
        0.0618682022744
        0.0619722364529
        0.0620763381503
        0.0621805074106
        0.0622847442775
        0.0623890487949
        0.0624934210068
        0.0625978609571
        0.0627023686897
        0.0628069442486
        0.0629115876779
        0.0630162990216
        0.0631210783238
        0.0632259256285
        0.06333084098
        0.0634358244224
        0.0635408759998
        0.0636459957565
        0.0637511837368
        0.0638564399848
        0.063961764545
        0.0640671574617
        0.0641726187792
        0.0642781485418
        0.0643837467942
        0.0644894135806
        0.0645951489456
        0.0647009529336
        0.0648068255893
        0.0649127669572
        0.0650187770818
        0.0651248560078
        0.0652310037799
        0.0653372204426
        0.0654435060409
        0.0655498606193
        0.0656562842227
        0.0657627768958
        0.0658693386835
        0.0659759696306
        0.066082669782
        0.0661894391827
        0.0662962778775
        0.0664031859115
        0.0665101633296
        0.0666172101769
        0.0667243264984
        0.0668315123393
        0.0669387677446
        0.0670460927595
        0.0671534874291
        0.0672609517988
        0.0673684859136
        0.067476089819
        0.0675837635601
        0.0676915071823
        0.0677993207309
        0.0679072042514
        0.0680151577891
        0.0681231813895
        0.0682312750981
        0.0683394389603
        0.0684476730218
        0.0685559773279
        0.0686643519244
        0.0687727968569
        0.068881312171
        0.0689898979123
        0.0690985541266
        0.0692072808597
        0.0693160781573
        0.0694249460651
        0.0695338846291
        0.069642893895
        0.0697519739089
        0.0698611247164
        0.0699703463638
        0.0700796388968
        0.0701890023615
        0.0702984368039
        0.0704079422702
        0.0705175188064
        0.0706271664586
        0.0707368852729
        0.0708466752957
        0.070956536573
        0.0710664691511
        0.0711764730763
        0.071286548395
        0.0713966951533
        0.0715069133978
        0.0716172031748
        0.0717275645307
        0.071837997512
        0.0719485021651
        0.0720590785366
        0.0721697266731
        0.072280446621
        0.0723912384271
        0.0725021021379
        0.0726130378001
        0.0727240454604
        0.0728351251656
        0.0729462769623
        0.0730575008975
        0.0731687970178
        0.0732801653702
        0.0733916060015
        0.0735031189586
        0.0736147042885
        0.0737263620382
        0.0738380922546
        0.0739498949848
        0.0740617702758
        0.0741737181748
        0.0742857387288
        0.0743978319851
        0.0745099979907
        0.074622236793
        0.0747345484391
        0.0748469329763
        0.074959390452
        0.0750719209134
        0.075184524408
        0.0752972009832
        0.0754099506863
        0.0755227735648
        0.0756356696663
        0.0757486390382
        0.0758616817282
        0.0759747977837
        0.0760879872524
        0.0762012501819
        0.07631458662
        0.0764279966143
        0.0765414802126
        0.0766550374626
        0.0767686684122
        0.0768823731091
        0.0769961516013
        0.0771100039366
        0.0772239301629
        0.0773379303282
        0.0774520044806
        0.0775661526679
        0.0776803749383
        0.0777946713399
        0.0779090419207
        0.0780234867289
        0.0781380058127
        0.0782525992203
        0.0783672669998
        0.0784820091997
        0.0785968258681
        0.0787117170535
        0.0788266828041
        0.0789417231684
        0.0790568381947
        0.0791720279316
        0.0792872924276
        0.0794026317311
        0.0795180458907
        0.079633534955
        0.0797490989727
        0.0798647379922
        0.0799804520624
        0.0800962412319
        0.0802121055495
        0.0803280450639
        0.080444059824
        0.0805601498785
        0.0806763152764
        0.0807925560666
        0.0809088722979
        0.0810252640194
        0.08114173128
        0.0812582741287
        0.0813748926147
        0.081491586787
        0.0816083566947
        0.081725202387
        0.081842123913
        0.0819591213221
        0.0820761946633
        0.0821933439861
        0.0823105693397
        0.0824278707734
        0.0825452483367
        0.082662702079
        0.0827802320496
        0.0828978382981
        0.083015520874
        0.0831332798268
        0.0832511152061
        0.0833690270614
        0.0834870154425
        0.0836050803989
        0.0837232219804
        0.0838414402367
        0.0839597352176
        0.0840781069729
        0.0841965555523
        0.0843150810058
        0.0844336833832
        0.0845523627345
        0.0846711191096
        0.0847899525585
        0.0849088631313
        0.0850278508779
        0.0851469158486
        0.0852660580933
        0.0853852776622
        0.0855045746056
        0.0856239489736
        0.0857434008166
        0.0858629301847
        0.0859825371283
        0.0861022216977
        0.0862219839433
        0.0863418239156
        0.0864617416649
        0.0865817372418
        0.0867018106968
        0.0868219620804
        0.0869421914431
        0.0870624988357
        0.0871828843087
        0.0873033479127
        0.0874238896986
        0.0875445097171
        0.0876652080189
        0.0877859846548
        0.0879068396757
        0.0880277731325
        0.088148785076
        0.0882698755572
        0.0883910446271
        0.0885122923366
        0.0886336187368
        0.0887550238789
        0.0888765078138
        0.0889980705927
        0.0891197122668
        0.0892414328873
        0.0893632325054
        0.0894851111725
        0.0896070689397
        0.0897291058585
        0.0898512219802
        0.0899734173562
        0.0900956920379
        0.0902180460769
        0.0903404795246
        0.0904629924326
        0.0905855848523
        0.0907082568356
        0.0908310084339
        0.0909538396989
        0.0910767506824
        0.091199741436
        0.0913228120117
        0.091445962461
        0.091569192836
        0.0916925031885
        0.0918158935703
        0.0919393640335
        0.0920629146299
        0.0921865454117
        0.0923102564307
        0.0924340477392
        0.0925579193893
        0.0926818714329
        0.0928059039225
        0.09293001691
        0.0930542104479
        0.0931784845884
        0.0933028393837
        0.0934272748862
        0.0935517911484
        0.0936763882226
        0.0938010661613
        0.0939258250169
        0.0940506648419
        0.094175585689
        0.0943005876107
        0.0944256706597
        0.0945508348885
        0.0946760803498
        0.0948014070964
        0.0949268151811
        0.0950523046566
        0.0951778755757
        0.0953035279914
        0.0954292619564
        0.0955550775237
        0.0956809747464
        0.0958069536773
        0.0959330143695
        0.0960591568761
        0.0961853812502
        0.0963116875448
        0.0964380758133
        0.0965645461087
        0.0966910984843
        0.0968177329933
        0.0969444496892
        0.0970712486252
        0.0971981298547
        0.0973250934311
        0.0974521394078
        0.0975792678383
        0.0977064787763
        0.097833772275
        0.0979611483883
        0.0980886071697
        0.0982161486728
        0.0983437729513
        0.0984714800589
        0.0985992700495
        0.0987271429768
        0.0988550988946
        0.0989831378568
        0.0991112599173
        0.0992394651299
        0.0993677535488
        0.0994961252279
        0.0996245802211
        0.0997531185827
        0.0998817403666
        0.100010445627
        0.100139234418
        0.100268106794
        0.10039706281
        0.100526102519
        0.100655225975
        0.100784433234
        0.100913724349
        0.101043099375
        0.101172558367
        0.101302101378
        0.101431728464
        0.101561439679
        0.101691235077
        0.101821114714
        0.101951078643
        0.10208112692
        0.1022112596
        0.102341476736
        0.102471778385
        0.1026021646
        0.102732635437
        0.102863190951
        0.102993831196
        0.103124556228
        0.103255366101
        0.103386260871
        0.103517240592
        0.103648305321
        0.103779455111
        0.103910690019
        0.104042010099
        0.104173415407
        0.104304905998
        0.104436481927
        0.104568143251
        0.104699890023
        0.1048317223
        0.104963640137
        0.10509564359
        0.105227732715
        0.105359907566
        0.105492168199
        0.105624514671
        0.105756947037
        0.105889465352
        0.106022069673
        0.106154760055
        0.106287536554
        0.106420399226
        0.106553348127
        0.106686383313
        0.10681950484
        0.106952712763
        0.10708600714
        0.107219388026
        0.107352855477
        0.107486409549
        0.107620050299
        0.107753777783
        0.107887592057
        0.108021493177
        0.108155481201
        0.108289556183
        0.108423718182
        0.108557967252
        0.108692303452
        0.108826726836
        0.108961237463
        0.109095835387
        0.109230520667
        0.109365293359
        0.109500153519
        0.109635101204
        0.109770136472
        0.109905259379
        0.110040469981
        0.110175768336
        0.110311154501
        0.110446628532
        0.110582190487
        0.110717840423
        0.110853578397
        0.110989404466
        0.111125318687
        0.111261321117
        0.111397411814
        0.111533590835
        0.111669858237
        0.111806214078
        0.111942658414
        0.112079191304
        0.112215812806
        0.112352522975
        0.11248932187
        0.112626209549
        0.11276318607
        0.112900251489
        0.113037405864
        0.113174649254
        0.113311981716
        0.113449403307
        0.113586914087
        0.113724514112
        0.11386220344
        0.11399998213
        0.114137850239
        0.114275807826
        0.114413854948
        0.114551991664
        0.114690218032
        0.11482853411
        0.114966939955
        0.115105435628
        0.115244021185
        0.115382696685
        0.115521462187
        0.115660317749
        0.115799263429
        0.115938299286
        0.116077425378
        0.116216641764
        0.116355948503
        0.116495345652
        0.116634833272
        0.11677441142
        0.116914080156
        0.117053839537
        0.117193689624
        0.117333630474
        0.117473662147
        0.117613784701
        0.117753998197
        0.117894302692
        0.118034698245
        0.118175184917
        0.118315762765
        0.11845643185
        0.118597192229
        0.118738043964
        0.118878987112
        0.119020021733
        0.119161147888
        0.119302365634
        0.119443675031
        0.119585076139
        0.119726569018
        0.119868153727
        0.120009830325
        0.120151598873
        0.120293459429
        0.120435412054
        0.120577456807
        0.120719593749
        0.120861822938
        0.121004144436
        0.121146558301
        0.121289064594
        0.121431663374
        0.121574354702
        0.121717138638
        0.121860015242
        0.122002984574
        0.122146046694
        0.122289201663
        0.12243244954
        0.122575790386
        0.122719224262
        0.122862751227
        0.123006371343
        0.123150084668
        0.123293891266
        0.123437791194
        0.123581784515
        0.123725871288
        0.123870051576
        0.124014325437
        0.124158692933
        0.124303154124
        0.124447709072
        0.124592357838
        0.124737100481
        0.124881937064
        0.125026867647
        0.12517189229
        0.125317011056
        0.125462224005
        0.125607531199
        0.125752932698
        0.125898428563
        0.126044018857
        0.12618970364
        0.126335482973
        0.126481356918
        0.126627325537
        0.126773388891
        0.12691954704
        0.127065800048
        0.127212147974
        0.127358590882
        0.127505128832
        0.127651761887
        0.127798490108
        0.127945313556
        0.128092232294
        0.128239246383
        0.128386355886
        0.128533560863
        0.128680861378
        0.128828257493
        0.128975749268
        0.129123336767
        0.129271020051
        0.129418799182
        0.129566674224
        0.129714645237
        0.129862712285
        0.13001087543
        0.130159134734
        0.130307490259
        0.130455942068
        0.130604490223
        0.130753134787
        0.130901875823
        0.131050713393
        0.131199647559
        0.131348678385
        0.131497805933
        0.131647030266
        0.131796351447
        0.131945769539
        0.132095284604
        0.132244896705
        0.132394605906
        0.132544412269
        0.132694315858
        0.132844316735
        0.132994414964
        0.133144610608
        0.13329490373
        0.133445294394
        0.133595782662
        0.133746368598
        0.133897052266
        0.134047833729
        0.13419871305
        0.134349690293
        0.134500765521
        0.134651938798
        0.134803210188
        0.134954579754
        0.13510604756
        0.13525761367
        0.135409278148
        0.135561041057
        0.135712902461
        0.135864862425
        0.136016921011
        0.136169078285
        0.13632133431
        0.136473689151
        0.136626142871
        0.136778695535
        0.136931347206
        0.13708409795
        0.13723694783
        0.137389896911
        0.137542945257
        0.137696092932
        0.137849340002
        0.13800268653
        0.138156132581
        0.13830967822
        0.138463323511
        0.138617068519
        0.138770913309
        0.138924857946
        0.139078902493
        0.139233047017
        0.139387291582
        0.139541636253
        0.139696081094
        0.139850626172
        0.14000527155
        0.140160017294
        0.14031486347
        0.140469810142
        0.140624857376
        0.140780005236
        0.140935253789
        0.141090603099
        0.141246053232
        0.141401604254
        0.141557256229
        0.141713009224
        0.141868863303
        0.142024818533
        0.142180874979
        0.142337032707
        0.142493291783
        0.142649652272
        0.14280611424
        0.142962677753
        0.143119342877
        0.143276109678
        0.143432978222
        0.143589948575
        0.143747020803
        0.143904194972
        0.144061471148
        0.144218849397
        0.144376329786
        0.144533912382
        0.144691597249
        0.144849384456
        0.145007274067
        0.14516526615
        0.145323360771
        0.145481557997
        0.145639857894
        0.145798260529
        0.145956765968
        0.146115374279
        0.146274085528
        0.146432899781
        0.146591817106
        0.14675083757
        0.14690996124
        0.147069188181
        0.147228518463
        0.147387952151
        0.147547489312
        0.147707130015
        0.147866874325
        0.148026722311
        0.14818667404
        0.148346729578
        0.148506888994
        0.148667152354
        0.148827519726
        0.148987991179
        0.149148566778
        0.149309246592
        0.149470030689
        0.149630919136
        0.149791912
        0.149953009351
        0.150114211254
        0.150275517779
        0.150436928994
        0.150598444965
        0.150760065761
        0.150921791451
        0.151083622102
        0.151245557782
        0.15140759856
        0.151569744503
        0.151731995681
        0.15189435216
        0.152056814011
        0.1522193813
        0.152382054097
        0.152544832469
        0.152707716486
        0.152870706217
        0.153033801728
        0.15319700309
        0.153360310371
        0.15352372364
        0.153687242965
        0.153850868415
        0.15401460006
        0.154178437967
        0.154342382207
        0.154506432848
