src/ocio/nuke-default/luts/hybdridloggamma.spi1d
Version 1
From -0.125 1.125
Length 4101
Components 1
{
        0.00520833333333
        0.00518295781281
        0.00515764425937
        0.00513239267301
        0.00510720305374
        0.00508207540155
        0.00505700971644
        0.00503200599841
        0.00500706424747
        0.00498218446361
        0.00495736664684
        0.00493261079714
        0.00490791691453
        0.00488328499901
        0.00485871505057
        0.0048342070692
        0.00480976105493
        0.00478537700773
        0.00476105492762
        0.00473679481459
        0.00471259666865
        0.00468846048979
        0.00466438627801
        0.00464037403331
        0.0046164237557
        0.00459253544517
        0.00456870910173
        0.00454494472536
        0.00452124231608
        0.00449760187388
        0.00447402339877
        0.00445050689074
        0.00442705234979
        0.00440365977593
        0.00438032916915
        0.00435706052945
        0.00433385385683
        0.0043107091513
        0.00428762641285
        0.00426460564148
        0.0042416468372
        0.00421875
        0.00419591512988
        0.00417314222685
        0.0041504312909
        0.00412778232203
        0.00410519532025
        0.00408267028554
        0.00406020721793
        0.00403780611739
        0.00401546698394
        0.00399318981757
        0.00397097461828
        0.00394882138608
        0.00392673012096
        0.00390470082292
        0.00388273349197
        0.0038608281281
        0.00383898473131
        0.00381720330161
        0.00379548383898
        0.00377382634345
        0.00375223081499
        0.00373069725362
        0.00370922565933
        0.00368781603212
        0.003666468372
        0.00364518267896
        0.003623958953
        0.00360279719413
        0.00358169740234
        0.00356065957763
        0.00353968372001
        0.00351876982947
        0.00349791790601
        0.00347712794963
        0.00345639996034
        0.00343573393813
        0.00341512988301
        0.00339458779496
        0.003374107674
        0.00335368952013
        0.00333333333333
        0.00331303911362
        0.003292806861
        0.00327263657545
        0.00325252825699
        0.00323248190561
        0.00321249752132
        0.0031925751041
        0.00317271465398
        0.00315291617093
        0.00313317965497
        0.00311350510609
        0.00309389252429
        0.00307434190958
        0.00305485326195
        0.0030354265814
        0.00301606186794
        0.00299675912155
        0.00297751834226
        0.00295833953004
        0.00293922268491
        0.00292016780686
        0.0029011748959
        0.00288224395201
        0.00286337497521
        0.0028445679655
        0.00282582292286
        0.00280713984731
        0.00278851873885
        0.00276995959746
        0.00275146242316
        0.00273302721594
        0.00271465397581
        0.00269634270276
        0.00267809339679
        0.0026599060579
        0.0026417806861
        0.00262371728138
        0.00260571584374
        0.00258777637319
        0.00256989886972
        0.00255208333333
        0.00253432976403
        0.00251663816181
        0.00249900852667
        0.00248144085862
        0.00246393515764
        0.00244649142376
        0.00242910965695
        0.00241178985723
        0.00239453202459
        0.00237733615903
        0.00236020226056
        0.00234313032917
        0.00232612036486
        0.00230917236764
        0.0022922863375
        0.00227546227444
        0.00225870017847
        0.00224200004957
        0.00222536188777
        0.00220878569304
        0.0021922714654
        0.00217581920484
        0.00215942891136
        0.00214310058497
        0.00212683422566
        0.00211062983343
        0.00209448740829
        0.00207840695023
        0.00206238845925
        0.00204643193536
        0.00203053737854
        0.00201470478882
        0.00199893416617
        0.00198322551061
        0.00196757882213
        0.00195199410073
        0.00193647134642
        0.00192101055919
        0.00190561173904
        0.00189027488598
        0.001875
        0.0018597870811
        0.00184463612929
        0.00182954714456
        0.00181452012691
        0.00179955507634
        0.00178465199286
        0.00176981087646
        0.00175503172715
        0.00174031454491
        0.00172565932976
        0.0017110660817
        0.00169653480071
        0.00168206548681
        0.00166765814
        0.00165331276026
        0.00163902934761
        0.00162480790204
        0.00161064842356
        0.00159655091216
        0.00158251536784
        0.0015685417906
        0.00155463018045
        0.00154078053738
        0.00152699286139
        0.00151326715249
        0.00149960341067
        0.00148600163593
        0.00147246182828
        0.00145898398771
        0.00144556811422
        0.00143221420781
        0.00141892226849
        0.00140569229625
        0.0013925242911
        0.00137941825302
        0.00136637418203
        0.00135339207813
        0.0013404719413
        0.00132761377156
        0.00131481756891
        0.00130208333333
        0.00128941106484
        0.00127680076343
        0.00126425242911
        0.00125176606187
        0.00123934166171
        0.00122697922863
        0.00121467876264
        0.00120244026373
        0.00119026373191
        0.00117814916716
        0.0011660965695
        0.00115410593893
        0.00114217727543
        0.00113031057902
        0.00111850584969
        0.00110676308745
        0.00109508229229
        0.00108346346421
        0.00107190660321
        0.0010604117093
        0.00104897878247
        0.00103760782272
        0.00102629883006
        0.00101505180448
        0.00100386674598
        0.000992743654571
        0.00098168253024
        0.000970683372992
        0.000959746182828
        0.000948870959746
        0.000938057703748
        0.000927306414832
        0.000916617093
        0.000905989738251
        0.000895424350585
        0.000884920930002
        0.000874479476502
        0.000864099990085
        0.000853782470752
        0.000843526918501
        0.000833333333333
        0.000823201715249
        0.000813132064247
        0.000803124380329
        0.000793178663494
        0.000783294913742
        0.000773473131073
        0.000763713315487
        0.000754015466984
        0.000744379585564
        0.000734805671227
        0.000725293723974
        0.000715843743803
        0.000706455730716
        0.000697129684711
        0.00068786560579
        0.000678663493952
        0.000669523349197
        0.000660445171525
        0.000651428960936
        0.00064247471743
        0.000633582441007
        0.000624752131668
        0.000615983789411
        0.000607277414238
        0.000598633006147
        0.00059005056514
        0.000581530091216
        0.000573071584374
        0.000564675044616
        0.000556340471941
        0.000548067866349
        0.000539857227841
        0.000531708556415
        0.000523621852072
        0.000515597114813
        0.000507634344636
        0.000499733541543
        0.000491894705532
        0.000484117836605
        0.000476402934761
        0.00046875
        0.000461159032322
        0.000453630031727
        0.000446162998215
        0.000438757931787
        0.000431414832441
        0.000424133700178
        0.000416914534999
        0.000409757336903
        0.000402662105889
        0.000395628841959
        0.000388657545112
        0.000381748215348
        0.000374900852667
        0.000368115457069
        0.000361392028554
        0.000354730567123
        0.000348131072774
        0.000341593545509
        0.000335117985326
        0.000328704392227
        0.000322352766211
        0.000316063107277
        0.000309835415427
        0.00030366969066
        0.000297565932976
        0.000291524142376
        0.000285544318858
        0.000279626462423
        0.000273770573072
        0.000267976650803
        0.000262244695618
        0.000256574707515
        0.000250966686496
        0.00024542063256
        0.000239936545707
        0.000234514425937
        0.00022915427325
        0.000223856087646
        0.000218619869126
        0.000213445617688
        0.000208333333333
        0.000203283016062
        0.000198294665873
        0.000193368282768
        0.000188503866746
        0.000183701417807
        0.000178960935951
        0.000174282421178
        0.000169665873488
        0.000165111292881
        0.000160618679358
        0.000156188032917
        0.000151819353559
        0.000147512641285
        0.000143267896094
        0.000139085117985
        0.00013496430696
        0.000130905463018
        0.000126908586159
        0.000122973676383
        0.00011910073369
        0.000115289758081
        0.000111540749554
        0.00010785370811
        0.00010422863375
        0.000100665526472
        9.7164386278e-05
        9.37252131668e-05
        9.03480071386e-05
        8.70327681935e-05
        8.37794963315e-05
        8.05881915526e-05
        7.74588538568e-05
        7.43914832441e-05
        7.13860797145e-05
        6.84426432679e-05
        6.55611739044e-05
        6.2741671624e-05
        5.99841364267e-05
        5.72885683125e-05
        5.46549672814e-05
        5.20833333333e-05
        4.95736664684e-05
        4.71259666865e-05
        4.47402339877e-05
        4.2416468372e-05
        4.01546698394e-05
        3.79548383898e-05
        3.58169740234e-05
        3.374107674e-05
        3.17271465398e-05
        2.97751834226e-05
        2.78851873885e-05
        2.60571584374e-05
        2.42910965695e-05
        2.25870017847e-05
        2.09448740829e-05
        1.93647134642e-05
        1.78465199286e-05
        1.63902934761e-05
        1.49960341067e-05
        1.36637418203e-05
        1.23934166171e-05
        1.11850584969e-05
        1.00386674598e-05
        8.95424350585e-06
        7.93178663494e-06
        6.97129684711e-06
        6.07277414238e-06
        5.23621852072e-06
        4.46162998215e-06
        3.74900852667e-06
        3.09835415427e-06
        2.50966686496e-06
        1.98294665873e-06
        1.51819353559e-06
        1.11540749554e-06
        7.74588538568e-07
        4.95736664684e-07
        2.78851873885e-07
        1.23934166171e-07
        3.09835415427e-08
        0.0
        3.09835415427e-08
        1.23934166171e-07
        2.78851873885e-07
        4.95736664684e-07
        7.74588538568e-07
        1.11540749554e-06
        1.51819353559e-06
        1.98294665873e-06
        2.50966686496e-06
        3.09835415427e-06
        3.74900852667e-06
        4.46162998215e-06
        5.23621852072e-06
        6.07277414238e-06
        6.97129684711e-06
        7.93178663494e-06
        8.95424350585e-06
        1.00386674598e-05
        1.11850584969e-05
        1.23934166171e-05
        1.36637418203e-05
        1.49960341067e-05
        1.63902934761e-05
        1.78465199286e-05
        1.93647134642e-05
        2.09448740829e-05
        2.25870017847e-05
        2.42910965695e-05
        2.60571584374e-05
        2.78851873885e-05
        2.97751834226e-05
        3.17271465398e-05
        3.374107674e-05
        3.58169740234e-05
        3.79548383898e-05
        4.01546698394e-05
        4.2416468372e-05
        4.47402339877e-05
        4.71259666865e-05
        4.95736664684e-05
        5.20833333333e-05
        5.46549672814e-05
        5.72885683125e-05
        5.99841364267e-05
        6.2741671624e-05
        6.55611739044e-05
        6.84426432679e-05
        7.13860797145e-05
        7.43914832441e-05
        7.74588538568e-05
        8.05881915526e-05
        8.37794963315e-05
        8.70327681935e-05
        9.03480071386e-05
        9.37252131668e-05
        9.7164386278e-05
        0.000100665526472
        0.00010422863375
        0.00010785370811
        0.000111540749554
        0.000115289758081
        0.00011910073369
        0.000122973676383
        0.000126908586159
        0.000130905463018
        0.00013496430696
        0.000139085117985
        0.000143267896094
        0.000147512641285
        0.000151819353559
        0.000156188032917
        0.000160618679358
        0.000165111292881
        0.000169665873488
        0.000174282421178
        0.000178960935951
        0.000183701417807
        0.000188503866746
        0.000193368282768
        0.000198294665873
        0.000203283016062
        0.000208333333333
        0.000213445617688
        0.000218619869126
        0.000223856087646
        0.00022915427325
        0.000234514425937
        0.000239936545707
        0.00024542063256
        0.000250966686496
        0.000256574707515
        0.000262244695618
        0.000267976650803
        0.000273770573072
        0.000279626462423
        0.000285544318858
        0.000291524142376
        0.000297565932976
        0.00030366969066
        0.000309835415427
        0.000316063107277
        0.000322352766211
        0.000328704392227
        0.000335117985326
        0.000341593545509
        0.000348131072774
        0.000354730567123
        0.000361392028554
        0.000368115457069
        0.000374900852667
        0.000381748215348
        0.000388657545112
        0.000395628841959
        0.000402662105889
        0.000409757336903
        0.000416914534999
        0.000424133700178
        0.000431414832441
        0.000438757931787
        0.000446162998215
        0.000453630031727
        0.000461159032322
        0.00046875
        0.000476402934761
        0.000484117836605
        0.000491894705532
        0.000499733541543
        0.000507634344636
        0.000515597114813
        0.000523621852072
        0.000531708556415
        0.000539857227841
        0.000548067866349
        0.000556340471941
        0.000564675044616
        0.000573071584374
        0.000581530091216
        0.00059005056514
        0.000598633006147
        0.000607277414238
        0.000615983789411
        0.000624752131668
        0.000633582441007
        0.00064247471743
        0.000651428960936
        0.000660445171525
        0.000669523349197
        0.000678663493952
        0.00068786560579
        0.000697129684711
        0.000706455730716
        0.000715843743803
        0.000725293723974
        0.000734805671227
        0.000744379585564
        0.000754015466984
        0.000763713315487
        0.000773473131073
        0.000783294913742
        0.000793178663494
        0.000803124380329
        0.000813132064247
        0.000823201715249
        0.000833333333333
        0.000843526918501
        0.000853782470752
        0.000864099990085
        0.000874479476502
        0.000884920930002
        0.000895424350585
        0.000905989738251
        0.000916617093
        0.000927306414832
        0.000938057703748
        0.000948870959746
        0.000959746182828
        0.000970683372992
        0.00098168253024
        0.000992743654571
        0.00100386674598
        0.00101505180448
        0.00102629883006
        0.00103760782272
        0.00104897878247
        0.0010604117093
        0.00107190660321
        0.00108346346421
        0.00109508229229
        0.00110676308745
        0.00111850584969
        0.00113031057902
        0.00114217727543
        0.00115410593893
        0.0011660965695
        0.00117814916716
        0.00119026373191
        0.00120244026373
        0.00121467876264
        0.00122697922863
        0.00123934166171
        0.00125176606187
        0.00126425242911
        0.00127680076343
        0.00128941106484
        0.00130208333333
        0.00131481756891
        0.00132761377156
        0.0013404719413
        0.00135339207813
        0.00136637418203
        0.00137941825302
        0.0013925242911
        0.00140569229625
        0.00141892226849
        0.00143221420781
        0.00144556811422
        0.00145898398771
        0.00147246182828
        0.00148600163593
        0.00149960341067
        0.00151326715249
        0.00152699286139
        0.00154078053738
        0.00155463018045
        0.0015685417906
        0.00158251536784
        0.00159655091216
        0.00161064842356
        0.00162480790204
        0.00163902934761
        0.00165331276026
        0.00166765814
        0.00168206548681
        0.00169653480071
        0.0017110660817
        0.00172565932976
        0.00174031454491
        0.00175503172715
        0.00176981087646
        0.00178465199286
        0.00179955507634
        0.00181452012691
        0.00182954714456
        0.00184463612929
        0.0018597870811
        0.001875
        0.00189027488598
        0.00190561173904
        0.00192101055919
        0.00193647134642
        0.00195199410073
        0.00196757882213
        0.00198322551061
        0.00199893416617
        0.00201470478882
        0.00203053737854
        0.00204643193536
        0.00206238845925
        0.00207840695023
        0.00209448740829
        0.00211062983343
        0.00212683422566
        0.00214310058497
        0.00215942891136
        0.00217581920484
        0.0021922714654
        0.00220878569304
        0.00222536188777
        0.00224200004957
        0.00225870017847
        0.00227546227444
        0.0022922863375
        0.00230917236764
        0.00232612036486
        0.00234313032917
        0.00236020226056
        0.00237733615903
        0.00239453202459
        0.00241178985723
        0.00242910965695
        0.00244649142376
        0.00246393515764
        0.00248144085862
        0.00249900852667
        0.00251663816181
        0.00253432976403
        0.00255208333333
        0.00256989886972
        0.00258777637319
        0.00260571584374
        0.00262371728138
        0.0026417806861
        0.0026599060579
        0.00267809339679
        0.00269634270276
        0.00271465397581
        0.00273302721594
        0.00275146242316
        0.00276995959746
        0.00278851873885
        0.00280713984731
        0.00282582292286
        0.0028445679655
        0.00286337497521
        0.00288224395201
        0.0029011748959
        0.00292016780686
        0.00293922268491
        0.00295833953004
        0.00297751834226
        0.00299675912155
        0.00301606186794
        0.0030354265814
        0.00305485326195
        0.00307434190958
        0.00309389252429
        0.00311350510609
        0.00313317965497
        0.00315291617093
        0.00317271465398
        0.0031925751041
        0.00321249752132
        0.00323248190561
        0.00325252825699
        0.00327263657545
        0.003292806861
        0.00331303911362
        0.00333333333333
        0.00335368952013
        0.003374107674
        0.00339458779496
        0.00341512988301
        0.00343573393813
        0.00345639996034
        0.00347712794963
        0.00349791790601
        0.00351876982947
        0.00353968372001
        0.00356065957763
        0.00358169740234
        0.00360279719413
        0.003623958953
        0.00364518267896
        0.003666468372
        0.00368781603212
        0.00370922565933
        0.00373069725362
        0.00375223081499
        0.00377382634345
        0.00379548383898
        0.00381720330161
        0.00383898473131
        0.0038608281281
        0.00388273349197
        0.00390470082292
        0.00392673012096
        0.00394882138608
        0.00397097461828
        0.00399318981757
        0.00401546698394
        0.00403780611739
        0.00406020721793
        0.00408267028554
        0.00410519532025
        0.00412778232203
        0.0041504312909
        0.00417314222685
        0.00419591512988
        0.00421875
        0.0042416468372
        0.00426460564148
        0.00428762641285
        0.0043107091513
        0.00433385385683
        0.00435706052945
        0.00438032916915
        0.00440365977593
        0.00442705234979
        0.00445050689074
        0.00447402339877
        0.00449760187388
        0.00452124231608
        0.00454494472536
        0.00456870910173
        0.00459253544517
        0.0046164237557
        0.00464037403331
        0.00466438627801
        0.00468846048979
        0.00471259666865
        0.00473679481459
        0.00476105492762
        0.00478537700773
        0.00480976105493
        0.0048342070692
        0.00485871505057
        0.00488328499901
        0.00490791691453
        0.00493261079714
        0.00495736664684
        0.00498218446361
        0.00500706424747
        0.00503200599841
        0.00505700971644
        0.00508207540155
        0.00510720305374
        0.00513239267301
        0.00515764425937
        0.00518295781281
        0.00520833333333
        0.00523377082094
        0.00525927027563
        0.0052848316974
        0.00531045508626
        0.0053361404422
        0.00536188776522
        0.00538769705532
        0.00541356831251
        0.00543950153678
        0.00546549672814
        0.00549155388658
        0.0055176730121
        0.0055438541047
        0.00557009716439
        0.00559640219116
        0.00562276918501
        0.00564919814594
        0.00567568907396
        0.00570224196907
        0.00572885683125
        0.00575553366052
        0.00578227245687
        0.00580907322031
        0.00583593595082
        0.00586286064842
        0.00588984731311
        0.00591689594487
        0.00594400654372
        0.00597117910966
        0.00599841364267
        0.00602571014277
        0.00605306860995
        0.00608048904422
        0.00610797144557
        0.006135515814
        0.00616312214951
        0.00619079045211
        0.00621852072179
        0.00624631295856
        0.0062741671624
        0.00630208333333
        0.00633006147135
        0.00635810157644
        0.00638620364862
        0.00641436768788
        0.00644259369423
        0.00647088166766
        0.00649923160817
        0.00652764351576
        0.00655611739044
        0.0065846532322
        0.00661325104105
        0.00664191081697
        0.00667063255998
        0.00669941627008
        0.00672826194725
        0.00675716959151
        0.00678613920286
        0.00681517078128
        0.00684426432679
        0.00687341983938
        0.00690263731906
        0.00693191676581
        0.00696125817965
        0.00699066156058
        0.00702012690859
        0.00704965422368
        0.00707924350585
        0.00710889475511
        0.00713860797145
        0.00716838315487
        0.00719822030537
        0.00722811942296
        0.00725808050763
        0.00728810355939
        0.00731818857823
        0.00734833556415
        0.00737854451715
        0.00740881543724
        0.00743914832441
        0.00746954317866
        0.0075
        0.00753051878842
        0.00756109954392
        0.00759174226651
        0.00762244695618
        0.00765321361293
        0.00768404223676
        0.00771493282768
        0.00774588538568
        0.00777689991077
        0.00780797640293
