src/ocio/nuke-default/luts/log3g12.spi1d
Version 1
From -0.125 1.125
Length 4101
Components 1
{
        -0.0107800126527
        -0.0107282482671
        -0.0106766800378
        -0.0106253072215
        -0.0105741290779
        -0.0105231448691
        -0.0104723538603
        -0.0104217553193
        -0.0103713485168
        -0.0103211327263
        -0.010271107224
        -0.0102212712886
        -0.010171624202
        -0.0101221652484
        -0.010072893715
        -0.0100238088916
        -0.00997491007054
        -0.0099261965471
        -0.00987766761907
        -0.00982932258696
        -0.0097811607539
        -0.00973318142568
        -0.00968538391072
        -0.00963776752004
        -0.0095903315673
        -0.00954307536875
        -0.00949599824321
        -0.00944909951211
        -0.00940237849945
        -0.00935583453177
        -0.00930946693817
        -0.00926327505031
        -0.00921725820236
        -0.00917141573103
        -0.00912574697553
        -0.00908025127758
        -0.00903492798139
        -0.00898977643367
        -0.00894479598359
        -0.0088999859828
        -0.00885534578538
        -0.00881087474788
        -0.00876657222929
        -0.00872243759103
        -0.00867847019692
        -0.00863466941321
        -0.00859103460854
        -0.00854756515396
        -0.00850426042288
        -0.00846111979109
        -0.00841814263677
        -0.00837532834042
        -0.00833267628491
        -0.00829018585544
        -0.00824785643955
        -0.00820568742709
        -0.00816367821023
        -0.00812182818344
        -0.00808013674347
        -0.00803860328938
        -0.0079972272225
        -0.00795600794643
        -0.00791494486701
        -0.00787403739235
        -0.00783328493281
        -0.00779268690097
        -0.00775224271164
        -0.00771195178185
        -0.00767181353083
        -0.00763182738003
        -0.00759199275306
        -0.00755230907576
        -0.0075127757761
        -0.00747339228425
        -0.00743415803252
        -0.00739507245538
        -0.00735613498945
        -0.00731734507346
        -0.00727870214829
        -0.00724020565694
        -0.0072018550445
        -0.00716364975818
        -0.00712558924728
        -0.00708767296319
        -0.00704990035937
        -0.00701227089137
        -0.00697478401677
        -0.00693743919524
        -0.00690023588848
        -0.00686317356023
        -0.00682625167626
        -0.00678946970438
        -0.00675282711441
        -0.00671632337815
        -0.00667995796946
        -0.00664373036413
        -0.00660764003999
        -0.00657168647681
        -0.00653586915635
        -0.00650018756234
        -0.00646464118045
        -0.00642922949831
        -0.00639395200548
        -0.00635880819346
        -0.0063237975557
        -0.00628891958752
        -0.0062541737862
        -0.0062195596509
        -0.00618507668269
        -0.00615072438451
        -0.00611650226121
        -0.0060824098195
        -0.00604844656796
        -0.00601461201705
        -0.00598090567905
        -0.00594732706813
        -0.00591387570026
        -0.00588055109328
        -0.00584735276683
        -0.00581428024239
        -0.00578133304324
        -0.00574851069447
        -0.00571581272298
        -0.00568323865745
        -0.00565078802834
        -0.00561846036791
        -0.00558625521017
        -0.00555417209092
        -0.0055222105477
        -0.00549037011982
        -0.0054586503483
        -0.00542705077595
        -0.00539557094727
        -0.00536421040851
        -0.00533296870762
        -0.00530184539429
        -0.0052708400199
        -0.00523995213752
        -0.00520918130193
        -0.0051785270696
        -0.00514798899866
        -0.00511756664893
        -0.00508725958191
        -0.00505706736072
        -0.00502698955019
        -0.00499702571675
        -0.0049671754285
        -0.00493743825518
        -0.00490781376814
        -0.00487830154038
        -0.00484890114649
        -0.00481961216269
        -0.0047904341668
        -0.00476136673824
        -0.00473240945803
        -0.00470356190878
        -0.00467482367466
        -0.00464619434143
        -0.00461767349644
        -0.00458926072856
        -0.00456095562826
        -0.00453275778753
        -0.00450466679993
        -0.00447668226054
        -0.00444880376599
        -0.00442103091444
        -0.00439336330555
        -0.00436580054053
        -0.00433834222207
        -0.00431098795438
        -0.00428373734318
        -0.00425658999566
        -0.00422954552052
        -0.00420260352793
        -0.00417576362955
        -0.00414902543849
        -0.00412238856936
        -0.00409585263819
        -0.00406941726249
        -0.00404308206121
        -0.00401684665477
        -0.00399071066498
        -0.00396467371513
        -0.0039387354299
        -0.00391289543542
        -0.00388715335922
        -0.00386150883026
        -0.00383596147888
        -0.00381051093684
        -0.00378515683729
        -0.00375989881477
        -0.00373473650521
        -0.0037096695459
        -0.00368469757554
        -0.00365982023415
        -0.00363503716317
        -0.00361034800536
        -0.00358575240484
        -0.00356125000709
        -0.00353684045892
        -0.00351252340849
        -0.00348829850529
        -0.00346416540013
        -0.00344012374516
        -0.00341617319383
        -0.00339231340091
        -0.00336854402248
        -0.00334486471593
        -0.00332127513993
        -0.00329777495447
        -0.00327436382079
        -0.00325104140146
        -0.00322780736029
        -0.00320466136238
        -0.00318160307411
        -0.00315863216309
        -0.00313574829824
        -0.00311295114969
        -0.00309024038883
        -0.00306761568832
        -0.00304507672203
        -0.00302262316508
        -0.00300025469382
        -0.00297797098582
        -0.00295577171989
        -0.00293365657604
        -0.00291162523549
        -0.00288967738068
        -0.00286781269526
        -0.00284603086404
        -0.00282433157307
        -0.00280271450958
        -0.00278117936195
        -0.00275972581979
        -0.00273835357386
        -0.00271706231608
        -0.00269585173958
        -0.0026747215386
        -0.00265367140857
        -0.00263270104608
        -0.00261181014885
        -0.00259099841575
        -0.00257026554681
        -0.00254961124316
        -0.0025290352071
        -0.00250853714204
        -0.00248811675251
        -0.00246777374417
        -0.00244750782379
        -0.00242731869926
        -0.00240720607955
        -0.00238716967477
        -0.0023672091961
        -0.00234732435583
        -0.00232751486734
        -0.00230778044508
        -0.0022881208046
        -0.00226853566252
        -0.00224902473654
        -0.00222958774542
        -0.00221022440898
        -0.00219093444814
        -0.00217171758482
        -0.00215257354205
        -0.00213350204386
        -0.00211450281536
        -0.00209557558269
        -0.00207672007304
        -0.0020579360146
        -0.00203922313662
        -0.00202058116938
        -0.00200200984416
        -0.00198350889326
        -0.00196507805002
        -0.00194671704877
        -0.00192842562484
        -0.00191020351458
        -0.00189205045534
        -0.00187396618544
        -0.00185595044422
        -0.001838002972
        -0.00182012351008
        -0.00180231180073
        -0.00178456758721
        -0.00176689061377
        -0.00174928062559
        -0.00173173736884
        -0.00171426059065
        -0.0016968500391
        -0.00167950546324
        -0.00166222661305
        -0.00164501323948
        -0.00162786509441
        -0.00161078193065
        -0.00159376350198
        -0.00157680956307
        -0.00155991986956
        -0.00154309417799
        -0.00152633224583
        -0.00150963383147
        -0.00149299869422
        -0.0014764265943
        -0.00145991729282
        -0.00144347055182
        -0.00142708613423
        -0.00141076380389
        -0.00139450332552
        -0.00137830446474
        -0.00136216698806
        -0.00134609066285
        -0.00133007525741
        -0.00131412054087
        -0.00129822628326
        -0.00128239225548
        -0.00126661822929
        -0.00125090397733
        -0.00123524927308
        -0.00121965389089
        -0.00120411760597
        -0.00118864019437
        -0.001173221433
        -0.00115786109961
        -0.00114255897279
        -0.00112731483198
        -0.00111212845743
        -0.00109699963026
        -0.00108192813239
        -0.00106691374657
        -0.00105195625638
        -0.00103705544623
        -0.00102221110133
        -0.00100742300772
        -0.000992690952219
        -0.000978014722492
        -0.000963394106989
        -0.000948828894964
        -0.000934318876472
        -0.00091986384236
        -0.000905463584272
        -0.000891117894638
        -0.000876826566677
        -0.000862589394389
        -0.000848406172557
        -0.00083427669674
        -0.000820200763273
        -0.000806178169262
        -0.000792208712582
        -0.000778292191875
        -0.000764428406543
        -0.000750617156751
        -0.000736858243421
        -0.000723151468229
        -0.000709496633601
        -0.000695893542714
        -0.000682341999489
        -0.000668841808592
        -0.000655392775427
        -0.000641994706137
        -0.0006286474076
        -0.000615350687423
        -0.000602104353945
        -0.00058890821623
        -0.000575762084066
        -0.000562665767962
        -0.000549619079143
        -0.000536621829553
        -0.000523673831846
        -0.000510774899385
        -0.000497924846243
        -0.000485123487197
        -0.000472370637724
        -0.000459666114002
        -0.000447009732905
        -0.000434401312001
        -0.000421840669548
        -0.000409327624496
        -0.000396861996478
        -0.000384443605811
        -0.000372072273494
        -0.000359747821204
        -0.000347470071293
        -0.000335238846787
        -0.000323053971382
        -0.000310915269442
        -0.000298822565997
        -0.000286775686741
        -0.000274774458026
        -0.000262818706864
        -0.000250908260922
        -0.000239042948521
        -0.00022722259863
        -0.000215447040868
        -0.0002037161055
        -0.000192029623434
        -0.000180387426217
        -0.000168789346036
        -0.000157235215714
        -0.000145724868707
        -0.000134258139102
        -0.000122834861615
        -0.000111454871588
        -0.000100118004987
        -8.88240983995e-05
        -7.75729890333e-05
        -6.63645147118e-05
        -5.51985138734e-05
        -4.40748255689e-05
        -3.29932894588e-05
        -2.19537458111e-05
        -1.09560354994e-05
        0.0
        1.09560354994e-05
        2.19537458111e-05
        3.29932894588e-05
        4.40748255689e-05
        5.51985138734e-05
        6.63645147118e-05
        7.75729890333e-05
        8.88240983995e-05
        0.000100118004987
        0.000111454871588
        0.000122834861615
        0.000134258139102
        0.000145724868707
        0.000157235215714
        0.000168789346036
        0.000180387426217
        0.000192029623434
        0.0002037161055
        0.000215447040868
        0.00022722259863
        0.000239042948521
        0.000250908260922
        0.000262818706864
        0.000274774458026
        0.000286775686741
        0.000298822565997
        0.000310915269442
        0.000323053971382
        0.000335238846787
        0.000347470071293
        0.000359747821204
        0.000372072273494
        0.000384443605811
        0.000396861996478
        0.000409327624496
        0.000421840669548
        0.000434401312001
        0.000447009732905
        0.000459666114002
        0.000472370637724
        0.000485123487197
        0.000497924846243
        0.000510774899385
        0.000523673831846
        0.000536621829553
        0.000549619079143
        0.000562665767962
        0.000575762084066
        0.00058890821623
        0.000602104353945
        0.000615350687423
        0.0006286474076
        0.000641994706137
        0.000655392775427
        0.000668841808592
        0.000682341999489
        0.000695893542714
        0.000709496633601
        0.000723151468229
        0.000736858243421
        0.000750617156751
        0.000764428406543
        0.000778292191875
        0.000792208712582
        0.000806178169262
        0.000820200763273
        0.00083427669674
        0.000848406172557
        0.000862589394389
        0.000876826566677
        0.000891117894638
        0.000905463584272
        0.00091986384236
        0.000934318876472
        0.000948828894964
        0.000963394106989
        0.000978014722492
        0.000992690952219
        0.00100742300772
        0.00102221110133
        0.00103705544623
        0.00105195625638
        0.00106691374657
        0.00108192813239
        0.00109699963026
        0.00111212845743
        0.00112731483198
        0.00114255897279
        0.00115786109961
        0.001173221433
        0.00118864019437
        0.00120411760597
        0.00121965389089
        0.00123524927308
        0.00125090397733
        0.00126661822929
        0.00128239225548
        0.00129822628326
        0.00131412054087
        0.00133007525741
        0.00134609066285
        0.00136216698806
        0.00137830446474
        0.00139450332552
        0.00141076380389
        0.00142708613423
        0.00144347055182
        0.00145991729282
        0.0014764265943
        0.00149299869422
        0.00150963383147
        0.00152633224583
        0.00154309417799
        0.00155991986956
        0.00157680956307
        0.00159376350198
        0.00161078193065
        0.00162786509441
        0.00164501323948
        0.00166222661305
        0.00167950546324
        0.0016968500391
        0.00171426059065
        0.00173173736884
        0.00174928062559
        0.00176689061377
        0.00178456758721
        0.00180231180073
        0.00182012351008
        0.001838002972
        0.00185595044422
        0.00187396618544
        0.00189205045534
        0.00191020351458
        0.00192842562484
        0.00194671704877
        0.00196507805002
        0.00198350889326
        0.00200200984416
        0.00202058116938
        0.00203922313662
        0.0020579360146
        0.00207672007304
        0.00209557558269
        0.00211450281536
        0.00213350204386
        0.00215257354205
        0.00217171758482
        0.00219093444814
        0.00221022440898
        0.00222958774542
        0.00224902473654
        0.00226853566252
        0.0022881208046
        0.00230778044508
        0.00232751486734
        0.00234732435583
        0.0023672091961
        0.00238716967477
        0.00240720607955
        0.00242731869926
        0.00244750782379
        0.00246777374417
        0.00248811675251
        0.00250853714204
        0.0025290352071
        0.00254961124316
        0.00257026554681
        0.00259099841575
        0.00261181014885
        0.00263270104608
        0.00265367140857
        0.0026747215386
        0.00269585173958
        0.00271706231608
        0.00273835357386
        0.00275972581979
        0.00278117936195
        0.00280271450958
        0.00282433157307
        0.00284603086404
        0.00286781269526
        0.00288967738068
        0.00291162523549
        0.00293365657604
        0.00295577171989
        0.00297797098582
        0.00300025469382
        0.00302262316508
        0.00304507672203
        0.00306761568832
        0.00309024038883
        0.00311295114969
        0.00313574829824
        0.00315863216309
        0.00318160307411
        0.00320466136238
        0.00322780736029
        0.00325104140146
        0.00327436382079
        0.00329777495447
        0.00332127513993
        0.00334486471593
        0.00336854402248
        0.00339231340091
        0.00341617319383
        0.00344012374516
        0.00346416540013
        0.00348829850529
        0.00351252340849
        0.00353684045892
        0.00356125000709
        0.00358575240484
        0.00361034800536
        0.00363503716317
        0.00365982023415
        0.00368469757554
        0.0037096695459
        0.00373473650521
        0.00375989881477
        0.00378515683729
        0.00381051093684
        0.00383596147888
        0.00386150883026
        0.00388715335922
        0.00391289543542
        0.0039387354299
        0.00396467371513
        0.00399071066498
        0.00401684665477
        0.00404308206121
        0.00406941726249
        0.00409585263819
        0.00412238856936
        0.00414902543849
        0.00417576362955
        0.00420260352793
        0.00422954552052
        0.00425658999566
        0.00428373734318
        0.00431098795438
        0.00433834222207
        0.00436580054053
        0.00439336330555
        0.00442103091444
        0.00444880376599
        0.00447668226054
        0.00450466679993
        0.00453275778753
        0.00456095562826
        0.00458926072856
        0.00461767349644
        0.00464619434143
        0.00467482367466
        0.00470356190878
        0.00473240945803
        0.00476136673824
        0.0047904341668
        0.00481961216269
        0.00484890114649
        0.00487830154038
        0.00490781376814
        0.00493743825518
        0.0049671754285
        0.00499702571675
        0.00502698955019
        0.00505706736072
        0.00508725958191
        0.00511756664893
        0.00514798899866
        0.0051785270696
        0.00520918130193
        0.00523995213752
        0.0052708400199
        0.00530184539429
        0.00533296870762
        0.00536421040851
        0.00539557094727
        0.00542705077595
        0.0054586503483
        0.00549037011982
        0.0055222105477
        0.00555417209092
        0.00558625521017
        0.00561846036791
        0.00565078802834
        0.00568323865745
        0.00571581272298
        0.00574851069447
        0.00578133304324
        0.00581428024239
        0.00584735276683
        0.00588055109328
        0.00591387570026
        0.00594732706813
        0.00598090567905
        0.00601461201705
        0.00604844656796
        0.0060824098195
        0.00611650226121
        0.00615072438451
        0.00618507668269
        0.0062195596509
        0.0062541737862
        0.00628891958752
        0.0063237975557
        0.00635880819346
        0.00639395200548
        0.00642922949831
        0.00646464118045
        0.00650018756234
        0.00653586915635
        0.00657168647681
        0.00660764003999
        0.00664373036413
        0.00667995796946
        0.00671632337815
        0.00675282711441
        0.00678946970438
        0.00682625167626
        0.00686317356023
        0.00690023588848
        0.00693743919524
        0.00697478401677
        0.00701227089137
        0.00704990035937
        0.00708767296319
        0.00712558924728
        0.00716364975818
        0.0072018550445
        0.00724020565694
        0.00727870214829
        0.00731734507346
        0.00735613498945
        0.00739507245538
        0.00743415803252
        0.00747339228425
        0.0075127757761
        0.00755230907576
        0.00759199275306
        0.00763182738003
        0.00767181353083
        0.00771195178185
        0.00775224271164
        0.00779268690097
        0.00783328493281
        0.00787403739235
        0.00791494486701
        0.00795600794643
        0.0079972272225
        0.00803860328938
        0.00808013674347
        0.00812182818344
        0.00816367821023
        0.00820568742709
        0.00824785643955
        0.00829018585544
        0.00833267628491
        0.00837532834042
        0.00841814263677
        0.00846111979109
        0.00850426042288
        0.00854756515396
        0.00859103460854
        0.00863466941321
        0.00867847019692
        0.00872243759103
        0.00876657222929
        0.00881087474788
        0.00885534578538
        0.0088999859828
        0.00894479598359
        0.00898977643367
        0.00903492798139
        0.00908025127758
        0.00912574697553
        0.00917141573103
        0.00921725820236
        0.00926327505031
        0.00930946693817
        0.00935583453177
        0.00940237849945
        0.00944909951211
        0.00949599824321
        0.00954307536875
        0.0095903315673
        0.00963776752004
        0.00968538391072
        0.00973318142568
        0.0097811607539
        0.00982932258696
        0.00987766761907
        0.0099261965471
        0.00997491007054
        0.0100238088916
        0.010072893715
        0.0101221652484
        0.010171624202
        0.0102212712886
        0.010271107224
        0.0103211327263
        0.0103713485168
        0.0104217553193
        0.0104723538603
        0.0105231448691
        0.0105741290779
        0.0106253072215
        0.0106766800378
        0.0107282482671
        0.0107800126527
        0.0108319739409
        0.0108841328806
        0.0109364902237
        0.0109890467248
        0.0110418031414
        0.0110947602341
        0.0111479187662
        0.0112012795039
        0.0112548432164
        0.0113086106757
        0.0113625826568
        0.0114167599378
        0.0114711432995
        0.0115257335259
        0.0115805314038
        0.0116355377231
        0.0116907532767
        0.0117461788604
        0.0118018152732
        0.011857663317
        0.0119137237968
        0.0119699975208
        0.0120264853
        0.0120831879486
        0.0121401062841
        0.0121972411268
        0.0122545933003
        0.0123121636313
        0.0123699529496
        0.0124279620882
        0.0124861918832
        0.0125446431741
        0.0126033168032
        0.0126622136164
        0.0127213344627
        0.0127806801941
        0.0128402516661
        0.0129000497375
        0.0129600752701
        0.0130203291291
        0.0130808121831
        0.0131415253039
        0.0132024693666
        0.0132636452497
        0.013325053835
        0.0133866960077
        0.0134485726562
        0.0135106846725
        0.0135730329519
        0.013635618393
        0.0136984418981
        0.0137615043726
        0.0138248067255
        0.0138883498694
        0.01395213472
        0.0140161621969
        0.014080433223
        0.0141449487246
        0.0142097096317
        0.0142747168779
        0.0143399714
        0.0144054741387
        0.0144712260382
        0.0145372280463
        0.0146034811142
        0.0146699861971
        0.0147367442535
        0.0148037562457
        0.0148710231395
        0.0149385459047
        0.0150063255145
        0.0150743629459
        0.0151426591796
        0.0152112152
        0.0152800319953
        0.0153491105575
        0.0154184518823
        0.0154880569692
        0.0155579268214
        0.0156280624462
        0.0156984648544
        0.0157691350608
        0.0158400740842
        0.015911282947
        0.0159827626756
        0.0160545143005
