src/ocio/nuke-default/luts/log3g10.spi1d
Version 1
From -0.125 1.125
Length 4101
Components 1
{
        -0.0182276356408
        -0.0182075682368
        -0.0181875008328
        -0.0181674334288
        -0.0181473660248
        -0.0181272986208
        -0.0181072312168
        -0.0180871638128
        -0.0180670964088
        -0.0180470290048
        -0.0180269616008
        -0.0180068941968
        -0.0179868267928
        -0.0179667593888
        -0.0179466919848
        -0.0179266245808
        -0.0179065571768
        -0.0178864897728
        -0.0178664223688
        -0.0178463549648
        -0.0178262875608
        -0.0178062201568
        -0.0177861527528
        -0.0177660853488
        -0.0177460179448
        -0.0177259505408
        -0.0177058831368
        -0.0176858157327
        -0.0176657483287
        -0.0176456809247
        -0.0176256135207
        -0.0176055461167
        -0.0175854787127
        -0.0175654113087
        -0.0175453439047
        -0.0175252765007
        -0.0175052090967
        -0.0174851416927
        -0.0174650742887
        -0.0174450068847
        -0.0174249394807
        -0.0174048720767
        -0.0173848046727
        -0.0173647372687
        -0.0173446698647
        -0.0173246024607
        -0.0173045350567
        -0.0172844676527
        -0.0172644002487
        -0.0172443328447
        -0.0172242654407
        -0.0172041980367
        -0.0171841306327
        -0.0171640632287
        -0.0171439958247
        -0.0171239284207
        -0.0171038610167
        -0.0170837936127
        -0.0170637262087
        -0.0170436588047
        -0.0170235914007
        -0.0170035239967
        -0.0169834565927
        -0.0169633891887
        -0.0169433217847
        -0.0169232543807
        -0.0169031869767
        -0.0168831195727
        -0.0168630521687
        -0.0168429847647
        -0.0168229173607
        -0.0168028499567
        -0.0167827825527
        -0.0167627151487
        -0.0167426477447
        -0.0167225803407
        -0.0167025129367
        -0.0166824455327
        -0.0166623781286
        -0.0166423107246
        -0.0166222433206
        -0.0166021759166
        -0.0165821085126
        -0.0165620411086
        -0.0165419737046
        -0.0165219063006
        -0.0165018388966
        -0.0164817714926
        -0.0164617040886
        -0.0164416366846
        -0.0164215692806
        -0.0164015018766
        -0.0163814344726
        -0.0163613670686
        -0.0163412996646
        -0.0163212322606
        -0.0163011648566
        -0.0162810974526
        -0.0162610300486
        -0.0162409626446
        -0.0162208952406
        -0.0162008278366
        -0.0161807604326
        -0.0161606930286
        -0.0161406256246
        -0.0161205582206
        -0.0161004908166
        -0.0160804234126
        -0.0160603560086
        -0.0160402886046
        -0.0160202212006
        -0.0160001537966
        -0.0159800863926
        -0.0159600189886
        -0.0159399515846
        -0.0159198841806
        -0.0158998167766
        -0.0158797493726
        -0.0158596819686
        -0.0158396145646
        -0.0158195471606
        -0.0157994797566
        -0.0157794123526
        -0.0157593449486
        -0.0157392775446
        -0.0157192101406
        -0.0156991427366
        -0.0156790753326
        -0.0156590079286
        -0.0156389405245
        -0.0156188731205
        -0.0155988057165
        -0.0155787383125
        -0.0155586709085
        -0.0155386035045
        -0.0155185361005
        -0.0154984686965
        -0.0154784012925
        -0.0154583338885
        -0.0154382664845
        -0.0154181990805
        -0.0153981316765
        -0.0153780642725
        -0.0153579968685
        -0.0153379294645
        -0.0153178620605
        -0.0152977946565
        -0.0152777272525
        -0.0152576598485
        -0.0152375924445
        -0.0152175250405
        -0.0151974576365
        -0.0151773902325
        -0.0151573228285
        -0.0151372554245
        -0.0151171880205
        -0.0150971206165
        -0.0150770532125
        -0.0150569858085
        -0.0150369184045
        -0.0150168510005
        -0.0149967835965
        -0.0149767161925
        -0.0149566487885
        -0.0149365813845
        -0.0149165139805
        -0.0148964465765
        -0.0148763791725
        -0.0148563117685
        -0.0148362443645
        -0.0148161769605
        -0.0147961095565
        -0.0147760421525
        -0.0147559747485
        -0.0147359073445
        -0.0147158399405
        -0.0146957725365
        -0.0146757051325
        -0.0146556377285
        -0.0146355703245
        -0.0146155029204
        -0.0145954355164
        -0.0145753681124
        -0.0145553007084
        -0.0145352333044
        -0.0145151659004
        -0.0144950984964
        -0.0144750310924
        -0.0144549636884
        -0.0144348962844
        -0.0144148288804
        -0.0143947614764
        -0.0143746940724
        -0.0143546266684
        -0.0143345592644
        -0.0143144918604
        -0.0142944244564
        -0.0142743570524
        -0.0142542896484
        -0.0142342222444
        -0.0142141548404
        -0.0141940874364
        -0.0141740200324
        -0.0141539526284
        -0.0141338852244
        -0.0141138178204
        -0.0140937504164
        -0.0140736830124
        -0.0140536156084
        -0.0140335482044
        -0.0140134808004
        -0.0139934133964
        -0.0139733459924
        -0.0139532785884
        -0.0139332111844
        -0.0139131437804
        -0.0138930763764
        -0.0138730089724
        -0.0138529415684
        -0.0138328741644
        -0.0138128067604
        -0.0137927393564
        -0.0137726719524
        -0.0137526045484
        -0.0137325371444
        -0.0137124697404
        -0.0136924023364
        -0.0136723349324
        -0.0136522675284
        -0.0136322001244
        -0.0136121327204
        -0.0135920653163
        -0.0135719979123
        -0.0135519305083
        -0.0135318631043
        -0.0135117957003
        -0.0134917282963
        -0.0134716608923
        -0.0134515934883
        -0.0134315260843
        -0.0134114586803
        -0.0133913912763
        -0.0133713238723
        -0.0133512564683
        -0.0133311890643
        -0.0133111216603
        -0.0132910542563
        -0.0132709868523
        -0.0132509194483
        -0.0132308520443
        -0.0132107846403
        -0.0131907172363
        -0.0131706498323
        -0.0131505824283
        -0.0131305150243
        -0.0131104476203
        -0.0130903802163
        -0.0130703128123
        -0.0130502454083
        -0.0130301780043
        -0.0130101106003
        -0.0129900431963
        -0.0129699757923
        -0.0129499083883
        -0.0129298409843
        -0.0129097735803
        -0.0128897061763
        -0.0128696387723
        -0.0128495713683
        -0.0128295039643
        -0.0128094365603
        -0.0127893691563
        -0.0127693017523
        -0.0127492343483
        -0.0127291669443
        -0.0127090995403
        -0.0126890321363
        -0.0126689647323
        -0.0126488973283
        -0.0126288299243
        -0.0126087625203
        -0.0125886951163
        -0.0125686277123
        -0.0125485603082
        -0.0125284929042
        -0.0125084255002
        -0.0124883580962
        -0.0124682906922
        -0.0124482232882
        -0.0124281558842
        -0.0124080884802
        -0.0123880210762
        -0.0123679536722
        -0.0123478862682
        -0.0123278188642
        -0.0123077514602
        -0.0122876840562
        -0.0122676166522
        -0.0122475492482
        -0.0122274818442
        -0.0122074144402
        -0.0121873470362
        -0.0121672796322
        -0.0121472122282
        -0.0121271448242
        -0.0121070774202
        -0.0120870100162
        -0.0120669426122
        -0.0120468752082
        -0.0120268078042
        -0.0120067404002
        -0.0119866729962
        -0.0119666055922
        -0.0119465381882
        -0.0119264707842
        -0.0119064033802
        -0.0118863359762
        -0.0118662685722
        -0.0118462011682
        -0.0118261337642
        -0.0118060663602
        -0.0117859989562
        -0.0117659315522
        -0.0117458641482
        -0.0117257967442
        -0.0117057293402
        -0.0116856619362
        -0.0116655945322
        -0.0116455271282
        -0.0116254597242
        -0.0116053923202
        -0.0115853249162
        -0.0115652575122
        -0.0115451901082
        -0.0115251227041
        -0.0115050553001
        -0.0114849878961
        -0.0114649204921
        -0.0114448530881
        -0.0114247856841
        -0.0114047182801
        -0.0113846508761
        -0.0113645834721
        -0.0113445160681
        -0.0113244486641
        -0.0113043812601
        -0.0112843138561
        -0.0112642464521
        -0.0112441790481
        -0.0112241116441
        -0.0112040442401
        -0.0111839768361
        -0.0111639094321
        -0.0111438420281
        -0.0111237746241
        -0.0111037072201
        -0.0110836398161
        -0.0110635724121
        -0.0110435050081
        -0.0110234376041
        -0.0110033702001
        -0.0109833027961
        -0.0109632353921
        -0.0109431679881
        -0.0109231005841
        -0.0109030331801
        -0.0108829657761
        -0.0108628983721
        -0.0108428309681
        -0.0108227635641
        -0.0108026961601
        -0.0107826287561
        -0.0107625613521
        -0.0107424939481
        -0.0107224265441
        -0.0107023591401
        -0.0106822917361
        -0.0106622243321
        -0.0106421569281
        -0.0106220895241
        -0.0106020221201
        -0.0105819547161
        -0.0105618873121
        -0.0105418199081
        -0.0105217525041
        -0.0105016851
        -0.010481617696
        -0.010461550292
        -0.010441482888
        -0.010421415484
        -0.01040134808
        -0.010381280676
        -0.010361213272
        -0.010341145868
        -0.010321078464
        -0.01030101106
        -0.010280943656
        -0.010260876252
        -0.010240808848
        -0.010220741444
        -0.01020067404
        -0.010180606636
        -0.010160539232
        -0.010140471828
        -0.010120404424
        -0.01010033702
        -0.010080269616
        -0.010060202212
        -0.010040134808
        -0.010020067404
        -0.01
        -0.00997990114241
        -0.0099597392764
        -0.00993951420442
        -0.00991922572835
        -0.00989887364941
        -0.0098784577682
        -0.00985797788473
        -0.00983743379833
        -0.00981682530775
        -0.00979615221108
        -0.00977541430578
        -0.00975461138869
        -0.00973374325599
        -0.00971280970324
        -0.00969181052536
        -0.00967074551661
        -0.00964961447062
        -0.00962841718037
        -0.00960715343818
        -0.00958582303574
        -0.00956442576406
        -0.00954296141353
        -0.00952142977385
        -0.00949983063407
        -0.00947816378259
        -0.00945642900714
        -0.00943462609477
        -0.00941275483189
        -0.00939081500423
        -0.00936880639683
        -0.00934672879408
        -0.00932458197968
        -0.00930236573665
        -0.00928007984735
        -0.00925772409345
        -0.0092352982559
        -0.00921280211502
        -0.00919023545041
        -0.00916759804098
        -0.00914488966494
        -0.00912211009983
        -0.00909925912247
        -0.00907633650899
        -0.00905334203481
        -0.00903027547467
        -0.00900713660256
        -0.00898392519181
        -0.00896064101501
        -0.00893728384403
        -0.00891385345006
        -0.00889034960354
        -0.0088667720742
        -0.00884312063105
        -0.00881939504239
        -0.00879559507576
        -0.008771720498
        -0.00874777107521
        -0.00872374657275
        -0.00869964675526
        -0.00867547138662
        -0.00865122023
        -0.0086268930478
        -0.00860248960168
        -0.00857800965257
        -0.00855345296064
        -0.00852881928529
        -0.0085041083852
        -0.00847932001827
        -0.00845445394165
        -0.00842950991171
        -0.0084044876841
        -0.00837938701365
        -0.00835420765446
        -0.00832894935985
        -0.00830361188236
        -0.00827819497375
        -0.00825269838501
        -0.00822712186637
        -0.00820146516723
        -0.00817572803624
        -0.00814991022125
        -0.00812401146932
        -0.00809803152673
        -0.00807197013895
        -0.00804582705064
        -0.00801960200569
        -0.00799329474717
        -0.00796690501734
        -0.00794043255767
        -0.00791387710879
        -0.00788723841055
        -0.00786051620197
        -0.00783371022125
        -0.00780682020576
        -0.00777984589206
        -0.00775278701589
        -0.00772564331215
        -0.00769841451491
        -0.00767110035741
        -0.00764370057205
        -0.0076162148904
        -0.00758864304317
        -0.00756098476024
        -0.00753323977064
        -0.00750540780256
        -0.00747748858332
        -0.0074494818394
        -0.00742138729641
        -0.00739320467911
        -0.0073649337114
        -0.00733657411629
        -0.00730812561596
        -0.00727958793169
        -0.00725096078389
        -0.0072222438921
        -0.00719343697499
        -0.00716453975033
        -0.00713555193501
        -0.00710647324504
        -0.00707730339553
        -0.0070480421007
        -0.00701868907389
        -0.00698924402751
        -0.00695970667309
        -0.00693007672125
        -0.00690035388172
        -0.00687053786328
        -0.00684062837383
        -0.00681062512036
        -0.0067805278089
        -0.00675033614461
        -0.00672004983168
        -0.00668966857341
        -0.00665919207215
        -0.00662862002931
        -0.00659795214539
        -0.00656718811992
        -0.00653632765151
        -0.00650537043782
        -0.00647431617556
        -0.00644316456049
        -0.00641191528742
        -0.00638056805019
        -0.00634912254169
        -0.00631757845386
        -0.00628593547765
        -0.00625419330305
        -0.00622235161909
        -0.00619041011381
        -0.00615836847428
        -0.00612622638658
        -0.00609398353582
        -0.00606163960612
        -0.00602919428059
        -0.00599664724137
        -0.00596399816959
        -0.0059312467454
        -0.00589839264791
        -0.00586543555527
        -0.00583237514458
        -0.00579921109196
        -0.00576594307248
        -0.00573257076024
        -0.00569909382827
        -0.00566551194859
        -0.00563182479222
        -0.0055980320291
        -0.00556413332818
        -0.00553012835734
        -0.00549601678344
        -0.00546179827228
        -0.00542747248863
        -0.00539303909619
        -0.00535849775761
        -0.0053238481345
        -0.00528908988739
        -0.00525422267575
        -0.00521924615798
        -0.00518415999143
        -0.00514896383234
        -0.00511365733591
        -0.00507824015622
        -0.0050427119463
        -0.00500707235807
        -0.00497132104238
        -0.00493545764896
        -0.00489948182647
        -0.00486339322243
        -0.0048271914833
        -0.00479087625439
        -0.00475444717994
        -0.00471790390304
        -0.00468124606567
        -0.0046444733087
        -0.00460758527186
        -0.00457058159376
        -0.00453346191187
        -0.00449622586254
        -0.00445887308094
        -0.00442140320114
        -0.00438381585605
        -0.00434611067742
        -0.00430828729585
        -0.00427034534077
        -0.00423228444048
        -0.00419410422209
        -0.00415580431155
        -0.00411738433362
        -0.00407884391191
        -0.00404018266884
        -0.00400140022563
        -0.00396249620234
        -0.00392347021782
        -0.00388432188973
        -0.00384505083453
        -0.00380565666748
        -0.00376613900264
        -0.00372649745286
        -0.00368673162975
        -0.00364684114373
        -0.00360682560399
        -0.00356668461851
        -0.003526417794
        -0.00348602473599
        -0.00344550504874
        -0.00340485833527
        -0.00336408419736
        -0.00332318223556
        -0.00328215204913
        -0.00324099323611
        -0.00319970539327
        -0.00315828811609
        -0.00311674099883
        -0.00307506363443
        -0.00303325561458
        -0.00299131652968
        -0.00294924596887
        -0.00290704351996
        -0.00286470876951
        -0.00282224130274
        -0.00277964070362
        -0.00273690655478
        -0.00269403843755
        -0.00265103593195
        -0.00260789861668
        -0.00256462606912
        -0.00252121786534
        -0.00247767358005
        -0.00243399278666
        -0.00239017505721
        -0.00234621996243
        -0.00230212707169
        -0.002257895953
        -0.00221352617304
        -0.0021690172971
        -0.00212436888913
        -0.00207958051172
        -0.00203465172606
        -0.00198958209199
        -0.00194437116795
        -0.00189901851102
        -0.00185352367688
        -0.00180788621979
        -0.00176210569267
        -0.00171618164698
        -0.00167011363282
        -0.00162390119884
        -0.00157754389231
        -0.00153104125906
        -0.0014843928435
        -0.00143759818861
        -0.00139065683595
        -0.00134356832563
        -0.00129633219631
        -0.00124894798524
        -0.00120141522817
        -0.00115373345943
        -0.00110590221189
        -0.00105792101692
        -0.00100978940447
        -0.000961506902977
        -0.000913073039421
        -0.000864487339293
        -0.000815749326596
        -0.000766858523841
        -0.000717814452044
        -0.000668616630716
        -0.000619264577865
        -0.000569757809985
        -0.000520095842058
        -0.000470278187542
        -0.000420304358371
        -0.00037017386495
        -0.000319886216147
        -0.000269440919292
        -0.00021883748017
        -0.000168075403018
        -0.000117154190515
        -6.60733437858e-05
        -1.48323623876e-05
        3.65692556895e-05
        8.81320140296e-05
        0.000139856417795
        0.000191742973734
        0.000243792190179
        0.00029600457706
        0.000348380645905
        0.000400920909843
        0.000453625883615
        0.000506496083573
        0.00055953202769
        0.000612734235561
        0.00066610322841
        0.000719639529096
        0.000773343662118
        0.000827216153616
        0.000881257531382
        0.000935468324862
        0.000989849065161
        0.00104440028505
        0.00109912251897
        0.00115401630304
        0.00120908217506
        0.0012643206745
        0.00131973234254
        0.00137531772205
        0.00143107735761
        0.0014870117955
        0.0015431215837
        0.00159940727193
        0.00165586941162
        0.00171250855594
        0.00176932525977
        0.00182632007976
        0.00188349357428
        0.00194084630348
        0.00199837882923
        0.00205609171518
        0.00211398552675
        0.00217206083113
        0.00223031819729
        0.00228875819597
        0.00234738139972
        0.00240618838286
        0.00246517972154
        0.00252435599369
        0.00258371777907
        0.00264326565925
        0.00270300021762
        0.0027629220394
        0.00282303171166
        0.00288332982327
        0.00294381696501
        0.00300449372944
        0.00306536071104
        0.00312641850611
        0.00318766771285
        0.0032491089313
        0.00331074276343
        0.00337256981305
        0.00343459068589
        0.00349680598957
        0.00355921633361
        0.00362182232946
        0.00368462459046
        0.0037476237319
        0.00381082037097
        0.00387421512683
        0.00393780862055
        0.00400160147516
        0.00406559431563
        0.00412978776892
        0.00419418246393
        0.00425877903154
        0.00432357810459
        0.00438858031794
        0.00445378630841
        0.00451919671483
        0.00458481217802
        0.00465063334083
        0.0047166608481
        0.00478289534672
        0.00484933748558
        0.00491598791562
        0.00498284728982
        0.0050499162632
        0.00511719549284
        0.00518468563788
        0.00525238735952
        0.00532030132105
        0.00538842818781
        0.00545676862724
        0.00552532330889
        0.00559409290439
        0.00566307808747
        0.00573227953399
        0.00580169792191
        0.00587133393133
        0.00594118824449
        0.00601126154573
        0.00608155452158
        0.00615206786071
        0.00622280225392
        0.00629375839422
        0.00636493697675
        0.00643633869887
        0.00650796426009
        0.00657981436214
        0.00665188970893
        0.0067241910066
        0.00679671896347
        0.00686947429011
        0.00694245769931
        0.00701566990609
        0.00708911162771
        0.00716278358368
        0.00723668649578
        0.00731082108803
        0.00738518808673
        0.00745978822046
        0.00753462222008
        0.00760969081874
        0.0076849947519
        0.0077605347573
        0.00783631157502
        0.00791232594745
        0.00798857861931
        0.00806507033764
        0.00814180185183
        0.00821877391364
        0.00829598727715
        0.00837344269884
        0.00845114093754
        0.00852908275445
        0.00860726891318
        0.00868570017973
        0.00876437732248
        0.00884330111224
        0.00892247232224
        0.00900189172811
        0.00908156010793
        0.00916147824222
        0.00924164691394
        0.0093220669085
        0.00940273901378
        0.00948366402014
        0.00956484272039
        0.00964627590985
        0.00972796438632
        0.00980990895012
        0.00989211040404
        0.00997456955344
        0.0100572872062
        0.0101402641726
        0.0102235012656
        0.0103069993008
        0.0103907590962
        0.0104747814722
        0.0105590672523
        0.0106436172619
        0.0107284323296
        0.0108135132863
        0.0108988609654
        0.0109844762032
        0.0110703598384
        0.0111565127125
        0.0112429356694
        0.0113296295559
        0.0114165952212
        0.0115038335175
        0.0115913452994
        0.0116791314243
        0.0117671927521
        0.0118555301457
        0.0119441444705
        0.0120330365946
        0.0121222073889
        0.0122116577271
        0.0123013884854
        0.012391400543
        0.0124816947818
        0.0125722720863
        0.0126631333439
        0.0127542794448
        0.012845711282
        0.0129374297513
        0.0130294357511
        0.0131217301829
        0.013214313951
        0.0133071879623
        0.0134003531267
        0.013493810357
        0.0135875605688
        0.0136816046806
        0.0137759436137
        0.0138705782923
        0.0139655096437
        0.0140607385978
        0.0141562660876
        0.014252093049
        0.0143482204209
        0.0144446491449
