src/ocio/nuke-default/luts/protune.spi1d
Version 1
From -0.125 1.125
Length 4101
Components 1
{
        -0.0039837891755
        -0.00397665723737
        -0.00396951501274
        -0.00396236248676
        -0.00395519964458
        -0.00394802647131
        -0.00394084295207
        -0.00393364907192
        -0.00392644481592
        -0.00391923016911
        -0.0039120051165
        -0.00390476964308
        -0.00389752373383
        -0.00389026737368
        -0.00388300054757
        -0.0038757232404
        -0.00386843543706
        -0.00386113712239
        -0.00385382828126
        -0.00384650889847
        -0.00383917895881
        -0.00383183844707
        -0.00382448734798
        -0.0038171256463
        -0.00380975332671
        -0.00380237037391
        -0.00379497677256
        -0.00378757250729
        -0.00378015756274
        -0.0037727319235
        -0.00376529557414
        -0.00375784849921
        -0.00375039068325
        -0.00374292211077
        -0.00373544276624
        -0.00372795263413
        -0.00372045169889
        -0.00371293994493
        -0.00370541735665
        -0.00369788391842
        -0.00369033961459
        -0.00368278442949
        -0.00367521834743
        -0.00366764135268
        -0.00366005342952
        -0.00365245456217
        -0.00364484473486
        -0.00363722393177
        -0.00362959213708
        -0.00362194933493
        -0.00361429550944
        -0.00360663064472
        -0.00359895472484
        -0.00359126773386
        -0.00358356965581
        -0.0035758604747
        -0.00356814017452
        -0.00356040873922
        -0.00355266615275
        -0.00354491239903
        -0.00353714746195
        -0.00352937132537
        -0.00352158397314
        -0.0035137853891
        -0.00350597555703
        -0.00349815446072
        -0.00349032208391
        -0.00348247841035
        -0.00347462342372
        -0.00346675710773
        -0.00345887944602
        -0.00345099042224
        -0.00344309001999
        -0.00343517822287
        -0.00342725501444
        -0.00341932037823
        -0.00341137429778
        -0.00340341675656
        -0.00339544773806
        -0.00338746722571
        -0.00337947520295
        -0.00337147165316
        -0.00336345655973
        -0.003355429906
        -0.0033473916753
        -0.00333934185093
        -0.00333128041617
        -0.00332320735428
        -0.00331512264848
        -0.00330702628198
        -0.00329891823796
        -0.00329079849958
        -0.00328266704997
        -0.00327452387225
        -0.00326636894949
        -0.00325820226475
        -0.00325002380108
        -0.00324183354147
        -0.00323363146893
        -0.0032254175664
        -0.00321719181684
        -0.00320895420314
        -0.0032007047082
        -0.00319244331489
        -0.00318417000603
        -0.00317588476445
        -0.00316758757294
        -0.00315927841425
        -0.00315095727113
        -0.00314262412629
        -0.00313427896243
        -0.00312592176221
        -0.00311755250826
        -0.0031091711832
        -0.00310077776963
        -0.0030923722501
        -0.00308395460715
        -0.00307552482331
        -0.00306708288105
        -0.00305862876285
        -0.00305016245114
        -0.00304168392833
        -0.00303319317681
        -0.00302469017895
        -0.00301617491708
        -0.00300764737351
        -0.00299910753052
        -0.00299055537039
        -0.00298199087534
        -0.00297341402759
        -0.0029648248093
        -0.00295622320266
        -0.00294760918978
        -0.00293898275277
        -0.00293034387371
        -0.00292169253466
        -0.00291302871765
        -0.00290435240467
        -0.00289566357771
        -0.00288696221872
        -0.00287824830962
        -0.00286952183231
        -0.00286078276866
        -0.00285203110052
        -0.00284326680972
        -0.00283448987803
        -0.00282570028724
        -0.00281689801908
        -0.00280808305527
        -0.0027992553775
        -0.00279041496742
        -0.00278156180668
        -0.00277269587689
        -0.00276381715963
        -0.00275492563645
        -0.00274602128889
        -0.00273710409844
        -0.00272817404659
        -0.00271923111478
        -0.00271027528444
        -0.00270130653696
        -0.00269232485372
        -0.00268333021605
        -0.00267432260527
        -0.00266530200267
        -0.00265626838951
        -0.00264722174703
        -0.00263816205643
        -0.0026290892989
        -0.00262000345558
        -0.00261090450761
        -0.00260179243608
        -0.00259266722206
        -0.00258352884661
        -0.00257437729072
        -0.00256521253541
        -0.00255603456162
        -0.00254684335029
        -0.00253763888234
        -0.00252842113863
        -0.00251919010002
        -0.00250994574734
        -0.00250068806139
        -0.00249141702292
        -0.00248213261269
        -0.00247283481141
        -0.00246352359976
        -0.0024541989584
        -0.00244486086796
        -0.00243550930905
        -0.00242614426223
        -0.00241676570806
        -0.00240737362705
        -0.00239796799969
        -0.00238854880645
        -0.00237911602775
        -0.00236966964401
        -0.0023602096356
        -0.00235073598286
        -0.00234124866613
        -0.00233174766569
        -0.0023222329618
        -0.00231270453471
        -0.00230316236461
        -0.00229360643169
        -0.0022840367161
        -0.00227445319795
        -0.00226485585734
        -0.00225524467434
        -0.00224561962897
        -0.00223598070125
        -0.00222632787114
        -0.00221666111861
        -0.00220698042357
        -0.0021972857659
        -0.00218757712548
        -0.00217785448213
        -0.00216811781566
        -0.00215836710584
        -0.00214860233241
        -0.0021388234751
        -0.00212903051358
        -0.00211922342752
        -0.00210940219655
        -0.00209956680025
        -0.00208971721821
        -0.00207985342996
        -0.00206997541501
        -0.00206008315284
        -0.00205017662291
        -0.00204025580463
        -0.00203032067739
        -0.00202037122056
        -0.00201040741348
        -0.00200042923543
        -0.0019904366657
        -0.00198042968353
        -0.00197040826813
        -0.00196037239868
        -0.00195032205434
        -0.00194025721422
        -0.00193017785743
        -0.00192008396302
        -0.00190997551003
        -0.00189985247745
        -0.00188971484426
        -0.0018795625894
        -0.00186939569179
        -0.00185921413029
        -0.00184901788377
        -0.00183880693104
        -0.00182858125089
        -0.00181834082208
        -0.00180808562333
        -0.00179781563335
        -0.0017875308308
        -0.00177723119431
        -0.00176691670249
        -0.00175658733392
        -0.00174624306714
        -0.00173588388065
        -0.00172550975295
        -0.00171512066248
        -0.00170471658765
        -0.00169429750687
        -0.00168386339847
        -0.0016734142408
        -0.00166295001214
        -0.00165247069076
        -0.00164197625488
        -0.00163146668271
        -0.00162094195242
        -0.00161040204215
        -0.00159984692999
        -0.00158927659403
        -0.0015786910123
        -0.00156809016282
        -0.00155747402357
        -0.00154684257249
        -0.0015361957875
        -0.00152553364648
        -0.00151485612728
        -0.00150416320773
        -0.00149345486561
        -0.00148273107868
        -0.00147199182467
        -0.00146123708125
        -0.0014504668261
        -0.00143968103683
        -0.00142887969105
        -0.00141806276632
        -0.00140723024017
        -0.00139638209009
        -0.00138551829355
        -0.00137463882798
        -0.00136374367079
        -0.00135283279934
        -0.00134190619096
        -0.00133096382297
        -0.00132000567262
        -0.00130903171716
        -0.00129804193379
        -0.00128703629968
        -0.00127601479197
        -0.00126497738776
        -0.00125392406412
        -0.00124285479811
        -0.00123176956671
        -0.00122066834691
        -0.00120955111564
        -0.00119841784982
        -0.00118726852631
        -0.00117610312195
        -0.00116492161355
        -0.00115372397788
        -0.00114251019168
        -0.00113128023166
        -0.0011200340745
        -0.00110877169682
        -0.00109749307523
        -0.00108619818631
        -0.00107488700659
        -0.00106355951258
        -0.00105221568074
        -0.00104085548751
        -0.00102947890929
        -0.00101808592246
        -0.00100667650334
        -0.00099525062823
        -0.0009838082734
        -0.00097234941508
        -0.000960874029466
        -0.000949382092721
        -0.000937873580973
        -0.000926348470315
        -0.000914806736807
        -0.000903248356472
        -0.000891673305302
        -0.000880081559252
        -0.000868473094241
        -0.000856847886157
        -0.00084520591085
        -0.000833547144137
        -0.000821871561799
        -0.000810179139583
        -0.000798469853201
        -0.000786743678328
        -0.000775000590607
        -0.000763240565643
        -0.000751463579009
        -0.000739669606239
        -0.000727858622834
        -0.00071603060426
        -0.000704185525947
        -0.000692323363289
        -0.000680444091645
        -0.000668547686338
        -0.000656634122657
        -0.000644703375853
        -0.000632755421143
        -0.000620790233708
        -0.000608807788693
        -0.000596808061206
        -0.000584791026322
        -0.000572756659077
        -0.000560704934473
        -0.000548635827475
        -0.000536549313011
        -0.000524445365976
        -0.000512323961224
        -0.000500185073578
        -0.000488028677822
        -0.000475854748702
        -0.00046366326093
        -0.000451454189182
        -0.000439227508095
        -0.000426983192272
        -0.000414721216277
        -0.000402441554638
        -0.000390144181849
        -0.000377829072363
        -0.000365496200599
        -0.000353145540937
        -0.000340777067723
        -0.000328390755262
        -0.000315986577827
        -0.000303564509648
        -0.000291124524923
        -0.00027866659781
        -0.000266190702431
        -0.000253696812869
        -0.000241184903172
        -0.000228654947348
        -0.000216106919369
        -0.00020354079317
        -0.000190956542648
        -0.00017835414166
        -0.000165733564029
        -0.000153094783538
        -0.000140437773933
        -0.000127762508921
        -0.000115068962173
        -0.000102357107321
        -8.96269179577e-05
        -7.687836764e-05
        -6.41114298853e-05
        -5.13260781732e-05
        -3.85222859448e-05
        -2.57000266032e-05
        -1.28592735128e-05
        0.0
        1.28778206476e-05
        2.57742151809e-05
        3.86892103893e-05
        5.16228331007e-05
        6.4575110182e-05
        7.75460685386e-05
        9.05357351148e-05
        0.000103544136894
        0.000116571300898
        0.000129617254188
        0.000142682023864
        0.000155765637065
        0.000168868120969
        0.000181989502795
        0.000195129809798
        0.000208289069276
        0.000221467308562
        0.000234664555033
        0.000247880836103
        0.000261116179225
        0.000274370611893
        0.00028764416164
        0.000300936856039
        0.000314248722703
        0.000327579789284
        0.000340930083474
        0.000354299633006
        0.000367688465652
        0.000381096609225
        0.000394524091576
        0.000407970940599
        0.000421437184226
        0.000434922850431
        0.000448427967226
        0.000461952562666
        0.000475496664846
        0.0004890603019
        0.000502643502003
        0.000516246293372
        0.000529868704263
        0.000543510762975
        0.000557172497844
        0.000570853937252
        0.000584555109617
        0.000598276043401
        0.000612016767106
        0.000625777309275
        0.000639557698494
        0.000653357963387
        0.000667178132622
        0.000681018234907
        0.000694878298991
        0.000708758353667
        0.000722658427766
        0.000736578550164
        0.000750518749775
        0.000764479055558
        0.000778459496512
        0.000792460101679
        0.000806480900141
        0.000820521921024
        0.000834583193495
        0.000848664746763
        0.00086276661008
        0.000876888812738
        0.000891031384074
        0.000905194353465
        0.000919377750333
        0.000933581604139
        0.00094780594439
        0.000962050800633
        0.000976316202459
        0.000990602179502
        0.00100490876144
        0.00101923597798
        0.0010335838589
        0.00104795243399
        0.00106234173311
        0.00107675178614
        0.00109118262303
        0.00110563427374
        0.00112010676829
        0.00113460013675
        0.00114911440923
        0.00116364961588
        0.00117820578688
        0.00119278295249
        0.00120738114297
        0.00122200038865
        0.0012366407199
        0.00125130216714
        0.00126598476081
        0.00128068853143
        0.00129541350952
        0.00131015972569
        0.00132492721055
        0.0013397159948
        0.00135452610915
        0.00136935758436
        0.00138421045124
        0.00139908474064
        0.00141398048348
        0.00142889771068
        0.00144383645323
        0.00145879674217
        0.00147377860857
        0.00148878208356
        0.00150380719829
        0.00151885398399
        0.00153392247191
        0.00154901269335
        0.00156412467965
        0.00157925846221
        0.00159441407247
        0.00160959154191
        0.00162479090205
        0.00164001218447
        0.00165525542079
        0.00167052064267
        0.00168580788182
        0.00170111717
        0.00171644853901
        0.0017318020207
        0.00174717764696
        0.00176257544973
        0.001777995461
        0.00179343771279
        0.00180890223719
        0.00182438906632
        0.00183989823234
        0.00185542976749
        0.00187098370402
        0.00188656007423
        0.0019021589105
        0.00191778024521
        0.00193342411082
        0.00194909053983
        0.00196477956478
        0.00198049121825
        0.0019962255329
        0.0020119825414
        0.00202776227648
        0.00204356477093
        0.00205939005756
        0.00207523816926
        0.00209110913894
        0.00210700299958
        0.00212291978418
        0.00213885952581
        0.00215482225759
        0.00217080801267
        0.00218681682425
        0.0022028487256
        0.00221890375002
        0.00223498193086
        0.00225108330151
        0.00226720789542
        0.00228335574609
        0.00229952688707
        0.00231572135194
        0.00233193917434
        0.00234818038796
        0.00236444502655
        0.00238073312389
        0.0023970447138
        0.00241337983018
        0.00242973850696
        0.00244612077812
        0.00246252667769
        0.00247895623975
        0.00249540949843
        0.00251188648791
        0.00252838724241
        0.00254491179621
        0.00256146018363
        0.00257803243906
        0.00259462859692
        0.00261124869168
        0.00262789275787
        0.00264456083006
        0.00266125294287
        0.00267796913099
        0.00269470942912
        0.00271147387206
        0.00272826249462
        0.00274507533168
        0.00276191241816
        0.00277877378903
        0.00279565947934
        0.00281256952414
        0.00282950395856
        0.0028464628178
        0.00286344613706
        0.00288045395164
        0.00289748629685
        0.00291454320809
        0.00293162472079
        0.00294873087042
        0.00296586169252
        0.00298301722268
        0.00300019749654
        0.00301740254978
        0.00303463241814
        0.00305188713741
        0.00306916674344
        0.00308647127212
        0.0031038007594
        0.00312115524127
        0.00313853475379
        0.00315593933305
        0.00317336901522
        0.00319082383649
        0.00320830383313
        0.00322580904145
        0.00324333949781
        0.00326089523863
        0.00327847630037
        0.00329608271955
        0.00331371453275
        0.0033313717766
        0.00334905448777
        0.003366762703
        0.00338449645907
        0.00340225579281
        0.00342004074113
        0.00343785134096
        0.0034556876293
        0.00347354964321
        0.00349143741978
        0.00350935099617
        0.00352729040961
        0.00354525569734
        0.00356324689669
        0.00358126404504
        0.00359930717981
        0.00361737633847
        0.00363547155858
        0.0036535928777
        0.0036717403335
        0.00368991396365
        0.00370811380593
        0.00372633989812
        0.0037445922781
        0.00376287098378
        0.00378117605312
        0.00379950752416
        0.00381786543497
        0.00383624982368
        0.0038546607285
        0.00387309818765
        0.00389156223944
        0.00391005292223
        0.00392857027443
        0.0039471143345
        0.00396568514096
        0.00398428273239
        0.00400290714742
        0.00402155842475
        0.0040402366031
        0.00405894172129
        0.00407767381817
        0.00409643293266
        0.00411521910371
        0.00413403237035
        0.00415287277167
        0.0041717403468
        0.00419063513493
        0.00420955717532
        0.00422850650726
        0.00424748317013
        0.00426648720335
        0.00428551864638
        0.00430457753876
        0.00432366392009
        0.00434277783001
        0.00436191930823
        0.0043810883945
        0.00440028512865
        0.00441950955056
        0.00443876170016
        0.00445804161744
        0.00447734934245
        0.0044966849153
        0.00451604837616
        0.00453543976524
        0.00455485912283
        0.00457430648927
        0.00459378190496
        0.00461328541034
        0.00463281704595
        0.00465237685234
        0.00467196487015
        0.00469158114008
        0.00471122570286
        0.0047308985993
        0.00475059987028
        0.00477032955672
        0.00479008769959
        0.00480987433995
        0.0048296895189
        0.00484953327759
        0.00486940565725
        0.00488930669916
        0.00490923644467
        0.00492919493516
        0.00494918221209
        0.004969198317
        0.00498924329145
        0.00500931717709
        0.00502942001561
        0.00504955184878
        0.00506971271841
        0.00508990266639
        0.00511012173464
        0.00513036996518
        0.00515064740007
        0.00517095408142
        0.00519129005142
        0.00521165535232
        0.00523205002641
        0.00525247411607
        0.00527292766371
        0.00529341071184
        0.00531392330298
        0.00533446547977
        0.00535503728486
        0.005375638761
        0.00539626995097
        0.00541693089764
        0.00543762164392
        0.00545834223279
        0.00547909270729
        0.00549987311054
        0.00552068348569
        0.00554152387598
        0.00556239432469
        0.00558329487519
        0.00560422557088
        0.00562518645524
        0.00564617757183
        0.00566719896423
        0.00568825067612
        0.00570933275124
        0.00573044523336
        0.00575158816635
        0.00577276159414
        0.00579396556069
        0.00581520011006
        0.00583646528636
        0.00585776113377
        0.00587908769651
        0.00590044501889
        0.00592183314528
        0.00594325212011
        0.00596470198786
        0.0059861827931
        0.00600769458044
        0.00602923739458
        0.00605081128027
        0.00607241628231
        0.00609405244559
        0.00611571981505
        0.0061374184357
        0.00615914835262
        0.00618090961094
        0.00620270225588
        0.00622452633269
        0.00624638188671
        0.00626826896335
        0.00629018760807
        0.0063121378664
        0.00633411978393
        0.00635613340634
        0.00637817877934
        0.00640025594873
        0.00642236496038
        0.00644450586021
        0.0064666786942
        0.00648888350843
        0.00651112034902
        0.00653338926216
        0.0065556902941
        0.00657802349118
        0.00660038889978
        0.00662278656636
        0.00664521653746
        0.00666767885966
        0.00669017357963
        0.00671270074409
        0.00673526039984
        0.00675785259373
        0.00678047737271
        0.00680313478377
        0.00682582487397
        0.00684854769045
        0.00687130328041
        0.00689409169112
        0.00691691296991
        0.0069397671642
        0.00696265432146
        0.00698557448923
        0.00700852771512
        0.00703151404682
        0.00705453353206
        0.00707758621868
        0.00710067215455
        0.00712379138764
        0.00714694396596
        0.00717012993762
        0.00719334935077
        0.00721660225365
        0.00723988869456
        0.00726320872188
        0.00728656238404
        0.00730994972957
        0.00733337080703
        0.00735682566508
        0.00738031435245
        0.00740383691793
        0.00742739341038
        0.00745098387873
        0.00747460837199
        0.00749826693923
        0.0075219596296
        0.00754568649232
        0.00756944757667
        0.007593242932
        0.00761707260776
        0.00764093665344
        0.0076648351186
        0.00768876805291
        0.00771273550607
        0.00773673752787
        0.00776077416816
        0.00778484547689
        0.00780895150404
        0.0078330922997
        0.00785726791402
        0.00788147839721
        0.00790572379956
        0.00793000417145
        0.0079543195633
        0.00797867002562
        0.00800305560901
        0.00802747636411
        0.00805193234166
        0.00807642359245
        0.00810095016736
        0.00812551211734
        0.00815010949341
        0.00817474234667
        0.00819941072829
        0.0082241146895
        0.00824885428163
        0.00827362955607
        0.00829844056428
        0.0083232873578
        0.00834816998825
        0.00837308850731
        0.00839804296675
        0.00842303341841
        0.00844805991418
        0.00847312250608
        0.00849822124614
        0.00852335618652
        0.00854852737943
        0.00857373487714
        0.00859897873203
        0.00862425899654
        0.00864957572317
        0.00867492896452
        0.00870031877325
        0.00872574520211
        0.00875120830391
        0.00877670813155
        0.008802244738
        0.00882781817629
        0.00885342849957
        0.00887907576102
        0.00890476001393
        0.00893048131164
        0.00895623970759
        0.00898203525529
        0.00900786800831
        0.00903373802033
        0.00905964534507
        0.00908559003636
        0.00911157214809
        0.00913759173424
        0.00916364884885
        0.00918974354604
        0.00921587588004
