src/ocio/nuke-default/luts/redlog.spi1d
Version 1
From -0.125 1.125
Length 4101
Components 1
{
        -0.00440390337412
        -0.0043959556038
        -0.00438799665591
        -0.00438002651475
        -0.00437204516455
        -0.00436405258957
        -0.00435604877402
        -0.00434803370208
        -0.00434000735793
        -0.00433196972571
        -0.00432392078955
        -0.00431586053355
        -0.00430778894179
        -0.00429970599833
        -0.0042916116872
        -0.00428350599242
        -0.00427538889797
        -0.00426726038783
        -0.00425912044594
        -0.00425096905622
        -0.00424280620257
        -0.00423463186887
        -0.00422644603897
        -0.00421824869672
        -0.0042100398259
        -0.00420181941032
        -0.00419358743374
        -0.00418534387989
        -0.00417708873249
        -0.00416882197525
        -0.00416054359182
        -0.00415225356587
        -0.00414395188102
        -0.00413563852086
        -0.00412731346899
        -0.00411897670895
        -0.00411062822429
        -0.0041022679985
        -0.00409389601509
        -0.00408551225751
        -0.00407711670921
        -0.0040687093536
        -0.00406029017407
        -0.00405185915401
        -0.00404341627675
        -0.00403496152562
        -0.00402649488393
        -0.00401801633494
        -0.00400952586192
        -0.00400102344809
        -0.00399250907665
        -0.00398398273081
        -0.0039754443937
        -0.00396689404847
        -0.00395833167823
        -0.00394975726607
        -0.00394117079506
        -0.00393257224822
        -0.00392396160859
        -0.00391533885915
        -0.00390670398287
        -0.00389805696271
        -0.00388939778157
        -0.00388072642235
        -0.00387204286794
        -0.00386334710117
        -0.00385463910487
        -0.00384591886185
        -0.00383718635488
        -0.00382844156671
        -0.00381968448007
        -0.00381091507766
        -0.00380213334217
        -0.00379333925625
        -0.00378453280252
        -0.0037757139636
        -0.00376688272206
        -0.00375803906047
        -0.00374918296136
        -0.00374031440723
        -0.00373143338057
        -0.00372253986384
        -0.00371363383947
        -0.00370471528987
        -0.00369578419742
        -0.00368684054449
        -0.00367788431342
        -0.0036689154865
        -0.00365993404603
        -0.00365093997427
        -0.00364193325346
        -0.00363291386579
        -0.00362388179347
        -0.00361483701865
        -0.00360577952346
        -0.00359670929002
        -0.0035876263004
        -0.00357853053669
        -0.00356942198089
        -0.00356030061503
        -0.0035511664211
        -0.00354201938104
        -0.00353285947679
        -0.00352368669026
        -0.00351450100334
        -0.00350530239788
        -0.0034960908557
        -0.00348686635863
        -0.00347762888844
        -0.00346837842687
        -0.00345911495567
        -0.00344983845654
        -0.00344054891115
        -0.00343124630116
        -0.00342193060819
        -0.00341260181384
        -0.00340325989968
        -0.00339390484728
        -0.00338453663814
        -0.00337515525377
        -0.00336576067563
        -0.00335635288518
        -0.00334693186382
        -0.00333749759295
        -0.00332805005394
        -0.00331858922813
        -0.00330911509683
        -0.00329962764133
        -0.00329012684289
        -0.00328061268274
        -0.00327108514209
        -0.00326154420213
        -0.00325198984401
        -0.00324242204886
        -0.00323284079778
        -0.00322324607185
        -0.00321363785212
        -0.0032040161196
        -0.00319438085531
        -0.00318473204019
        -0.00317506965521
        -0.00316539368126
        -0.00315570409925
        -0.00314600089003
        -0.00313628403444
        -0.00312655351329
        -0.00311680930735
        -0.00310705139739
        -0.00309727976413
        -0.00308749438826
        -0.00307769525047
        -0.00306788233139
        -0.00305805561164
        -0.00304821507183
        -0.0030383606925
        -0.0030284924542
        -0.00301861033744
        -0.00300871432269
        -0.00299880439041
        -0.00298888052104
        -0.00297894269495
        -0.00296899089254
        -0.00295902509414
        -0.00294904528007
        -0.00293905143062
        -0.00292904352605
        -0.00291902154659
        -0.00290898547244
        -0.00289893528379
        -0.00288887096079
        -0.00287879248355
        -0.00286869983218
        -0.00285859298672
        -0.00284847192724
        -0.00283833663372
        -0.00282818708616
        -0.00281802326451
        -0.0028078451487
        -0.00279765271861
        -0.00278744595413
        -0.00277722483508
        -0.00276698934129
        -0.00275673945253
        -0.00274647514856
        -0.00273619640911
        -0.00272590321388
        -0.00271559554253
        -0.00270527337471
        -0.00269493669003
        -0.00268458546807
        -0.00267421968839
        -0.00266383933052
        -0.00265344437395
        -0.00264303479815
        -0.00263261058256
        -0.00262217170659
        -0.00261171814962
        -0.00260124989101
        -0.00259076691008
        -0.00258026918613
        -0.00256975669842
        -0.00255922942619
        -0.00254868734864
        -0.00253813044496
        -0.00252755869428
        -0.00251697207574
        -0.00250637056843
        -0.00249575415139
        -0.00248512280367
        -0.00247447650426
        -0.00246381523214
        -0.00245313896626
        -0.00244244768551
        -0.0024317413688
        -0.00242101999497
        -0.00241028354284
        -0.00239953199121
        -0.00238876531884
        -0.00237798350447
        -0.00236718652681
        -0.00235637436452
        -0.00234554699626
        -0.00233470440063
        -0.00232384655623
        -0.0023129734416
        -0.00230208503527
        -0.00229118131573
        -0.00228026226146
        -0.00226932785087
        -0.00225837806238
        -0.00224741287436
        -0.00223643226515
        -0.00222543621307
        -0.00221442469638
        -0.00220339769335
        -0.0021923551822
        -0.00218129714111
        -0.00217022354825
        -0.00215913438173
        -0.00214802961967
        -0.00213690924013
        -0.00212577322113
        -0.0021146215407
        -0.0021034541768
        -0.00209227110737
        -0.00208107231033
        -0.00206985776356
        -0.0020586274449
        -0.00204738133218
        -0.00203611940319
        -0.00202484163568
        -0.00201354800737
        -0.00200223849596
        -0.00199091307912
        -0.00197957173447
        -0.00196821443961
        -0.00195684117211
        -0.0019454519095
        -0.0019340466293
        -0.00192262530898
        -0.00191118792597
        -0.00189973445769
        -0.00188826488151
        -0.00187677917478
        -0.00186527731482
        -0.0018537592789
        -0.00184222504428
        -0.00183067458818
        -0.00181910788778
        -0.00180752492024
        -0.00179592566268
        -0.00178431009219
        -0.00177267818582
        -0.00176102992061
        -0.00174936527354
        -0.00173768422159
        -0.00172598674166
        -0.00171427281067
        -0.00170254240548
        -0.00169079550291
        -0.00167903207977
        -0.00166725211281
        -0.00165545557879
        -0.00164364245438
        -0.00163181271627
        -0.00161996634109
        -0.00160810330543
        -0.00159622358588
        -0.00158432715895
        -0.00157241400117
        -0.00156048408899
        -0.00154853739886
        -0.00153657390717
        -0.0015245935903
        -0.0015125964246
        -0.00150058238635
        -0.00148855145183
        -0.00147650359728
        -0.00146443879891
        -0.00145235703288
        -0.00144025827533
        -0.00142814250236
        -0.00141600969005
        -0.00140385981443
        -0.0013916928515
        -0.00137950877723
        -0.00136730756756
        -0.00135508919839
        -0.00134285364558
        -0.00133060088497
        -0.00131833089236
        -0.00130604364351
        -0.00129373911416
        -0.00128141728
        -0.00126907811669
        -0.00125672159987
        -0.00124434770512
        -0.00123195640801
        -0.00121954768407
        -0.00120712150878
        -0.0011946778576
        -0.00118221670595
        -0.00116973802923
        -0.00115724180278
        -0.00114472800192
        -0.00113219660194
        -0.00111964757809
        -0.00110708090558
        -0.00109449655958
        -0.00108189451525
        -0.0010692747477
        -0.00105663723199
        -0.00104398194316
        -0.00103130885623
        -0.00101861794616
        -0.00100590918789
        -0.000993182556304
        -0.000980438026278
        -0.000967675572637
        -0.000954895170173
        -0.000942096793643
        -0.00092928041777
        -0.000916446017239
        -0.0009035935667
        -0.00089072304077
        -0.000877834414026
        -0.000864927661013
        -0.000852002756237
        -0.000839059674171
        -0.000826098389251
        -0.000813118875876
        -0.000800121108411
        -0.000787105061183
        -0.000774070708484
        -0.00076101802457
        -0.00074794698366
        -0.000734857559937
        -0.000721749727548
        -0.000708623460603
        -0.000695478733177
        -0.000682315519308
        -0.000669133792995
        -0.000655933528205
        -0.000642714698864
        -0.000629477278864
        -0.000616221242059
        -0.000602946562268
        -0.00058965321327
        -0.000576341168811
        -0.000563010402598
        -0.000549660888299
        -0.00053629259955
        -0.000522905509945
        -0.000509499593043
        -0.000496074822367
        -0.000482631171401
        -0.000469168613591
        -0.000455687122348
        -0.000442186671045
        -0.000428667233016
        -0.000415128781558
        -0.000401571289933
        -0.000387994731361
        -0.000374399079028
        -0.000360784306081
        -0.000347150385628
        -0.000333497290742
        -0.000319824994456
        -0.000306133469765
        -0.000292422689628
        -0.000278692626962
        -0.000264943254651
        -0.000251174545537
        -0.000237386472426
        -0.000223579008085
        -0.000209752125241
        -0.000195905796586
        -0.000182039994772
        -0.00016815469241
        -0.000154249862078
        -0.00014032547631
        -0.000126381507605
        -0.000112417928421
        -9.84347111792e-05
        -8.44318282606e-05
        -7.04092520079e-05
        -5.63669547249e-05
        -4.23049086764e-05
        -2.82230860881e-05
        -1.41214591467e-05
        0.0
        1.41413192437e-05
        2.83025265151e-05
        4.24836497844e-05
        5.66847170609e-05
        7.09057563934e-05
        8.51467958702e-05
        9.9407863619e-05
        0.000113688987807
        0.000127990196641
        0.000142311518369
        0.000156652981275
        0.000171014613686
        0.000185396443969
        0.000199798500529
        0.000214220811811
        0.000228663406302
        0.000243126312527
        0.000257609559053
        0.000272113174485
        0.000286637187469
        0.000301181626694
        0.000315746520885
        0.000330331898809
        0.000344937789276
        0.000359564221132
        0.000374211223268
        0.000388878824612
        0.000403567054135
        0.000418275940848
        0.000433005513802
        0.000447755802091
        0.000462526834847
        0.000477318641246
        0.000492131250504
        0.000506964691875
        0.00052181899466
        0.000536694188195
        0.000551590301863
        0.000566507365084
        0.000581445407321
        0.000596404458079
        0.000611384546903
        0.000626385703382
        0.000641407957144
        0.000656451337859
        0.000671515875241
        0.000686601599044
        0.000701708539063
        0.000716836725138
        0.000731986187146
        0.000747156955012
        0.000762349058698
        0.000777562528211
        0.0007927973936
        0.000808053684954
        0.000823331432408
        0.000838630666136
        0.000853951416356
        0.000869293713328
        0.000884657587356
        0.000900043068785
        0.000915450188003
        0.00093087897544
        0.000946329461571
        0.000961801676913
        0.000977295652024
        0.000992811417506
        0.00100834900401
        0.00102390844221
        0.00103948976286
        0.00105509299671
        0.0010707181746
        0.00108636532738
        0.00110203448596
        0.00111772568129
        0.00113343894435
        0.00114917430618
        0.00116493179787
        0.00118071145054
        0.00119651329534
        0.0012123373635
        0.00122818368627
        0.00124405229494
        0.00125994322086
        0.00127585649542
        0.00129179215004
        0.0013077502162
        0.00132373072542
        0.00133973370926
        0.00135575919933
        0.00137180722728
        0.00138787782482
        0.00140397102367
        0.00142008685563
        0.00143622535253
        0.00145238654624
        0.00146857046869
        0.00148477715183
        0.00150100662768
        0.00151725892829
        0.00153353408577
        0.00154983213226
        0.00156615309994
        0.00158249702106
        0.0015988639279
        0.00161525385278
        0.00163166682808
        0.00164810288621
        0.00166456205963
        0.00168104438086
        0.00169754988245
        0.001714078597
        0.00173063055716
        0.00174720579561
        0.0017638043451
        0.00178042623841
        0.00179707150837
        0.00181374018785
        0.00183043230979
        0.00184714790714
        0.00186388701293
        0.00188064966021
        0.0018974358821
        0.00191424571174
        0.00193107918235
        0.00194793632716
        0.00196481717948
        0.00198172177263
        0.00199865014003
        0.00201560231509
        0.0020325783313
        0.00204957822219
        0.00206660202134
        0.00208364976237
        0.00210072147896
        0.00211781720481
        0.00213493697371
        0.00215208081945
        0.00216924877591
        0.00218644087698
        0.00220365715664
        0.00222089764888
        0.00223816238775
        0.00225545140735
        0.00227276474184
        0.0022901024254
        0.00230746449229
        0.00232485097678
        0.00234226191324
        0.00235969733603
        0.00237715727961
        0.00239464177845
        0.00241215086708
        0.0024296845801
        0.00244724295214
        0.00246482601786
        0.00248243381201
        0.00250006636935
        0.00251772372472
        0.00253540591299
        0.00255311296909
        0.00257084492798
        0.0025886018247
        0.00260638369431
        0.00262419057193
        0.00264202249274
        0.00265987949195
        0.00267776160484
        0.00269566886673
        0.00271360131297
        0.002731558979
        0.00274954190028
        0.00276755011233
        0.00278558365071
        0.00280364255105
        0.00282172684902
        0.00283983658032
        0.00285797178074
        0.00287613248609
        0.00289431873224
        0.00291253055511
        0.00293076799068
        0.00294903107495
        0.00296731984401
        0.00298563433397
        0.00300397458102
        0.00302234062136
        0.00304073249129
        0.00305915022712
        0.00307759386523
        0.00309606344206
        0.00311455899407
        0.0031330805578
        0.00315162816984
        0.00317020186682
        0.00318880168542
        0.00320742766237
        0.00322607983448
        0.00324475823857
        0.00326346291154
        0.00328219389034
        0.00330095121196
        0.00331973491344
        0.00333854503189
        0.00335738160446
        0.00337624466836
        0.00339513426084
        0.00341405041921
        0.00343299318083
        0.00345196258312
        0.00347095866354
        0.00348998145961
        0.00350903100891
        0.00352810734906
        0.00354721051774
        0.00356634055267
        0.00358549749165
        0.00360468137251
        0.00362389223314
        0.00364313011149
        0.00366239504555
        0.00368168707337
        0.00370100623305
        0.00372035256276
        0.00373972610071
        0.00375912688516
        0.00377855495442
        0.00379801034688
        0.00381749310096
        0.00383700325513
        0.00385654084794
        0.00387610591798
        0.00389569850388
        0.00391531864434
        0.00393496637812
        0.00395464174403
        0.00397434478091
        0.0039940755277
        0.00401383402336
        0.00403362030692
        0.00405343441745
        0.00407327639409
        0.00409314627604
        0.00411304410253
        0.00413296991287
        0.00415292374642
        0.00417290564258
        0.00419291564082
        0.00421295378066
        0.00423302010169
        0.00425311464353
        0.00427323744587
        0.00429338854846
        0.00431356799111
        0.00433377581365
        0.00435401205602
        0.00437427675818
        0.00439456996015
        0.00441489170201
        0.00443524202391
        0.00445562096603
        0.00447602856863
        0.00449646487202
        0.00451692991655
        0.00453742374266
        0.00455794639081
        0.00457849790155
        0.00459907831546
        0.0046196876732
        0.00464032601546
        0.00466099338302
        0.00468168981669
        0.00470241535734
        0.00472317004593
        0.00474395392343
        0.00476476703091
        0.00478560940946
        0.00480648110026
        0.00482738214452
        0.00484831258354
        0.00486927245864
        0.00489026181123
        0.00491128068277
        0.00493232911477
        0.00495340714881
        0.0049745148265
        0.00499565218955
        0.00501681927971
        0.00503801613878
        0.00505924280862
        0.00508049933117
        0.0051017857484
        0.00512310210236
        0.00514444843516
        0.00516582478895
        0.00518723120595
        0.00520866772845
        0.00523013439879
        0.00525163125935
        0.00527315835262
        0.00529471572109
        0.00531630340735
        0.00533792145404
        0.00535956990385
        0.00538124879956
        0.00540295818396
        0.00542469809994
        0.00544646859045
        0.00546826969847
        0.00549010146708
        0.00551196393938
        0.00553385715856
        0.00555578116787
        0.0055777360106
        0.00559972173012
        0.00562173836985
        0.00564378597328
        0.00566586458396
        0.00568797424549
        0.00571011500154
        0.00573228689584
        0.00575448997219
        0.00577672427444
        0.0057989898465
        0.00582128673235
        0.00584361497603
        0.00586597462164
        0.00588836571335
        0.00591078829537
        0.005933242412
        0.00595572810759
        0.00597824542655
        0.00600079441334
        0.00602337511252
        0.00604598756867
        0.00606863182647
        0.00609130793063
        0.00611401592594
        0.00613675585726
        0.0061595277695
        0.00618233170764
        0.00620516771671
        0.00622803584182
        0.00625093612814
        0.0062738686209
        0.00629683336539
        0.00631983040697
        0.00634285979107
        0.00636592156316
        0.00638901576881
        0.00641214245361
        0.00643530166326
        0.00645849344349
        0.0064817178401
        0.00650497489898
        0.00652826466605
        0.00655158718732
        0.00657494250885
        0.00659833067677
        0.00662175173727
        0.00664520573661
        0.00666869272113
        0.0066922127372
        0.00671576583128
        0.00673935204989
        0.00676297143963
        0.00678662404713
        0.00681030991912
        0.00683402910238
        0.00685778164375
        0.00688156759015
        0.00690538698857
        0.00692923988604
        0.00695312632968
        0.00697704636667
        0.00700100004425
        0.00702498740973
        0.0070490085105
        0.00707306339399
        0.00709715210772
        0.00712127469927
        0.00714543121628
        0.00716962170646
        0.00719384621759
        0.00721810479752
        0.00724239749416
        0.00726672435549
        0.00729108542957
        0.0073154807645
        0.00733991040847
        0.00736437440974
        0.00738887281661
        0.00741340567749
        0.00743797304082
        0.00746257495513
        0.007487211469
        0.00751188263111
        0.00753658849017
        0.00756132909499
        0.00758610449443
        0.00761091473742
        0.00763575987297
        0.00766063995015
        0.0076855550181
        0.00771050512604
        0.00773549032323
        0.00776051065904
        0.00778556618287
        0.00781065694421
        0.00783578299263
        0.00786094437775
        0.00788614114927
        0.00791137335695
        0.00793664105062
        0.00796194428021
        0.00798728309567
        0.00801265754707
        0.00803806768451
        0.0080635135582
        0.00808899521837
        0.00811451271537
        0.00814006609959
        0.00816565542151
        0.00819128073166
        0.00821694208066
        0.0082426395192
        0.00826837309803
        0.00829414286797
        0.00831994887993
        0.00834579118487
        0.00837166983384
        0.00839758487795
        0.00842353636838
        0.0084495243564
        0.00847554889333
        0.00850161003057
        0.00852770781959
        0.00855384231195
        0.00858001355927
        0.00860622161322
        0.00863246652559
        0.00865874834819
        0.00868506713295
        0.00871142293185
        0.00873781579694
        0.00876424578035
        0.00879071293429
        0.00881721731102
        0.00884375896291
        0.00887033794236
        0.00889695430189
        0.00892360809405
        0.0089502993715
        0.00897702818694
        0.00900379459319
        0.00903059864309
        0.0090574403896
        0.00908431988572
        0.00911123718455
        0.00913819233926
        0.00916518540307
        0.00919221642932
        0.00921928547138
        0.00924639258272
        0.00927353781689
        0.00930072122749
        0.00932794286822
        0.00935520279283
        0.00938250105519
        0.00940983770919
        0.00943721280884
        0.00946462640821
        0.00949207856143
        0.00951956932273
        0.00954709874641
        0.00957466688684
        0.00960227379847
        0.00962991953583
        0.00965760415353
        0.00968532770623
        0.00971309024871
        0.00974089183579
        0.00976873252239
        0.00979661236349
        0.00982453141416
        0.00985248972955
        0.00988048736487
        0.00990852437542
        0.00993660081658
        0.00996471674381
        0.00999287221264
        0.0100210672787
