src/ocio/nuke-default/luts/slog3.spi1d
Version 1
From -0.125 1.125
Length 4101
Components 1
{
        -0.0329003287562
        -0.0328542881883
        -0.0328082476205
        -0.0327622070526
        -0.0327161664847
        -0.0326701259169
        -0.032624085349
        -0.0325780447812
        -0.0325320042133
        -0.0324859636455
        -0.0324399230776
        -0.0323938825098
        -0.0323478419419
        -0.0323018013741
        -0.0322557608062
        -0.0322097202384
        -0.0321636796705
        -0.0321176391027
        -0.0320715985348
        -0.032025557967
        -0.0319795173991
        -0.0319334768312
        -0.0318874362634
        -0.0318413956955
        -0.0317953551277
        -0.0317493145598
        -0.031703273992
        -0.0316572334241
        -0.0316111928563
        -0.0315651522884
        -0.0315191117206
        -0.0314730711527
        -0.0314270305849
        -0.031380990017
        -0.0313349494492
        -0.0312889088813
        -0.0312428683135
        -0.0311968277456
        -0.0311507871777
        -0.0311047466099
        -0.031058706042
        -0.0310126654742
        -0.0309666249063
        -0.0309205843385
        -0.0308745437706
        -0.0308285032028
        -0.0307824626349
        -0.0307364220671
        -0.0306903814992
        -0.0306443409314
        -0.0305983003635
        -0.0305522597957
        -0.0305062192278
        -0.0304601786599
        -0.0304141380921
        -0.0303680975242
        -0.0303220569564
        -0.0302760163885
        -0.0302299758207
        -0.0301839352528
        -0.030137894685
        -0.0300918541171
        -0.0300458135493
        -0.0299997729814
        -0.0299537324136
        -0.0299076918457
        -0.0298616512779
        -0.02981561071
        -0.0297695701422
        -0.0297235295743
        -0.0296774890064
        -0.0296314484386
        -0.0295854078707
        -0.0295393673029
        -0.029493326735
        -0.0294472861672
        -0.0294012455993
        -0.0293552050315
        -0.0293091644636
        -0.0292631238958
        -0.0292170833279
        -0.0291710427601
        -0.0291250021922
        -0.0290789616244
        -0.0290329210565
        -0.0289868804887
        -0.0289408399208
        -0.0288947993529
        -0.0288487587851
        -0.0288027182172
        -0.0287566776494
        -0.0287106370815
        -0.0286645965137
        -0.0286185559458
        -0.028572515378
        -0.0285264748101
        -0.0284804342423
        -0.0284343936744
        -0.0283883531066
        -0.0283423125387
        -0.0282962719709
        -0.028250231403
        -0.0282041908352
        -0.0281581502673
        -0.0281121096994
        -0.0280660691316
        -0.0280200285637
        -0.0279739879959
        -0.027927947428
        -0.0278819068602
        -0.0278358662923
        -0.0277898257245
        -0.0277437851566
        -0.0276977445888
        -0.0276517040209
        -0.0276056634531
        -0.0275596228852
        -0.0275135823174
        -0.0274675417495
        -0.0274215011817
        -0.0273754606138
        -0.0273294200459
        -0.0272833794781
        -0.0272373389102
        -0.0271912983424
        -0.0271452577745
        -0.0270992172067
        -0.0270531766388
        -0.027007136071
        -0.0269610955031
        -0.0269150549353
        -0.0268690143674
        -0.0268229737996
        -0.0267769332317
        -0.0267308926639
        -0.026684852096
        -0.0266388115282
        -0.0265927709603
        -0.0265467303924
        -0.0265006898246
        -0.0264546492567
        -0.0264086086889
        -0.026362568121
        -0.0263165275532
        -0.0262704869853
        -0.0262244464175
        -0.0261784058496
        -0.0261323652818
        -0.0260863247139
        -0.0260402841461
        -0.0259942435782
        -0.0259482030104
        -0.0259021624425
        -0.0258561218747
        -0.0258100813068
        -0.0257640407389
        -0.0257180001711
        -0.0256719596032
        -0.0256259190354
        -0.0255798784675
        -0.0255338378997
        -0.0254877973318
        -0.025441756764
        -0.0253957161961
        -0.0253496756283
        -0.0253036350604
        -0.0252575944926
        -0.0252115539247
        -0.0251655133569
        -0.025119472789
        -0.0250734322212
        -0.0250273916533
        -0.0249813510854
        -0.0249353105176
        -0.0248892699497
        -0.0248432293819
        -0.024797188814
        -0.0247511482462
        -0.0247051076783
        -0.0246590671105
        -0.0246130265426
        -0.0245669859748
        -0.0245209454069
        -0.0244749048391
        -0.0244288642712
        -0.0243828237034
        -0.0243367831355
        -0.0242907425677
        -0.0242447019998
        -0.0241986614319
        -0.0241526208641
        -0.0241065802962
        -0.0240605397284
        -0.0240144991605
        -0.0239684585927
        -0.0239224180248
        -0.023876377457
        -0.0238303368891
        -0.0237842963213
        -0.0237382557534
        -0.0236922151856
        -0.0236461746177
        -0.0236001340499
        -0.023554093482
        -0.0235080529142
        -0.0234620123463
        -0.0234159717784
        -0.0233699312106
        -0.0233238906427
        -0.0232778500749
        -0.023231809507
        -0.0231857689392
        -0.0231397283713
        -0.0230936878035
        -0.0230476472356
        -0.0230016066678
        -0.0229555660999
        -0.0229095255321
        -0.0228634849642
        -0.0228174443964
        -0.0227714038285
        -0.0227253632607
        -0.0226793226928
        -0.0226332821249
        -0.0225872415571
        -0.0225412009892
        -0.0224951604214
        -0.0224491198535
        -0.0224030792857
        -0.0223570387178
        -0.02231099815
        -0.0222649575821
        -0.0222189170143
        -0.0221728764464
        -0.0221268358786
        -0.0220807953107
        -0.0220347547429
        -0.021988714175
        -0.0219426736072
        -0.0218966330393
        -0.0218505924714
        -0.0218045519036
        -0.0217585113357
        -0.0217124707679
        -0.0216664302
        -0.0216203896322
        -0.0215743490643
        -0.0215283084965
        -0.0214822679286
        -0.0214362273608
        -0.0213901867929
        -0.0213441462251
        -0.0212981056572
        -0.0212520650894
        -0.0212060245215
        -0.0211599839537
        -0.0211139433858
        -0.0210679028179
        -0.0210218622501
        -0.0209758216822
        -0.0209297811144
        -0.0208837405465
        -0.0208376999787
        -0.0207916594108
        -0.020745618843
        -0.0206995782751
        -0.0206535377073
        -0.0206074971394
        -0.0205614565716
        -0.0205154160037
        -0.0204693754359
        -0.020423334868
        -0.0203772943002
        -0.0203312537323
        -0.0202852131644
        -0.0202391725966
        -0.0201931320287
        -0.0201470914609
        -0.020101050893
        -0.0200550103252
        -0.0200089697573
        -0.0199629291895
        -0.0199168886216
        -0.0198708480538
        -0.0198248074859
        -0.0197787669181
        -0.0197327263502
        -0.0196866857824
        -0.0196406452145
        -0.0195946046467
        -0.0195485640788
        -0.0195025235109
        -0.0194564829431
        -0.0194104423752
        -0.0193644018074
        -0.0193183612395
        -0.0192723206717
        -0.0192262801038
        -0.019180239536
        -0.0191341989681
        -0.0190881584003
        -0.0190421178324
        -0.0189960772646
        -0.0189500366967
        -0.0189039961289
        -0.018857955561
        -0.0188119149932
        -0.0187658744253
        -0.0187198338574
        -0.0186737932896
        -0.0186277527217
        -0.0185817121539
        -0.018535671586
        -0.0184896310182
        -0.0184435904503
        -0.0183975498825
        -0.0183515093146
        -0.0183054687468
        -0.0182594281789
        -0.0182133876111
        -0.0181673470432
        -0.0181213064754
        -0.0180752659075
        -0.0180292253397
        -0.0179831847718
        -0.0179371442039
        -0.0178911036361
        -0.0178450630682
        -0.0177990225004
        -0.0177529819325
        -0.0177069413647
        -0.0176609007968
        -0.017614860229
        -0.0175688196611
        -0.0175227790933
        -0.0174767385254
        -0.0174306979576
        -0.0173846573897
        -0.0173386168219
        -0.017292576254
        -0.0172465356862
        -0.0172004951183
        -0.0171544545504
        -0.0171084139826
        -0.0170623734147
        -0.0170163328469
        -0.016970292279
        -0.0169242517112
        -0.0168782111433
        -0.0168321705755
        -0.0167861300076
        -0.0167400894398
        -0.0166940488719
        -0.0166480083041
        -0.0166019677362
        -0.0165559271684
        -0.0165098866005
        -0.0164638460327
        -0.0164178054648
        -0.0163717648969
        -0.0163257243291
        -0.0162796837612
        -0.0162336431934
        -0.0161876026255
        -0.0161415620577
        -0.0160955214898
        -0.016049480922
        -0.0160034403541
        -0.0159573997863
        -0.0159113592184
        -0.0158653186506
        -0.0158192780827
        -0.0157732375149
        -0.015727196947
        -0.0156811563792
        -0.0156351158113
        -0.0155890752434
        -0.0155430346756
        -0.0154969941077
        -0.0154509535399
        -0.015404912972
        -0.0153588724042
        -0.0153128318363
        -0.0152667912685
        -0.0152207507006
        -0.0151747101328
        -0.0151286695649
        -0.0150826289971
        -0.0150365884292
        -0.0149905478614
        -0.0149445072935
        -0.0148984667256
        -0.0148524261578
        -0.0148063855899
        -0.0147603450221
        -0.0147143044542
        -0.0146682638864
        -0.0146222233185
        -0.0145761827507
        -0.0145301421828
        -0.014484101615
        -0.0144380610471
        -0.0143920204793
        -0.0143459799114
        -0.0142999393436
        -0.0142538987757
        -0.0142078582079
        -0.01416181764
        -0.0141157770721
        -0.0140697365043
        -0.0140236959364
        -0.0139776553686
        -0.0139316148007
        -0.0138855742329
        -0.013839533665
        -0.0137934930972
        -0.0137474525293
        -0.0137014119615
        -0.0136553713936
        -0.0136093308258
        -0.0135632902579
        -0.0135172496901
        -0.0134712091222
        -0.0134251685544
        -0.0133791279865
        -0.0133330874186
        -0.0132870468508
        -0.0132410062829
        -0.0131949657151
        -0.0131489251472
        -0.0131028845794
        -0.0130568440115
        -0.0130108034437
        -0.0129647628758
        -0.012918722308
        -0.0128726817401
        -0.0128266411723
        -0.0127806006044
        -0.0127345600366
        -0.0126885194687
        -0.0126424789009
        -0.012596438333
        -0.0125503977651
        -0.0125043571973
        -0.0124583166294
        -0.0124122760616
        -0.0123662354937
        -0.0123201949259
        -0.012274154358
        -0.0122281137902
        -0.0121820732223
        -0.0121360326545
        -0.0120899920866
        -0.0120439515188
        -0.0119979109509
        -0.0119518703831
        -0.0119058298152
        -0.0118597892474
        -0.0118137486795
        -0.0117677081116
        -0.0117216675438
        -0.0116756269759
        -0.0116295864081
        -0.0115835458402
        -0.0115375052724
        -0.0114914647045
        -0.0114454241367
        -0.0113993835688
        -0.011353343001
        -0.0113073024331
        -0.0112612618653
        -0.0112152212974
        -0.0111691807296
        -0.0111231401617
        -0.0110770995939
        -0.011031059026
        -0.0109850184581
        -0.0109389778903
        -0.0108929373224
        -0.0108468967546
        -0.0108008561867
        -0.0107548156189
        -0.010708775051
        -0.0106627344832
        -0.0106166939153
        -0.0105706533475
        -0.0105246127796
        -0.0104785722118
        -0.0104325316439
        -0.0103864910761
        -0.0103404505082
        -0.0102944099404
        -0.0102483693725
        -0.0102023288046
        -0.0101562882368
        -0.0101102476689
        -0.0100642071011
        -0.0100181665332
        -0.00997212596538
        -0.00992608539753
        -0.00988004482968
        -0.00983400426182
        -0.00978796369397
        -0.00974192312612
        -0.00969588255827
        -0.00964984199041
        -0.00960380142256
        -0.00955776085471
        -0.00951172028685
        -0.009465679719
        -0.00941963915115
        -0.00937359858329
        -0.00932755801544
        -0.00928151744759
        -0.00923547687974
        -0.00918943631188
        -0.00914339574403
        -0.00909735517618
        -0.00905131460832
        -0.00900527404047
        -0.00895923347262
        -0.00891319290477
        -0.00886715233691
        -0.00882111176906
        -0.00877507120121
        -0.00872903063335
        -0.0086829900655
        -0.00863694949765
        -0.00859090892979
        -0.00854486836194
        -0.00849882779409
        -0.00845278722624
        -0.00840674665838
        -0.00836070609053
        -0.00831466552268
        -0.00826862495482
        -0.00822258438697
        -0.00817654381912
        -0.00813050325127
        -0.00808446268341
        -0.00803842211556
        -0.00799238154771
        -0.00794634097985
        -0.007900300412
        -0.00785425984415
        -0.00780821927629
        -0.00776217870844
        -0.00771613814059
        -0.00767009757274
        -0.00762405700488
        -0.00757801643703
        -0.00753197586918
        -0.00748593530132
        -0.00743989473347
        -0.00739385416562
        -0.00734781359776
        -0.00730177302991
        -0.00725573246206
        -0.00720969189421
        -0.00716365132635
        -0.0071176107585
        -0.00707157019065
        -0.00702552962279
        -0.00697948905494
        -0.00693344848709
        -0.00688740791924
        -0.00684136735138
        -0.00679532678353
        -0.00674928621568
        -0.00670324564782
        -0.00665720507997
        -0.00661116451212
        -0.00656512394426
        -0.00651908337641
        -0.00647304280856
        -0.00642700224071
        -0.00638096167285
        -0.006334921105
        -0.00628888053715
        -0.00624283996929
        -0.00619679940144
        -0.00615075883359
        -0.00610471826573
        -0.00605867769788
        -0.00601263713003
        -0.00596659656218
        -0.00592055599432
        -0.00587451542647
        -0.00582847485862
        -0.00578243429076
        -0.00573639372291
        -0.00569035315506
        -0.00564431258721
        -0.00559827201935
        -0.0055522314515
        -0.00550619088365
        -0.00546015031579
        -0.00541410974794
        -0.00536806918009
        -0.00532202861223
        -0.00527598804438
        -0.00522994747653
        -0.00518390690868
        -0.00513786634082
        -0.00509182577297
        -0.00504578520512
        -0.00499974463726
        -0.00495370406941
        -0.00490766350156
        -0.0048616229337
        -0.00481558236585
        -0.004769541798
        -0.00472350123015
        -0.00467746066229
        -0.00463142009444
        -0.00458537952659
        -0.00453933895873
        -0.00449329839088
        -0.00444725782303
        -0.00440121725518
        -0.00435517668732
        -0.00430913611947
        -0.00426309555162
        -0.00421705498376
        -0.00417101441591
        -0.00412497384806
        -0.0040789332802
        -0.00403289271235
        -0.0039868521445
        -0.00394081157665
        -0.00389477100879
        -0.00384873044094
        -0.00380268987309
        -0.00375664930523
        -0.00371060873738
        -0.00366456816953
        -0.00361852760168
        -0.00357248703382
        -0.00352644646597
        -0.00348040589812
        -0.00343436533026
        -0.00338832476241
        -0.00334228419456
        -0.0032962436267
        -0.00325020305885
        -0.003204162491
        -0.00315812192315
        -0.00311208135529
        -0.00306604078744
        -0.00302000021959
        -0.00297395965173
        -0.00292791908388
        -0.00288187851603
        -0.00283583794817
        -0.00278979738032
        -0.00274375681247
        -0.00269771624462
        -0.00265167567676
        -0.00260563510891
        -0.00255959454106
        -0.0025135539732
        -0.00246751340535
        -0.0024214728375
        -0.00237543226965
        -0.00232939170179
        -0.00228335113394
        -0.00223731056609
        -0.00219126999823
        -0.00214522943038
        -0.00209918886253
        -0.00205314829467
        -0.00200710772682
        -0.00196106715897
        -0.00191502659112
        -0.00186898602326
        -0.00182294545541
        -0.00177690488756
        -0.0017308643197
        -0.00168482375185
        -0.001638783184
        -0.00159274261614
        -0.00154670204829
        -0.00150066148044
        -0.00145462091259
        -0.00140858034473
        -0.00136253977688
        -0.00131649920903
        -0.00127045864117
        -0.00122441807332
        -0.00117837750547
        -0.00113233693762
        -0.00108629636976
        -0.00104025580191
        -0.000994215234056
        -0.000948174666203
        -0.00090213409835
        -0.000856093530498
        -0.000810052962645
        -0.000764012394792
        -0.000717971826939
        -0.000671931259086
        -0.000625890691233
        -0.00057985012338
        -0.000533809555527
        -0.000487768987674
        -0.000441728419821
        -0.000395687851968
        -0.000349647284115
        -0.000303606716262
        -0.000257566148409
        -0.000211525580556
        -0.000165485012703
        -0.00011944444485
        -7.34038769972e-05
        -2.73633091443e-05
        1.86772587087e-05
        6.47178265616e-05
        0.000110758394415
        0.000156798962268
        0.000202839530121
        0.000248880097973
        0.000294920665826
        0.000340961233679
        0.000387001801532
        0.000433042369385
        0.000479082937238
        0.000525123505091
        0.000571164072944
        0.000617204640797
        0.00066324520865
        0.000709285776503
        0.000755326344356
        0.000801366912209
        0.000847407480062
        0.000893448047915
        0.000939488615768
        0.000985529183621
        0.00103156975147
        0.00107761031933
        0.00112365088718
        0.00116969145503
        0.00121573202289
        0.00126177259074
        0.00130781315859
        0.00135385372644
        0.0013998942943
        0.00144593486215
        0.00149197543
        0.00153801599786
        0.00158405656571
        0.00163009713356
        0.00167613770142
        0.00172217826927
        0.00176821883712
        0.00181425940497
        0.00186029997283
        0.00190634054068
        0.00195238110853
        0.00199842167639
        0.00204446224424
        0.00209050281209
        0.00213654337994
        0.0021825839478
        0.00222862451565
        0.0022746650835
        0.00232070565136
        0.00236674621921
        0.00241278678706
        0.00245882735492
        0.00250486792277
        0.00255090849062
        0.00259694905847
        0.00264298962633
        0.00268903019418
        0.00273507076203
        0.00278111132989
        0.00282715189774
        0.00287319246559
        0.00291923303345
        0.0029652736013
        0.00301131416915
        0.003057354737
        0.00310339530486
        0.00314943587271
        0.00319547644056
        0.00324151700842
        0.00328755757627
        0.00333359814412
        0.00337963871197
        0.00342567927983
        0.00347171984768
        0.00351776041553
        0.00356380098339
        0.00360984155124
        0.00365588211909
        0.00370192268695
        0.0037479632548
        0.00379400382265
        0.0038400443905
        0.00388608495836
        0.00393212552621
        0.00397816609406
        0.00402420666192
        0.00407024722977
        0.00411628779762
        0.00416232836547
        0.00420836893333
        0.00425440950118
        0.00430045006903
        0.00434649063689
        0.00439253120474
        0.00443857177259
        0.00448461234045
        0.0045306529083
        0.00457669347615
        0.004622734044
        0.00466877461186
        0.00471481517971
        0.00476085574756
        0.00480689631542
        0.00485293688327
        0.00489897745112
        0.00494501801898
        0.00499105858683
        0.00503709915468
        0.00508313972253
        0.00512918029039
        0.00517522085824
        0.00522126142609
        0.00526730199395
        0.0053133425618
        0.00535938312965
        0.0054054236975
        0.00545146426536
        0.00549750483321
        0.00554354540106
        0.00558958596892
        0.00563562653677
        0.00568166710462
        0.00572770767248
        0.00577374824033
        0.00581978880818
        0.00586582937603
        0.00591186994389
        0.00595791051174
        0.00600395107959
        0.00604999164745
        0.0060960322153
        0.00614207278315
        0.00618811335101
        0.00623415391886
        0.00628019448671
        0.00632623505456
        0.00637227562242
        0.00641831619027
        0.00646435675812
        0.00651039732598
        0.00655643789383
        0.00660247846168
        0.00664851902953
        0.00669455959739
        0.00674060016524
        0.00678664073309
        0.00683268130095
        0.0068787218688
        0.00692476243665
        0.00697080300451
        0.00701684357236
        0.00706288414021
        0.00710892470806
        0.00715496527592
        0.00720100584377
        0.00724704641162
        0.00729308697948
        0.00733912754733
        0.00738516811518
        0.00743120868304
        0.00747724925089
        0.00752328981874
        0.00756933038659
        0.00761537095445
        0.0076614115223
        0.00770745209015
        0.00775349265801
        0.00779953322586
        0.00784557379371
        0.00789161436156
        0.00793765492942
        0.00798369549727
        0.00802973606512
        0.00807577663298
        0.00812181720083
        0.00816785776868
        0.00821389833654
        0.00825993890439
        0.00830597947224
        0.00835202004009
        0.00839806060795
        0.0084441011758
        0.00849014174365
        0.00853618231151
        0.00858222287936
        0.00862826344721
        0.00867430401506
        0.00872034458292
        0.00876638515077
        0.00881242571862
        0.00885846628648
        0.00890450685433
        0.00895054742218
        0.00899658799004
        0.00904262855789
        0.00908866912574
        0.00913470969359
