src/ocio/nuke-default/luts/slog1.spi1d
Version 1
From -0.125 1.125
Length 4101
Components 1
{
        -0.0211105906075
        -0.0210838425782
        -0.0210570511178
        -0.0210302161559
        -0.0210033376218
        -0.0209764154448
        -0.020949449554
        -0.0209224398785
        -0.020895386347
        -0.0208682888885
        -0.0208411474316
        -0.0208139619049
        -0.0207867322368
        -0.0207594583556
        -0.0207321401895
        -0.0207047776667
        -0.0206773707151
        -0.0206499192625
        -0.0206224232368
        -0.0205948825656
        -0.0205672971763
        -0.0205396669963
        -0.0205119919529
        -0.0204842719734
        -0.0204565069846
        -0.0204286969136
        -0.020400841687
        -0.0203729412317
        -0.0203449954742
        -0.0203170043409
        -0.0202889677581
        -0.020260885652
        -0.0202327579488
        -0.0202045845743
        -0.0201763654545
        -0.0201481005151
        -0.0201197896815
        -0.0200914328795
        -0.0200630300342
        -0.0200345810709
        -0.0200060859148
        -0.0199775444909
        -0.0199489567239
        -0.0199203225388
        -0.01989164186
        -0.0198629146122
        -0.0198341407196
        -0.0198053201066
        -0.0197764526974
        -0.0197475384158
        -0.0197185771858
        -0.0196895689313
        -0.0196605135757
        -0.0196314110427
        -0.0196022612556
        -0.0195730641378
        -0.0195438196123
        -0.0195145276022
        -0.0194851880304
        -0.0194558008197
        -0.0194263658927
        -0.0193968831719
        -0.0193673525797
        -0.0193377740385
        -0.0193081474702
        -0.0192784727971
        -0.0192487499409
        -0.0192189788234
        -0.0191891593663
        -0.019159291491
        -0.019129375119
        -0.0190994101715
        -0.0190693965697
        -0.0190393342344
        -0.0190092230867
        -0.0189790630472
        -0.0189488540366
        -0.0189185959754
        -0.0188882887838
        -0.0188579323821
        -0.0188275266905
        -0.0187970716289
        -0.0187665671171
        -0.0187360130749
        -0.0187054094217
        -0.0186747560771
        -0.0186440529604
        -0.0186132999908
        -0.0185824970873
        -0.0185516441688
        -0.0185207411541
        -0.018489787962
        -0.0184587845108
        -0.018427730719
        -0.018396626505
        -0.0183654717867
        -0.0183342664822
        -0.0183030105093
        -0.0182717037859
        -0.0182403462294
        -0.0182089377573
        -0.018177478287
        -0.0181459677357
        -0.0181144060204
        -0.0180827930581
        -0.0180511287655
        -0.0180194130593
        -0.017987645856
        -0.017955827072
        -0.0179239566235
        -0.0178920344267
        -0.0178600603975
        -0.0178280344518
        -0.0177959565053
        -0.0177638264734
        -0.0177316442718
        -0.0176994098156
        -0.0176671230201
        -0.0176347838001
        -0.0176023920707
        -0.0175699477465
        -0.0175374507421
        -0.0175049009721
        -0.0174722983507
        -0.0174396427921
        -0.0174069342104
        -0.0173741725194
        -0.017341357633
        -0.0173084894647
        -0.0172755679281
        -0.0172425929365
        -0.0172095644031
        -0.0171764822409
        -0.0171433463629
        -0.0171101566819
        -0.0170769131105
        -0.0170436155612
        -0.0170102639464
        -0.0169768581782
        -0.0169433981687
        -0.01690988383
        -0.0168763150736
        -0.0168426918114
        -0.0168090139548
        -0.0167752814151
        -0.0167414941036
        -0.0167076519313
        -0.0166737548091
        -0.0166398026479
        -0.0166057953583
        -0.0165717328506
        -0.0165376150354
        -0.0165034418227
        -0.0164692131227
        -0.0164349288452
        -0.0164005889001
        -0.0163661931968
        -0.0163317416449
        -0.0162972341537
        -0.0162626706323
        -0.0162280509899
        -0.0161933751352
        -0.016158642977
        -0.0161238544238
        -0.0160890093842
        -0.0160541077663
        -0.0160191494784
        -0.0159841344284
        -0.0159490625241
        -0.0159139336732
        -0.0158787477833
        -0.0158435047617
        -0.0158082045157
        -0.0157728469523
        -0.0157374319785
        -0.0157019595011
        -0.0156664294268
        -0.0156308416619
        -0.0155951961128
        -0.0155594926857
        -0.0155237312866
        -0.0154879118214
        -0.0154520341958
        -0.0154160983154
        -0.0153801040855
        -0.0153440514115
        -0.0153079401984
        -0.0152717703511
        -0.0152355417746
        -0.0151992543734
        -0.015162908052
        -0.0151265027147
        -0.0150900382657
        -0.0150535146091
        -0.0150169316487
        -0.0149802892881
        -0.0149435874311
        -0.0149068259808
        -0.0148700048407
        -0.0148331239137
        -0.0147961831029
        -0.0147591823109
        -0.0147221214403
        -0.0146850003937
        -0.0146478190733
        -0.0146105773812
        -0.0145732752194
        -0.0145359124898
        -0.0144984890939
        -0.0144610049334
        -0.0144234599094
        -0.0143858539233
        -0.0143481868759
        -0.0143104586682
        -0.0142726692009
        -0.0142348183744
        -0.0141969060893
        -0.0141589322455
        -0.0141208967433
        -0.0140827994825
        -0.0140446403628
        -0.0140064192838
        -0.0139681361449
        -0.0139297908453
        -0.013891383284
        -0.0138529133601
        -0.0138143809721
        -0.0137757860188
        -0.0137371283985
        -0.0136984080094
        -0.0136596247497
        -0.0136207785172
        -0.0135818692097
        -0.0135428967249
        -0.01350386096
        -0.0134647618124
        -0.0134255991791
        -0.0133863729572
        -0.0133470830432
        -0.0133077293338
        -0.0132683117255
        -0.0132288301144
        -0.0131892843966
        -0.0131496744681
        -0.0131100002246
        -0.0130702615616
        -0.0130304583746
        -0.0129905905588
        -0.0129506580092
        -0.0129106606208
        -0.0128705982883
        -0.0128304709061
        -0.0127902783688
        -0.0127500205704
        -0.0127096974051
        -0.0126693087667
        -0.0126288545489
        -0.0125883346452
        -0.0125477489489
        -0.0125070973533
        -0.0124663797513
        -0.0124255960357
        -0.0123847460992
        -0.0123438298344
        -0.0123028471333
        -0.0122617978883
        -0.0122206819913
        -0.012179499334
        -0.012138249808
        -0.0120969333047
        -0.0120555497155
        -0.0120140989314
        -0.0119725808432
        -0.0119309953417
        -0.0118893423174
        -0.0118476216608
        -0.0118058332619
        -0.0117639770108
        -0.0117220527973
        -0.0116800605111
        -0.0116380000416
        -0.0115958712782
        -0.0115536741098
        -0.0115114084255
        -0.0114690741141
        -0.011426671064
        -0.0113841991637
        -0.0113416583013
        -0.011299048365
        -0.0112563692425
        -0.0112136208216
        -0.0111708029896
        -0.0111279156339
        -0.0110849586416
        -0.0110419318996
        -0.0109988352947
        -0.0109556687134
        -0.0109124320422
        -0.0108691251671
        -0.0108257479743
        -0.0107823003496
        -0.0107387821785
        -0.0106951933465
        -0.010651533739
        -0.0106078032409
        -0.0105640017373
        -0.0105201291127
        -0.0104761852517
        -0.0104321700386
        -0.0103880833577
        -0.0103439250928
        -0.0102996951277
        -0.010255393346
        -0.010211019631
        -0.0101665738661
        -0.0101220559341
        -0.010077465718
        -0.0100328031003
        -0.00998806796353
        -0.00994326018987
        -0.00989837966141
        -0.00985342626002
        -0.00980839986736
        -0.00976330036493
        -0.00971812763402
        -0.00967288155572
        -0.00962756201093
        -0.00958216888038
        -0.00953670204457
        -0.00949116138384
        -0.0094455467783
        -0.00939985810791
        -0.00935409525239
        -0.0093082580913
        -0.00926234650398
        -0.00921636036958
        -0.00917029956706
        -0.00912416397519
        -0.00907795347252
        -0.00903166793743
        -0.00898530724808
        -0.00893887128244
        -0.00889235991829
        -0.00884577303321
        -0.00879911050456
        -0.00875237220952
        -0.00870555802508
        -0.00865866782801
        -0.00861170149488
        -0.00856465890208
        -0.00851753992578
        -0.00847034444195
        -0.00842307232638
        -0.00837572345463
        -0.00832829770207
        -0.00828079494387
        -0.008233215055
        -0.00818555791022
        -0.00813782338408
        -0.00809001135095
        -0.00804212168497
        -0.00799415426008
        -0.00794610895005
        -0.00789798562839
        -0.00784978416844
        -0.00780150444333
        -0.00775314632598
        -0.0077047096891
        -0.00765619440519
        -0.00760760034657
        -0.00755892738532
        -0.00751017539332
        -0.00746134424226
        -0.00741243380359
        -0.0073634439486
        -0.00731437454831
        -0.00726522547358
        -0.00721599659503
        -0.00716668778309
        -0.00711729890798
        -0.00706782983968
        -0.00701828044799
        -0.00696865060249
        -0.00691894017255
        -0.00686914902731
        -0.00681927703573
        -0.00676932406652
        -0.00671928998821
        -0.0066691746691
        -0.00661897797727
        -0.0065686997806
        -0.00651833994676
        -0.00646789834318
        -0.00641737483709
        -0.00636676929552
        -0.00631608158525
        -0.00626531157287
        -0.00621445912475
        -0.00616352410703
        -0.00611250638564
        -0.0060614058263
        -0.00601022229451
        -0.00595895565553
        -0.00590760577443
        -0.00585617251604
        -0.005804655745
        -0.00575305532569
        -0.00570137112229
        -0.00564960299877
        -0.00559775081886
        -0.00554581444608
        -0.00549379374372
        -0.00544168857486
        -0.00538949880235
        -0.00533722428882
        -0.00528486489667
        -0.00523242048808
        -0.00517989092502
        -0.00512727606921
        -0.00507457578216
        -0.00502178992517
        -0.00496891835928
        -0.00491596094534
        -0.00486291754395
        -0.00480978801549
        -0.00475657222011
        -0.00470327001775
        -0.0046498812681
        -0.00459640583064
        -0.00454284356462
        -0.00448919432903
        -0.00443545798268
        -0.00438163438412
        -0.00432772339168
        -0.00427372486346
        -0.00421963865731
        -0.00416546463089
        -0.0041112026416
        -0.0040568525466
        -0.00400241420284
        -0.00394788746704
        -0.00389327219566
        -0.00383856824495
        -0.00378377547093
        -0.00372889372936
        -0.0036739228758
        -0.00361886276554
        -0.00356371325367
        -0.00350847419502
        -0.00345314544419
        -0.00339772685555
        -0.00334221828322
        -0.00328661958111
        -0.00323093060287
        -0.0031751512019
        -0.0031192812314
        -0.00306332054431
        -0.00300726899332
        -0.00295112643091
        -0.00289489270928
        -0.00283856768044
        -0.00278215119612
        -0.00272564310783
        -0.00266904326682
        -0.00261235152412
        -0.00255556773051
        -0.00249869173651
        -0.00244172339244
        -0.00238466254832
        -0.00232750905399
        -0.00227026275898
        -0.00221292351263
        -0.00215549116401
        -0.00209796556194
        -0.00204034655502
        -0.00198263399157
        -0.00192482771969
        -0.00186692758723
        -0.00180893344178
        -0.00175084513069
        -0.00169266250106
        -0.00163438539975
        -0.00157601367337
        -0.00151754716827
        -0.00145898573056
        -0.00140032920609
        -0.00134157744047
        -0.00128273027905
        -0.00122378756695
        -0.00116474914902
        -0.00110561486985
        -0.0010463845738
        -0.000987058104964
        -0.000927635307182
        -0.000868116024046
        -0.000808500098891
        -0.0007487873748
        -0.000688977694599
        -0.000629070900859
        -0.000569066835897
        -0.000508965341771
        -0.000448766260286
        -0.000388469432987
        -0.000328074701164
        -0.000267581905849
        -0.000206990887815
        -0.000146301487577
        -8.55135453902e-05
        -2.46269012516e-05
        3.6358605102e-05
        9.74431341943e-05
        0.000158626846809
        0.000219909903992
        0.00028129246705
        0.000342774697551
        0.000404356757327
        0.00046603880847
        0.000527821013338
        0.000589703534552
        0.000651686534996
        0.000713770177819
        0.000775954626435
        0.000838240044523
        0.000900626596029
        0.000963114445164
        0.00102570375641
        0.0010883946945
        0.00115118742446
        0.00121408211156
        0.00127707892135
        0.00134017801966
        0.00140337957256
        0.00146668374642
        0.00153009070786
        0.00159360062378
        0.00165721366134
        0.00172092998799
        0.00178474977143
        0.00184867317966
        0.00191270038092
        0.00197683154375
        0.00204106683696
        0.0021054064296
        0.00216985049105
        0.00223439919093
        0.00229905269914
        0.00236381118585
        0.00242867482153
        0.0024936437769
        0.00255871822297
        0.00262389833103
        0.00268918427264
        0.00275457621965
        0.00282007434417
        0.00288567881862
        0.00295138981566
        0.00301720750827
        0.00308313206969
        0.00314916367343
        0.0032153024933
        0.0032815487034
        0.00334790247809
        0.00341436399203
        0.00348093342015
        0.00354761093767
        0.00361439672011
        0.00368129094324
        0.00374829378316
        0.00381540541621
        0.00388262601905
        0.00394995576862
        0.00401739484213
        0.00408494341709
        0.00415260167131
        0.00422036978288
        0.00428824793016
        0.00435623629183
        0.00442433504683
        0.00449254437443
        0.00456086445414
        0.00462929546582
        0.00469783758957
        0.0047664910058
        0.00483525589524
        0.00490413243886
        0.00497312081798
        0.00504222121418
        0.00511143380934
        0.00518075878564
        0.00525019632555
        0.00531974661185
        0.0053894098276
        0.00545918615616
        0.00552907578121
        0.00559907888669
        0.00566919565688
        0.00573942627632
        0.00580977092988
        0.00588022980271
        0.00595080308027
        0.00602149094832
        0.00609229359293
        0.00616321120046
        0.00623424395757
        0.00630539205124
        0.00637665566873
        0.00644803499763
        0.00651953022582
        0.00659114154147
        0.00666286913309
        0.00673471318948
        0.00680667389973
        0.00687875145326
        0.00695094603979
        0.00702325784935
        0.00709568707227
        0.0071682338992
        0.0072408985211
        0.00731368112922
        0.00738658191514
        0.00745960107076
        0.00753273878826
        0.00760599526016
        0.00767937067929
        0.00775286523876
        0.00782647913205
        0.0079002125529
        0.0079740656954
        0.00804803875394
        0.00812213192322
        0.00819634539829
        0.00827067937446
        0.00834513404742
        0.00841970961312
        0.00849440626787
        0.00856922420827
        0.00864416363127
        0.00871922473411
        0.00879440771437
        0.00886971276994
        0.00894514009904
        0.00902068990019
        0.00909636237227
        0.00917215771445
        0.00924807612623
        0.00932411780746
        0.00940028295827
        0.00947657177916
        0.00955298447092
        0.00962952123468
        0.0097061822719
        0.00978296778437
        0.0098598779742
        0.00993691304382
        0.010014073196
        0.0100913586339
        0.0101687695608
        0.0102463061806
        0.0103239686973
        0.0104017573154
        0.0104796722396
        0.010557713675
        0.010635881827
        0.0107141769013
        0.0107925991041
        0.0108711486418
        0.0109498257211
        0.0110286305491
        0.0111075633332
        0.0111866242813
        0.0112658136013
        0.0113451315018
        0.0114245781915
        0.0115041538795
        0.0115838587754
        0.0116636930888
        0.0117436570299
        0.0118237508093
        0.0119039746376
        0.0119843287262
        0.0120648132864
        0.0121454285302
        0.0122261746697
        0.0123070519174
        0.0123880604863
        0.0124692005896
        0.0125504724408
        0.0126318762539
        0.0127134122432
        0.0127950806231
        0.0128768816088
        0.0129588154155
        0.013040882259
        0.0131230823551
        0.0132054159203
        0.0132878831712
        0.013370484325
        0.0134532195991
        0.0135360892112
        0.0136190933795
        0.0137022323224
        0.0137855062589
        0.0138689154079
        0.0139524599892
        0.0140361402227
        0.0141199563285
        0.0142039085273
        0.01428799704
        0.0143722220881
        0.0144565838932
        0.0145410826773
        0.0146257186629
        0.0147104920728
        0.01479540313
        0.0148804520581
        0.014965639081
        0.0150509644228
        0.0151364283081
        0.015222030962
        0.0153077726098
        0.015393653477
        0.0154796737898
        0.0155658337746
        0.0156521336582
        0.0157385736677
        0.0158251540306
        0.0159118749749
        0.0159987367288
        0.016085739521
        0.0161728835804
        0.0162601691364
        0.0163475964188
        0.0164351656577
        0.0165228770836
        0.0166107309274
        0.0166987274203
        0.0167868667939
        0.0168751492802
        0.0169635751116
        0.0170521445209
        0.0171408577412
        0.017229715006
        0.0173187165491
        0.0174078626049
        0.0174971534079
        0.0175865891933
        0.0176761701964
        0.017765896653
        0.0178557687993
        0.0179457868718
        0.0180359511076
        0.0181262617438
        0.0182167190183
        0.0183073231691
        0.0183980744347
        0.018488973054
        0.0185800192662
        0.018671213311
        0.0187625554285
        0.018854045859
        0.0189456848434
        0.0190374726228
        0.0191294094389
        0.0192214955337
        0.0193137311496
        0.0194061165293
        0.019498651916
        0.0195913375532
        0.019684173685
        0.0197771605558
        0.0198702984101
        0.0199635874933
        0.0200570280508
        0.0201506203286
        0.0202443645731
        0.020338261031
        0.0204323099495
        0.0205265115761
        0.0206208661587
        0.0207153739458
        0.020810035186
        0.0209048501286
        0.0209998190231
        0.0210949421195
        0.0211902196681
        0.0212856519198
        0.0213812391258
        0.0214769815375
        0.0215728794072
        0.0216689329871
        0.0217651425301
        0.0218615082894
        0.0219580305187
        0.0220547094721
        0.022151545404
        0.0222485385693
        0.0223456892233
        0.0224429976218
        0.0225404640208
        0.0226380886769
        0.0227358718471
        0.0228338137887
        0.0229319147596
        0.0230301750179
        0.0231285948224
        0.023227174432
        0.0233259141062
        0.023424814105
        0.0235238746887
        0.0236230961179
        0.0237224786539
        0.0238220225582
        0.023921728093
        0.0240215955205
        0.0241216251037
        0.0242218171059
        0.0243221717908
        0.0244226894225
        0.0245233702657
        0.0246242145853
        0.0247252226467
        0.0248263947159
        0.0249277310591
        0.0250292319431
        0.025130897635
        0.0252327284025
        0.0253347245135
        0.0254368862366
        0.0255392138407
        0.025641707595
        0.0257443677694
        0.025847194634
        0.0259501884597
        0.0260533495173
        0.0261566780786
        0.0262601744153
        0.0263638388001
        0.0264676715057
        0.0265716728054
        0.0266758429731
        0.0267801822828
        0.0268846910092
        0.0269893694274
        0.027094217813
        0.0271992364418
        0.0273044255904
        0.0274097855356
        0.0275153165547
        0.0276210189255
        0.0277268929263
        0.0278329388357
        0.0279391569328
        0.0280455474972
        0.028152110809
        0.0282588471486
        0.028365756797
        0.0284728400357
        0.0285800971463
        0.0286875284114
        0.0287951341136
        0.0289029145362
        0.0290108699629
        0.0291190006778
        0.0292273069656
        0.0293357891113
        0.0294444474005
        0.0295532821192
        0.0296622935538
        0.0297714819913
        0.0298808477191
        0.0299903910251
        0.0301001121976
        0.0302100115253
        0.0303200892976
        0.0304303458043
        0.0305407813354
        0.0306513961818
        0.0307621906345
        0.0308731649853
        0.0309843195261
        0.0310956545496
        0.0312071703488
        0.0313188672172
        0.0314307454489
        0.0315428053384
        0.0316550471805
        0.0317674712708
        0.0318800779051
        0.0319928673799
        0.032105839992
        0.0322189960388
        0.0323323358181
        0.0324458596283
        0.0325595677681
        0.032673460537
        0.0327875382345
        0.0329018011612
        0.0330162496176
        0.033130883905
        0.0332457043252
        0.0333607111804
        0.0334759047733
        0.0335912854071
        0.0337068533856
        0.0338226090128
        0.0339385525935
        0.034054684433
        0.0341710048368
        0.0342875141111
        0.0344042125626
        0.0345211004985
        0.0346381782264
        0.0347554460545
        0.0348729042915
        0.0349905532466
        0.0351083932293
        0.0352264245499
        0.0353446475191
        0.0354630624481
        0.0355816696485
        0.0357004694325
        0.0358194621128
        0.0359386480026
        0.0360580274157
        0.0361776006663
        0.0362973680691
