src/ocio/nuke-default/luts/srgb.spi1d
Version 1
From -0.125 1.125
Length 4101
Components 1
{
        -0.00967492260062
        -0.00965132522842
        -0.00962772785623
        -0.00960413048403
        -0.00958053311183
        -0.00955693573964
        -0.00953333836744
        -0.00950974099524
        -0.00948614362305
        -0.00946254625085
        -0.00943894887865
        -0.00941535150646
        -0.00939175413426
        -0.00936815676206
        -0.00934455938987
        -0.00932096201767
        -0.00929736464547
        -0.00927376727328
        -0.00925016990108
        -0.00922657252888
        -0.00920297515669
        -0.00917937778449
        -0.00915578041229
        -0.0091321830401
        -0.0091085856679
        -0.0090849882957
        -0.00906139092351
        -0.00903779355131
        -0.00901419617911
        -0.00899059880692
        -0.00896700143472
        -0.00894340406252
        -0.00891980669033
        -0.00889620931813
        -0.00887261194593
        -0.00884901457374
        -0.00882541720154
        -0.00880181982934
        -0.00877822245715
        -0.00875462508495
        -0.00873102771275
        -0.00870743034056
        -0.00868383296836
        -0.00866023559616
        -0.00863663822397
        -0.00861304085177
        -0.00858944347957
        -0.00856584610738
        -0.00854224873518
        -0.00851865136298
        -0.00849505399079
        -0.00847145661859
        -0.00844785924639
        -0.0084242618742
        -0.008400664502
        -0.0083770671298
        -0.00835346975761
        -0.00832987238541
        -0.00830627501321
        -0.00828267764102
        -0.00825908026882
        -0.00823548289662
        -0.00821188552443
        -0.00818828815223
        -0.00816469078003
        -0.00814109340784
        -0.00811749603564
        -0.00809389866344
        -0.00807030129125
        -0.00804670391905
        -0.00802310654685
        -0.00799950917466
        -0.00797591180246
        -0.00795231443027
        -0.00792871705807
        -0.00790511968587
        -0.00788152231368
        -0.00785792494148
        -0.00783432756928
        -0.00781073019709
        -0.00778713282489
        -0.00776353545269
        -0.0077399380805
        -0.0077163407083
        -0.0076927433361
        -0.00766914596391
        -0.00764554859171
        -0.00762195121951
        -0.00759835384732
        -0.00757475647512
        -0.00755115910292
        -0.00752756173073
        -0.00750396435853
        -0.00748036698633
        -0.00745676961414
        -0.00743317224194
        -0.00740957486974
        -0.00738597749755
        -0.00736238012535
        -0.00733878275315
        -0.00731518538096
        -0.00729158800876
        -0.00726799063656
        -0.00724439326437
        -0.00722079589217
        -0.00719719851997
        -0.00717360114778
        -0.00715000377558
        -0.00712640640338
        -0.00710280903119
        -0.00707921165899
        -0.00705561428679
        -0.0070320169146
        -0.0070084195424
        -0.0069848221702
        -0.00696122479801
        -0.00693762742581
        -0.00691403005361
        -0.00689043268142
        -0.00686683530922
        -0.00684323793702
        -0.00681964056483
        -0.00679604319263
        -0.00677244582043
        -0.00674884844824
        -0.00672525107604
        -0.00670165370384
        -0.00667805633165
        -0.00665445895945
        -0.00663086158725
        -0.00660726421506
        -0.00658366684286
        -0.00656006947066
        -0.00653647209847
        -0.00651287472627
        -0.00648927735407
        -0.00646567998188
        -0.00644208260968
        -0.00641848523748
        -0.00639488786529
        -0.00637129049309
        -0.00634769312089
        -0.0063240957487
        -0.0063004983765
        -0.0062769010043
        -0.00625330363211
        -0.00622970625991
        -0.00620610888771
        -0.00618251151552
        -0.00615891414332
        -0.00613531677112
        -0.00611171939893
        -0.00608812202673
        -0.00606452465453
        -0.00604092728234
        -0.00601732991014
        -0.00599373253794
        -0.00597013516575
        -0.00594653779355
        -0.00592294042135
        -0.00589934304916
        -0.00587574567696
        -0.00585214830476
        -0.00582855093257
        -0.00580495356037
        -0.00578135618817
        -0.00575775881598
        -0.00573416144378
        -0.00571056407158
        -0.00568696669939
        -0.00566336932719
        -0.005639771955
        -0.0056161745828
        -0.0055925772106
        -0.00556897983841
        -0.00554538246621
        -0.00552178509401
        -0.00549818772182
        -0.00547459034962
        -0.00545099297742
        -0.00542739560523
        -0.00540379823303
        -0.00538020086083
        -0.00535660348864
        -0.00533300611644
        -0.00530940874424
        -0.00528581137205
        -0.00526221399985
        -0.00523861662765
        -0.00521501925546
        -0.00519142188326
        -0.00516782451106
        -0.00514422713887
        -0.00512062976667
        -0.00509703239447
        -0.00507343502228
        -0.00504983765008
        -0.00502624027788
        -0.00500264290569
        -0.00497904553349
        -0.00495544816129
        -0.0049318507891
        -0.0049082534169
        -0.0048846560447
        -0.00486105867251
        -0.00483746130031
        -0.00481386392811
        -0.00479026655592
        -0.00476666918372
        -0.00474307181152
        -0.00471947443933
        -0.00469587706713
        -0.00467227969493
        -0.00464868232274
        -0.00462508495054
        -0.00460148757834
        -0.00457789020615
        -0.00455429283395
        -0.00453069546175
        -0.00450709808956
        -0.00448350071736
        -0.00445990334516
        -0.00443630597297
        -0.00441270860077
        -0.00438911122857
        -0.00436551385638
        -0.00434191648418
        -0.00431831911198
        -0.00429472173979
        -0.00427112436759
        -0.00424752699539
        -0.0042239296232
        -0.004200332251
        -0.0041767348788
        -0.00415313750661
        -0.00412954013441
        -0.00410594276221
        -0.00408234539002
        -0.00405874801782
        -0.00403515064562
        -0.00401155327343
        -0.00398795590123
        -0.00396435852903
        -0.00394076115684
        -0.00391716378464
        -0.00389356641244
        -0.00386996904025
        -0.00384637166805
        -0.00382277429585
        -0.00379917692366
        -0.00377557955146
        -0.00375198217926
        -0.00372838480707
        -0.00370478743487
        -0.00368119006267
        -0.00365759269048
        -0.00363399531828
        -0.00361039794608
        -0.00358680057389
        -0.00356320320169
        -0.00353960582949
        -0.0035160084573
        -0.0034924110851
        -0.0034688137129
        -0.00344521634071
        -0.00342161896851
        -0.00339802159632
        -0.00337442422412
        -0.00335082685192
        -0.00332722947973
        -0.00330363210753
        -0.00328003473533
        -0.00325643736314
        -0.00323283999094
        -0.00320924261874
        -0.00318564524655
        -0.00316204787435
        -0.00313845050215
        -0.00311485312996
        -0.00309125575776
        -0.00306765838556
        -0.00304406101337
        -0.00302046364117
        -0.00299686626897
        -0.00297326889678
        -0.00294967152458
        -0.00292607415238
        -0.00290247678019
        -0.00287887940799
        -0.00285528203579
        -0.0028316846636
        -0.0028080872914
        -0.0027844899192
        -0.00276089254701
        -0.00273729517481
        -0.00271369780261
        -0.00269010043042
        -0.00266650305822
        -0.00264290568602
        -0.00261930831383
        -0.00259571094163
        -0.00257211356943
        -0.00254851619724
        -0.00252491882504
        -0.00250132145284
        -0.00247772408065
        -0.00245412670845
        -0.00243052933625
        -0.00240693196406
        -0.00238333459186
        -0.00235973721966
        -0.00233613984747
        -0.00231254247527
        -0.00228894510307
        -0.00226534773088
        -0.00224175035868
        -0.00221815298648
        -0.00219455561429
        -0.00217095824209
        -0.00214736086989
        -0.0021237634977
        -0.0021001661255
        -0.0020765687533
        -0.00205297138111
        -0.00202937400891
        -0.00200577663671
        -0.00198217926452
        -0.00195858189232
        -0.00193498452012
        -0.00191138714793
        -0.00188778977573
        -0.00186419240353
        -0.00184059503134
        -0.00181699765914
        -0.00179340028694
        -0.00176980291475
        -0.00174620554255
        -0.00172260817035
        -0.00169901079816
        -0.00167541342596
        -0.00165181605376
        -0.00162821868157
        -0.00160462130937
        -0.00158102393717
        -0.00155742656498
        -0.00153382919278
        -0.00151023182058
        -0.00148663444839
        -0.00146303707619
        -0.00143943970399
        -0.0014158423318
        -0.0013922449596
        -0.0013686475874
        -0.00134505021521
        -0.00132145284301
        -0.00129785547081
        -0.00127425809862
        -0.00125066072642
        -0.00122706335422
        -0.00120346598203
        -0.00117986860983
        -0.00115627123763
        -0.00113267386544
        -0.00110907649324
        -0.00108547912105
        -0.00106188174885
        -0.00103828437665
        -0.00101468700446
        -0.000991089632259
        -0.000967492260062
        -0.000943894887865
        -0.000920297515669
        -0.000896700143472
        -0.000873102771275
        -0.000849505399079
        -0.000825908026882
        -0.000802310654685
        -0.000778713282489
        -0.000755115910292
        -0.000731518538096
        -0.000707921165899
        -0.000684323793702
        -0.000660726421506
        -0.000637129049309
        -0.000613531677112
        -0.000589934304916
        -0.000566336932719
        -0.000542739560523
        -0.000519142188326
        -0.000495544816129
        -0.000471947443933
        -0.000448350071736
        -0.000424752699539
        -0.000401155327343
        -0.000377557955146
        -0.000353960582949
        -0.000330363210753
        -0.000306765838556
        -0.00028316846636
        -0.000259571094163
        -0.000235973721966
        -0.00021237634977
        -0.000188778977573
        -0.000165181605376
        -0.00014158423318
        -0.000117986860983
        -9.43894887865e-05
        -7.07921165899e-05
        -4.71947443933e-05
        -2.35973721966e-05
        0.0
        2.35973721966e-05
        4.71947443933e-05
        7.07921165899e-05
        9.43894887865e-05
        0.000117986860983
        0.00014158423318
        0.000165181605376
        0.000188778977573
        0.00021237634977
        0.000235973721966
        0.000259571094163
        0.00028316846636
        0.000306765838556
        0.000330363210753
        0.000353960582949
        0.000377557955146
        0.000401155327343
        0.000424752699539
        0.000448350071736
        0.000471947443933
        0.000495544816129
        0.000519142188326
        0.000542739560523
        0.000566336932719
        0.000589934304916
        0.000613531677112
        0.000637129049309
        0.000660726421506
        0.000684323793702
        0.000707921165899
        0.000731518538096
        0.000755115910292
        0.000778713282489
        0.000802310654685
        0.000825908026882
        0.000849505399079
        0.000873102771275
        0.000896700143472
        0.000920297515669
        0.000943894887865
        0.000967492260062
        0.000991089632259
        0.00101468700446
        0.00103828437665
        0.00106188174885
        0.00108547912105
        0.00110907649324
        0.00113267386544
        0.00115627123763
        0.00117986860983
        0.00120346598203
        0.00122706335422
        0.00125066072642
        0.00127425809862
        0.00129785547081
        0.00132145284301
        0.00134505021521
        0.0013686475874
        0.0013922449596
        0.0014158423318
        0.00143943970399
        0.00146303707619
        0.00148663444839
        0.00151023182058
        0.00153382919278
        0.00155742656498
        0.00158102393717
        0.00160462130937
        0.00162821868157
        0.00165181605376
        0.00167541342596
        0.00169901079816
        0.00172260817035
        0.00174620554255
        0.00176980291475
        0.00179340028694
        0.00181699765914
        0.00184059503134
        0.00186419240353
        0.00188778977573
        0.00191138714793
        0.00193498452012
        0.00195858189232
        0.00198217926452
        0.00200577663671
        0.00202937400891
        0.00205297138111
        0.0020765687533
        0.0021001661255
        0.0021237634977
        0.00214736086989
        0.00217095824209
        0.00219455561429
        0.00221815298648
        0.00224175035868
        0.00226534773088
        0.00228894510307
        0.00231254247527
        0.00233613984747
        0.00235973721966
        0.00238333459186
        0.00240693196406
        0.00243052933625
        0.00245412670845
        0.00247772408065
        0.00250132145284
        0.00252491882504
        0.00254851619724
        0.00257211356943
        0.00259571094163
        0.00261930831383
        0.00264290568602
        0.00266650305822
        0.00269010043042
        0.00271369780261
        0.00273729517481
        0.00276089254701
        0.0027844899192
        0.0028080872914
        0.0028316846636
        0.00285528203579
        0.00287887940799
        0.00290247678019
        0.00292607415238
        0.00294967152458
        0.00297326889678
        0.00299686626897
        0.00302046364117
        0.00304406101337
        0.00306765838556
        0.00309125575776
        0.00311485312996
        0.0031385890345
        0.00316267788401
        0.00318687423862
        0.00321117823498
        0.00323559000948
        0.00326010969823
        0.00328473743711
        0.00330947336173
        0.00333431760746
        0.00335927030939
        0.00338433160238
        0.00340950162104
        0.00343478049972
        0.00346016837252
        0.0034856653733
        0.00351127163568
        0.00353698729303
        0.00356281247846
        0.00358874732486
        0.00361479196487
        0.0036409465309
        0.00366721115511
        0.00369358596941
        0.0037200711055
        0.00374666669484
        0.00377337286863
        0.00380018975787
        0.00382711749331
        0.00385415620548
        0.00388130602466
        0.00390856708091
        0.00393593950409
        0.00396342342379
        0.0039910189694
        0.00401872627008
        0.00404654545476
        0.00407447665216
        0.00410251999077
        0.00413067559886
        0.00415894360449
        0.00418732413548
        0.00421581731946
        0.00424442328382
        0.00427314215575
        0.00430197406221
        0.00433091912997
        0.00435997748556
        0.00438914925532
        0.00441843456538
        0.00444783354163
        0.00447734630978
        0.00450697299533
        0.00453671372356
        0.00456656861956
        0.00459653780821
        0.00462662141416
        0.0046568195619
        0.00468713237568
        0.00471755997958
        0.00474810249745
        0.00477876005296
        0.00480953276957
        0.00484042077055
        0.00487142417896
        0.00490254311768
        0.00493377770939
        0.00496512807657
        0.0049965943415
        0.00502817662628
        0.0050598750528
        0.00509168974279
        0.00512362081776
        0.00515566839903
        0.00518783260776
        0.00522011356488
        0.00525251139117
        0.0052850262072
        0.00531765813336
        0.00535040728986
        0.00538327379672
        0.00541625777377
        0.00544935934067
        0.0054825786169
        0.00551591572174
        0.00554937077429
        0.0055829438935
        0.00561663519811
        0.00565044480668
        0.00568437283762
        0.00571841940914
        0.00575258463927
        0.00578686864589
        0.00582127154667
        0.00585579345914
        0.00589043450063
        0.00592519478831
        0.00596007443917
        0.00599507357003
        0.00603019229756
        0.00606543073822
        0.00610078900832
        0.00613626722402
        0.00617186550129
        0.00620758395592
        0.00624342270356
        0.00627938185968
        0.00631546153959
        0.00635166185843
        0.00638798293118
        0.00642442487264
        0.00646098779746
        0.00649767182014
        0.006534477055
        0.0065714036162
        0.00660845161773
        0.00664562117345
        0.00668291239704
        0.00672032540201
        0.00675786030174
        0.00679551720942
        0.00683329623811
        0.0068711975007
        0.00690922110993
        0.00694736717837
        0.00698563581845
        0.00702402714244
        0.00706254126247
        0.00710117829048
        0.0071399383383
        0.00717882151758
        0.00721782793983
        0.0072569577164
        0.00729621095851
        0.0073355877772
        0.00737508828338
        0.00741471258781
        0.00745446080109
        0.00749433303369
        0.00753432939592
        0.00757444999795
        0.00761469494979
        0.00765506436132
        0.00769555834227
        0.00773617700222
        0.00777692045062
        0.00781778879675
        0.00785878214977
        0.00789990061869
        0.00794114431238
        0.00798251333957
        0.00802400780883
        0.00806562782861
        0.00810737350722
        0.00814924495281
        0.00819124227342
        0.00823336557692
        0.00827561497107
        0.00831799056348
        0.0083604924616
        0.00840312077279
        0.00844587560423
        0.008488757063
        0.00853176525601
        0.00857490029005
        0.00861816227179
        0.00866155130774
        0.0087050675043
        0.00874871096771
        0.0087924818041
        0.00883638011947
        0.00888040601966
        0.00892455961041
        0.0089688409973
        0.00901325028581
        0.00905778758127
        0.00910245298887
        0.0091472466137
        0.00919216856071
        0.0092372189347
        0.00928239784036
        0.00932770538227
        0.00937314166485
        0.0094187067924
        0.00946440086912
        0.00951022399905
        0.00955617628612
        0.00960225783414
        0.00964846874678
        0.0096948091276
        0.00974127908002
        0.00978787870736
        0.0098346081128
        0.00988146739939
        0.00992845667008
        0.00997557602767
        0.0100228255749
        0.0100702054142
        0.0101177156482
        0.0101653563792
        0.0102131277093
        0.0102610297407
        0.0103090625753
        0.010357226315
        0.0104055210615
        0.0104539469164
        0.0105025039813
        0.0105511923574
        0.0106000121461
        0.0106489634486
        0.0106980463657
        0.0107472609986
        0.0107966074478
        0.0108460858142
        0.0108956961983
        0.0109454387006
        0.0109953134213
        0.0110453204607
        0.011095459919
        0.011145731896
        0.0111961364918
        0.011246673806
        0.0112973439383
        0.0113481469883
        0.0113990830554
        0.0114501522389
        0.011501354638
        0.0115526903519
        0.0116041594794
        0.0116557621196
        0.0117074983712
        0.0117593683328
        0.0118113721029
        0.0118635097801
        0.0119157814627
        0.0119681872489
        0.0120207272367
        0.0120734015243
        0.0121262102095
        0.0121791533901
        0.0122322311638
        0.0122854436282
        0.0123387908808
        0.0123922730189
        0.0124458901399
        0.0124996423408
        0.0125535297187
        0.0126075523707
        0.0126617103934
        0.0127160038838
        0.0127704329384
        0.0128249976537
        0.0128796981262
        0.0129345344523
        0.0129895067281
        0.0130446150498
        0.0130998595134
        0.0131552402149
        0.01321075725
        0.0132664107145
        0.013322200704
        0.0133781273141
        0.0134341906401
        0.0134903907774
        0.0135467278211
        0.0136032018666
        0.0136598130086
        0.0137165613422
        0.0137734469623
        0.0138304699634
        0.0138876304403
        0.0139449284876
        0.0140023641995
        0.0140599376705
        0.0141176489949
        0.0141754982666
        0.0142334855799
        0.0142916110287
        0.0143498747068
        0.014408276708
        0.0144668171259
        0.0145254960541
        0.0145843135862
        0.0146432698154
        0.0147023648351
        0.0147615987385
        0.0148209716187
        0.0148804835686
        0.0149401346812
        0.0149999250493
        0.0150598547657
        0.0151199239229
        0.0151801326136
        0.0152404809302
        0.0153009689649
        0.0153615968102
        0.0154223645582
        0.0154832723009
        0.0155443201304
        0.0156055081386
        0.0156668364173
        0.0157283050581
        0.0157899141528
        0.015851663793
        0.0159135540699
        0.0159755850751
        0.0160377568997
        0.0161000696351
        0.0161625233722
        0.0162251182021
        0.0162878542158
        0.016350731504
        0.0164137501575
        0.016476910267
        0.016540211923
        0.0166036552161
        0.0166672402366
        0.0167309670748
        0.0167948358211
        0.0168588465654
        0.016922999398
        0.0169872944087
        0.0170517316874
        0.017116311324
        0.0171810334081
        0.0172458980295
        0.0173109052775
        0.0173760552418
        0.0174413480117
        0.0175067836764
        0.0175723623252
        0.0176380840473
        0.0177039489316
        0.0177699570671
        0.0178361085427
        0.0179024034472
        0.0179688418694
        0.0180354238978
        0.0181021496209
        0.0181690191274
        0.0182360325055
        0.0183031898435
        0.0183704912298
        0.0184379367523
        0.0185055264993
        0.0185732605586
        0.0186411390182
        0.0187091619659
        0.0187773294894
        0.0188456416764
        0.0189140986145
        0.0189827003912
        0.0190514470939
        0.0191203388099
        0.0191893756265
        0.019258557631
        0.0193278849103
        0.0193973575516
        0.0194669756418
        0.0195367392677
        0.0196066485162
        0.019676703474
        0.0197469042277
        0.0198172508639
        0.0198877434691
        0.0199583821296
        0.0200291669319
        0.0201000979621
        0.0201711753065
        0.0202423990512
