src/ocio/nuke-default/luts/st2084.spi1d
Version 1
From -0.125 1.125
Length 4101
Components 1
{
        -0.593890026282
        -0.589859491258
        -0.585849258719
        -0.581859253986
        -0.577889402599
        -0.573939630317
        -0.570009863119
        -0.5661000272
        -0.562210048973
        -0.558339855068
        -0.55448937233
        -0.550658527821
        -0.546847248816
        -0.543055462806
        -0.539283097495
        -0.535530080799
        -0.53179634085
        -0.528081805989
        -0.524386404769
        -0.520710065954
        -0.517052718519
        -0.513414291648
        -0.509794714734
        -0.50619391738
        -0.502611829396
        -0.499048380799
        -0.495503501813
        -0.49197712287
        -0.488469174607
        -0.484979587865
        -0.481508293691
        -0.478055223335
        -0.474620308253
        -0.471203480102
        -0.467804670742
        -0.464423812235
        -0.461060836844
        -0.457715677034
        -0.454388265469
        -0.451078535013
        -0.447786418731
        -0.444511849884
        -0.441254761934
        -0.438015088538
        -0.434792763552
        -0.431587721028
        -0.428399895213
        -0.425229220551
        -0.422075631681
        -0.418939063435
        -0.41581945084
        -0.412716729117
        -0.409630833678
        -0.406561700129
        -0.403509264267
        -0.400473462082
        -0.397454229752
        -0.394451503647
        -0.391465220327
        -0.388495316541
        -0.385541729226
        -0.382604395507
        -0.379683252699
        -0.376778238303
        -0.373889290005
        -0.371016345679
        -0.368159343385
        -0.365318221367
        -0.362492918054
        -0.359683372061
        -0.356889522184
        -0.354111307403
        -0.351348666882
        -0.348601539965
        -0.345869866181
        -0.343153585237
        -0.340452637022
        -0.337766961605
        -0.335096499235
        -0.332441190341
        -0.32980097553
        -0.327175795586
        -0.324565591473
        -0.321970304331
        -0.319389875478
        -0.316824246407
        -0.314273358788
        -0.311737154466
        -0.30921557546
        -0.306708563965
        -0.304216062349
        -0.301738013155
        -0.299274359096
        -0.296825043061
        -0.294390008108
        -0.29196919747
        -0.289562554548
        -0.287170022916
        -0.284791546316
        -0.282427068662
        -0.280076534036
        -0.27773988669
        -0.275417071043
        -0.273108031682
        -0.270812713363
        -0.268531061007
        -0.266263019704
        -0.264008534707
        -0.261767551438
        -0.259540015482
        -0.257325872589
        -0.255125068674
        -0.252937549815
        -0.250763262255
        -0.248602152399
        -0.246454166813
        -0.244319252228
        -0.242197355534
        -0.240088423785
        -0.237992404193
        -0.235909244131
        -0.233838891134
        -0.231781292894
        -0.229736397262
        -0.22770415225
        -0.225684506026
        -0.223677406916
        -0.221682803404
        -0.219700644131
        -0.217730877893
        -0.215773453644
        -0.213828320491
        -0.211895427699
        -0.209974724687
        -0.208066161026
        -0.206169686444
        -0.204285250821
        -0.202412804189
        -0.200552296736
        -0.198703678798
        -0.196866900866
        -0.195041913582
        -0.193228667736
        -0.191427114273
        -0.189637204285
        -0.187858889016
        -0.186092119856
        -0.184336848347
        -0.18259302618
        -0.18086060519
        -0.179139537365
        -0.177429774836
        -0.175731269883
        -0.174043974933
        -0.172367842558
        -0.170702825475
        -0.169048876548
        -0.167405948786
        -0.165773995341
        -0.16415296951
        -0.162542824734
        -0.160943514596
        -0.159354992825
        -0.157777213289
        -0.15621013
        -0.154653697111
        -0.153107868918
        -0.151572599857
        -0.150047844504
        -0.148533557577
        -0.147029693931
        -0.145536208563
        -0.144053056609
        -0.142580193343
        -0.141117574177
        -0.139665154662
        -0.138222890486
        -0.136790737474
        -0.135368651588
        -0.133956588927
        -0.132554505727
        -0.131162358357
        -0.129780103323
        -0.128407697267
        -0.127045096965
        -0.125692259325
        -0.124349141393
        -0.123015700345
        -0.121691893492
        -0.120377678278
        -0.119073012279
        -0.117777853202
        -0.116492158888
        -0.115215887309
        -0.113948996565
        -0.112691444891
        -0.111443190651
        -0.110204192336
        -0.108974408571
        -0.107753798108
        -0.106542319829
        -0.105339932743
        -0.104146595989
        -0.102962268832
        -0.101786910668
        -0.100620481017
        -0.0994629395258
        -0.0983142459706
        -0.0971743602517
        -0.0960432423958
        -0.094920852555
        -0.0938071510071
        -0.0927020981543
        -0.0916056545237
        -0.0905177807665
        -0.0894384376579
        -0.0883675860966
        -0.0873051871045
        -0.0862512018268
        -0.0852055915309
        -0.0841683176067
        -0.0831393415661
        -0.0821186250426
        -0.0811061297911
        -0.0801018176875
        -0.0791056507285
        -0.078117591031
        -0.0771376008322
        -0.0761656424891
        -0.075201678478
        -0.0742456713947
        -0.0732975839534
        -0.0723573789873
        -0.0714250194478
        -0.070500468404
        -0.0695836890431
        -0.0686746446692
        -0.067773298704
        -0.0668796146856
        -0.0659935562687
        -0.0651150872245
        -0.0642441714397
        -0.063380772917
        -0.0625248557742
        -0.0616763842444
        -0.0608353226755
        -0.0600016355297
        -0.0591752873838
        -0.0583562429283
        -0.0575444669677
        -0.0567399244196
        -0.0559425803151
        -0.0551523997981
        -0.0543693481252
        -0.0535933906654
        -0.0528244928998
        -0.0520626204215
        -0.0513077389352
        -0.050559814257
        -0.0498188123142
        -0.049084699145
        -0.0483574408983
        -0.0476370038334
        -0.0469233543199
        -0.0462164588372
        -0.0455162839748
        -0.0448227964314
        -0.0441359630152
        -0.0434557506435
        -0.0427821263425
        -0.0421150572469
        -0.0414545106002
        -0.0408004537539
        -0.0401528541677
        -0.0395116794094
        -0.038876897154
        -0.0382484751846
        -0.0376263813913
        -0.0370105837715
        -0.0364010504294
        -0.0357977495765
        -0.0352006495305
        -0.0346097187159
        -0.0340249256635
        -0.0334462390105
        -0.0328736275
        -0.0323070599813
        -0.0317465054093
        -0.031191932845
        -0.0306433114548
        -0.0301006105107
        -0.0295637993902
        -0.0290328475762
        -0.0285077246568
        -0.0279884003255
        -0.0274748443807
        -0.0269670267262
        -0.0264649173709
        -0.0259684864285
        -0.0254777041179
        -0.0249925407632
        -0.0245129667934
        -0.0240389527424
        -0.0235704692495
        -0.0231074870589
        -0.0226499770203
        -0.0221979100883
        -0.0217512573232
        -0.0213099898906
        -0.0208740790615
        -0.0204434962131
        -0.020018212828
        -0.0195982004953
        -0.0191834309099
        -0.0187738758735
        -0.0183695072943
        -0.0179702971878
        -0.0175762176764
        -0.0171872409903
        -0.0168033394675
        -0.0164244855543
        -0.0160506518058
        -0.0156818108862
        -0.0153179355692
        -0.0149589987387
        -0.0146049733891
        -0.0142558326263
        -0.0139115496676
        -0.0135720978433
        -0.0132374505967
        -0.0129075814849
        -0.0125824641803
        -0.0122620724705
        -0.0119463802601
        -0.0116353615712
        -0.0113289905446
        -0.0110272414409
        -0.0107300886419
        -0.0104375066519
        -0.0101494700986
        -0.00986595373527
        -0.00958693244202
        -0.00931238122741
        -0.00904227523046
        -0.00877658972246
        -0.00851530010911
        -0.00825838193271
        -0.00800581087455
        -0.00775756275743
        -0.00751361354838
        -0.00727393936161
        -0.00703851646156
        -0.00680732126633
        -0.00658033035121
        -0.00635752045257
        -0.006138868472
        -0.00592435148078
        -0.00571394672467
        -0.0055076316291
        -0.00530538380476
        -0.0051071810536
        -0.00491300137539
        -0.00472282297472
        -0.0045366242687
        -0.0043543838952
        -0.00417608072189
        -0.00400169385601
        -0.00383120265505
        -0.00366458673839
        -0.00350182600003
        -0.00334290062253
        -0.00318779109225
        -0.00303647821622
        -0.00288894314054
        -0.00274516737085
        -0.0026051327949
        -0.00246882170757
        -0.00233621683869
        -0.00220730138409
        -0.00208205904026
        -0.00196047404325
        -0.00184253121243
        -0.00172821599991
        -0.00161751454653
        -0.00151041374558
        -0.00140690131564
        -0.00130696588422
        -0.00121059708421
        -0.00111778566588
        -0.00102852362759
        -0.000942804369223
        -0.00086062287388
        -0.000781975924308
        -0.00070686236321
        -0.00063528340915
        -0.000567243043995
        -0.000502748493706
        -0.000441810832925
        -0.00038444575675
        -0.000330674583097
        -0.000280525580812
        -0.000234035771181
        -0.00019125344066
        -0.000152241765976
        -0.000117084266907
        -8.58934548656e-05
        -5.88255423434e-05
        -3.61080007281e-05
        -1.8099224027e-05
        -5.45416967841e-06
        0.0
        5.45416967841e-06
        1.8099224027e-05
        3.61080007281e-05
        5.88255423434e-05
        8.58934548656e-05
        0.000117084266907
        0.000152241765976
        0.00019125344066
        0.000234035771181
        0.000280525580812
        0.000330674583097
        0.00038444575675
        0.000441810832925
        0.000502748493706
        0.000567243043995
        0.00063528340915
        0.00070686236321
        0.000781975924308
        0.00086062287388
        0.000942804369223
        0.00102852362759
        0.00111778566588
        0.00121059708421
        0.00130696588422
        0.00140690131564
        0.00151041374558
        0.00161751454653
        0.00172821599991
        0.00184253121243
        0.00196047404325
        0.00208205904026
        0.00220730138409
        0.00233621683869
        0.00246882170757
        0.0026051327949
        0.00274516737085
        0.00288894314054
        0.00303647821622
        0.00318779109225
        0.00334290062253
        0.00350182600003
        0.00366458673839
        0.00383120265505
        0.00400169385601
        0.00417608072189
        0.0043543838952
        0.0045366242687
        0.00472282297472
        0.00491300137539
        0.0051071810536
        0.00530538380476
        0.0055076316291
        0.00571394672467
        0.00592435148078
        0.006138868472
        0.00635752045257
        0.00658033035121
        0.00680732126633
        0.00703851646156
        0.00727393936161
        0.00751361354838
        0.00775756275743
        0.00800581087455
        0.00825838193271
        0.00851530010911
        0.00877658972246
        0.00904227523046
        0.00931238122741
        0.00958693244202
        0.00986595373527
        0.0101494700986
        0.0104375066519
        0.0107300886419
        0.0110272414409
        0.0113289905446
        0.0116353615712
        0.0119463802601
        0.0122620724705
        0.0125824641803
        0.0129075814849
        0.0132374505967
        0.0135720978433
        0.0139115496676
        0.0142558326263
        0.0146049733891
        0.0149589987387
        0.0153179355692
        0.0156818108862
        0.0160506518058
        0.0164244855543
        0.0168033394675
        0.0171872409903
        0.0175762176764
        0.0179702971878
        0.0183695072943
        0.0187738758735
        0.0191834309099
        0.0195982004953
        0.020018212828
        0.0204434962131
        0.0208740790615
        0.0213099898906
        0.0217512573232
        0.0221979100883
        0.0226499770203
        0.0231074870589
        0.0235704692495
        0.0240389527424
        0.0245129667934
        0.0249925407632
        0.0254777041179
        0.0259684864285
        0.0264649173709
        0.0269670267262
        0.0274748443807
        0.0279884003255
        0.0285077246568
        0.0290328475762
        0.0295637993902
        0.0301006105107
        0.0306433114548
        0.031191932845
        0.0317465054093
        0.0323070599813
        0.0328736275
        0.0334462390105
        0.0340249256635
        0.0346097187159
        0.0352006495305
        0.0357977495765
        0.0364010504294
        0.0370105837715
        0.0376263813913
        0.0382484751846
        0.038876897154
        0.0395116794094
        0.0401528541677
        0.0408004537539
        0.0414545106002
        0.0421150572469
        0.0427821263425
        0.0434557506435
        0.0441359630152
        0.0448227964314
        0.0455162839748
        0.0462164588372
        0.0469233543199
        0.0476370038334
        0.0483574408983
        0.049084699145
        0.0498188123142
        0.050559814257
        0.0513077389352
        0.0520626204215
        0.0528244928998
        0.0535933906654
        0.0543693481252
        0.0551523997981
        0.0559425803151
        0.0567399244196
        0.0575444669677
        0.0583562429283
        0.0591752873838
        0.0600016355297
        0.0608353226755
        0.0616763842444
        0.0625248557742
        0.063380772917
        0.0642441714397
        0.0651150872245
        0.0659935562687
        0.0668796146856
        0.067773298704
        0.0686746446692
        0.0695836890431
        0.070500468404
        0.0714250194478
        0.0723573789873
        0.0732975839534
        0.0742456713947
        0.075201678478
        0.0761656424891
        0.0771376008322
        0.078117591031
        0.0791056507285
        0.0801018176875
        0.0811061297911
        0.0821186250426
        0.0831393415661
        0.0841683176067
        0.0852055915309
        0.0862512018268
        0.0873051871045
        0.0883675860966
        0.0894384376579
        0.0905177807665
        0.0916056545237
        0.0927020981543
        0.0938071510071
        0.094920852555
        0.0960432423958
        0.0971743602517
        0.0983142459706
        0.0994629395258
        0.100620481017
        0.101786910668
        0.102962268832
        0.104146595989
        0.105339932743
        0.106542319829
        0.107753798108
        0.108974408571
        0.110204192336
        0.111443190651
        0.112691444891
        0.113948996565
        0.115215887309
        0.116492158888
        0.117777853202
        0.119073012279
        0.120377678278
        0.121691893492
        0.123015700345
        0.124349141393
        0.125692259325
        0.127045096965
        0.128407697267
        0.129780103323
        0.131162358357
        0.132554505727
        0.133956588927
        0.135368651588
        0.136790737474
        0.138222890486
        0.139665154662
        0.141117574177
        0.142580193343
        0.144053056609
        0.145536208563
        0.147029693931
        0.148533557577
        0.150047844504
        0.151572599857
        0.153107868918
        0.154653697111
        0.15621013
        0.157777213289
        0.159354992825
        0.160943514596
        0.162542824734
        0.16415296951
        0.165773995341
        0.167405948786
        0.169048876548
        0.170702825475
        0.172367842558
        0.174043974933
        0.175731269883
        0.177429774836
        0.179139537365
        0.18086060519
        0.18259302618
        0.184336848347
        0.186092119856
        0.187858889016
        0.189637204285
        0.191427114273
        0.193228667736
        0.195041913582
        0.196866900866
        0.198703678798
        0.200552296736
        0.202412804189
        0.204285250821
        0.206169686444
        0.208066161026
        0.209974724687
        0.211895427699
        0.213828320491
        0.215773453644
        0.217730877893
        0.219700644131
        0.221682803404
        0.223677406916
        0.225684506026
        0.22770415225
        0.229736397262
        0.231781292894
        0.233838891134
        0.235909244131
        0.237992404193
        0.240088423785
        0.242197355534
        0.244319252228
        0.246454166813
        0.248602152399
        0.250763262255
        0.252937549815
        0.255125068674
        0.257325872589
        0.259540015482
        0.261767551438
        0.264008534707
        0.266263019704
        0.268531061007
        0.270812713363
        0.273108031682
        0.275417071043
        0.27773988669
        0.280076534036
        0.282427068662
        0.284791546316
        0.287170022916
        0.289562554548
        0.29196919747
        0.294390008108
        0.296825043061
        0.299274359096
        0.301738013155
        0.304216062349
        0.306708563965
        0.30921557546
        0.311737154466
        0.314273358788
        0.316824246407
        0.319389875478
        0.321970304331
        0.324565591473
        0.327175795586
        0.32980097553
        0.332441190341
        0.335096499235
        0.337766961605
        0.340452637022
        0.343153585237
        0.345869866181
        0.348601539965
        0.351348666882
        0.354111307403
        0.356889522184
        0.359683372061
        0.362492918054
        0.365318221367
        0.368159343385
        0.371016345679
        0.373889290005
        0.376778238303
        0.379683252699
        0.382604395507
        0.385541729226
        0.388495316541
        0.391465220327
        0.394451503647
        0.397454229752
        0.400473462082
        0.403509264267
        0.406561700129
        0.409630833678
        0.412716729117
        0.41581945084
        0.418939063435
        0.422075631681
        0.425229220551
        0.428399895213
        0.431587721028
        0.434792763552
        0.438015088538
        0.441254761934
        0.444511849884
        0.447786418731
        0.451078535013
        0.454388265469
        0.457715677034
        0.461060836844
        0.464423812235
        0.467804670742
        0.471203480102
        0.474620308253
        0.478055223335
        0.481508293691
        0.484979587865
        0.488469174607
        0.49197712287
        0.495503501813
        0.499048380799
        0.502611829396
        0.50619391738
        0.509794714734
        0.513414291648
        0.517052718519
        0.520710065954
        0.524386404769
        0.528081805989
        0.53179634085
        0.535530080799
        0.539283097495
        0.543055462806
        0.546847248816
        0.550658527821
        0.55448937233
        0.558339855068
        0.562210048973
        0.5661000272
        0.570009863119
        0.573939630317
        0.577889402599
        0.581859253986
        0.585849258719
        0.589859491258
        0.593890026282
        0.59794093869
        0.602012303601
        0.606104196358
        0.610216692523
        0.614349867884
        0.618503798447
        0.622678560447
        0.626874230341
        0.63109088481
        0.635328600763
        0.639587455333
        0.643867525881
        0.648168889996
        0.652491625492
        0.656835810415
        0.661201523039
        0.665588841867
        0.669997845634
        0.674428613306
        0.678881224079
        0.683355757382
        0.687852292879
        0.692370910465
        0.69691169027
        0.701474712659
        0.706060058234
        0.71066780783
        0.715298042522
        0.719950843619
        0.724626292671
        0.729324471465
        0.734045462029
        0.738789346628
        0.74355620777
        0.748346128204
        0.753159190921
        0.757995479153
        0.762855076376
        0.767738066311
        0.772644532922
        0.777574560419
        0.782528233257
        0.78750563614
        0.792506854014
        0.797531972079
        0.802581075778
        0.807654250807
        0.81275158311
        0.817873158882
        0.823019064568
        0.828189386868
        0.83338421273
        0.838603629358
        0.84384772421
        0.849116584998
        0.854410299688
        0.859728956503
        0.865072643924
        0.870441450687
        0.875835465786
        0.881254778475
        0.886699478267
        0.892169654935
        0.897665398511
        0.903186799293
        0.908733947835
        0.914306934959
        0.919905851747
        0.925530789548
        0.931181839975
        0.936859094905
        0.942562646483
        0.948292587122
        0.954049009501
        0.959832006568
        0.96564167154
        0.971478097906
        0.977341379423
        0.983231610121
        0.989148884301
        0.995093296537
        1.00106494168
        1.00706391485
        1.01309031144
        1.01914422713
        1.02522575787
        1.03133499989
        1.03747204969
        1.04363700405
        1.04982996003
        1.05605101499
        1.06230026655
        1.06857781261
        1.07488375135
        1.08121818127
        1.0875812011
        1.09397290989
        1.10039340697
        1.10684279195
        1.11332116473
        1.1198286255
        1.12636527474
        1.1329312132
        1.13952654195
        1.14615136233
        1.15280577598
        1.15948988484
        1.16620379112
        1.17294759735
        1.17972140633
        1.18652532118
        1.19335944531
        1.20022388241
        1.20711873648
        1.21404411183
        1.22100011305
        1.22798684504
        1.235004413
        1.24205292244
        1.24913247916
        1.25624318927
        1.26338515918
        1.2705584956
        1.27776330558
        1.28499969642
        1.29226777579
        1.29956765161
        1.30689943216
        1.31426322599
        1.32165914198
        1.32908728933
        1.33654777753
        1.3440407164
        1.35156621608
        1.359124387
        1.36671533993
        1.37433918595
        1.38199603645
        1.38968600314
        1.39740919806
        1.40516573357
        1.41295572234
