src/ocio/nuke-default/luts/viperlog.spi1d
Version 1
From -0.125 1.125
Length 4101
Components 1
{
        0.00499171751129
        0.00499889230472
        0.00500607741077
        0.00501327284426
        0.00502047862002
        0.00502769475294
        0.00503492125789
        0.00504215814978
        0.00504940544354
        0.00505666315412
        0.0050639312965
        0.00507120988567
        0.00507849893664
        0.00508579846446
        0.00509310848417
        0.00510042901087
        0.00510776005965
        0.00511510164564
        0.00512245378398
        0.00512981648984
        0.0051371897784
        0.00514457366489
        0.00515196816453
        0.00515937329258
        0.00516678906431
        0.00517421549503
        0.00518165260005
        0.00518910039471
        0.00519655889438
        0.00520402811446
        0.00521150807033
        0.00521899877745
        0.00522650025125
        0.00523401250722
        0.00524153556086
        0.00524906942768
        0.00525661412322
        0.00526416966305
        0.00527173606276
        0.00527931333796
        0.00528690150427
        0.00529450057735
        0.00530211057289
        0.00530973150657
        0.00531736339413
        0.00532500625129
        0.00533266009384
        0.00534032493756
        0.00534800079827
        0.00535568769179
        0.00536338563399
        0.00537109464074
        0.00537881472796
        0.00538654591157
        0.00539428820751
        0.00540204163176
        0.00540980620032
        0.00541758192919
        0.00542536883443
        0.0054331669321
        0.00544097623828
        0.00544879676909
        0.00545662854066
        0.00546447156914
        0.00547232587072
        0.0054801914616
        0.005488068358
        0.00549595657618
        0.0055038561324
        0.00551176704297
        0.00551968932421
        0.00552762299246
        0.00553556806408
        0.00554352455547
        0.00555149248304
        0.00555947186322
        0.00556746271249
        0.00557546504732
        0.00558347888423
        0.00559150423973
        0.00559954113041
        0.00560758957282
        0.00561564958358
        0.00562372117931
        0.00563180437666
        0.00563989919232
        0.00564800564297
        0.00565612374535
        0.00566425351619
        0.00567239497228
        0.00568054813041
        0.00568871300739
        0.00569688962008
        0.00570507798534
        0.00571327812005
        0.00572149004115
        0.00572971376556
        0.00573794931026
        0.00574619669224
        0.0057544559285
        0.00576272703609
        0.00577101003208
        0.00577930493354
        0.00578761175759
        0.00579593052137
        0.00580426124204
        0.00581260393678
        0.00582095862281
        0.00582932531736
        0.00583770403769
        0.00584609480109
        0.00585449762487
        0.00586291252635
        0.00587133952291
        0.00587977863193
        0.00588822987081
        0.00589669325699
        0.00590516880793
        0.00591365654112
        0.00592215647406
        0.00593066862429
        0.00593919300938
        0.0059477296469
        0.00595627855447
        0.00596483974972
        0.00597341325031
        0.00598199907394
        0.00599059723832
        0.00599920776117
        0.00600783066028
        0.00601646595341
        0.0060251136584
        0.00603377379307
        0.0060424463753
        0.00605113142298
        0.00605982895402
        0.00606853898636
        0.00607726153798
        0.00608599662687
        0.00609474427105
        0.00610350448857
        0.00611227729749
        0.00612106271592
        0.00612986076197
        0.00613867145381
        0.00614749480961
        0.00615633084756
        0.0061651795859
        0.00617404104289
        0.0061829152368
        0.00619180218593
        0.00620070190864
        0.00620961442326
        0.0062185397482
        0.00622747790186
        0.00623642890268
        0.00624539276914
        0.00625436951971
        0.00626335917292
        0.00627236174731
        0.00628137726147
        0.00629040573398
        0.00629944718347
        0.00630850162859
        0.00631756908803
        0.00632664958048
        0.00633574312469
        0.00634484973941
        0.00635396944343
        0.00636310225556
        0.00637224819464
        0.00638140727954
        0.00639057952916
        0.00639976496242
        0.00640896359826
        0.00641817545567
        0.00642740055365
        0.00643663891122
        0.00644589054745
        0.00645515548143
        0.00646443373226
        0.00647372531909
        0.00648303026109
        0.00649234857744
        0.00650168028739
        0.00651102541017
        0.00652038396506
        0.00652975597138
        0.00653914144845
        0.00654854041565
        0.00655795289235
        0.00656737889797
        0.00657681845197
        0.00658627157381
        0.006595738283
        0.00660521859907
        0.00661471254157
        0.00662422013008
        0.00663374138424
        0.00664327632367
        0.00665282496804
        0.00666238733706
        0.00667196345046
        0.00668155332797
        0.00669115698941
        0.00670077445456
        0.00671040574328
        0.00672005087543
        0.00672970987091
        0.00673938274965
        0.0067490695316
        0.00675877023675
        0.0067684848851
        0.0067782134967
        0.00678795609163
        0.00679771268997
        0.00680748331185
        0.00681726797744
        0.00682706670692
        0.0068368795205
        0.00684670643842
        0.00685654748096
        0.00686640266843
        0.00687627202114
        0.00688615555947
        0.00689605330379
        0.00690596527454
        0.00691589149216
        0.00692583197712
        0.00693578674994
        0.00694575583114
        0.0069557392413
        0.00696573700102
        0.0069757491309
        0.00698577565162
        0.00699581658386
        0.00700587194832
        0.00701594176576
        0.00702602605695
        0.00703612484269
        0.00704623814381
        0.00705636598118
        0.00706650837569
        0.00707666534827
        0.00708683691987
        0.00709702311147
        0.00710722394409
        0.00711743943877
        0.00712766961659
        0.00713791449864
        0.00714817410607
        0.00715844846004
        0.00716873758175
        0.00717904149242
        0.0071893602133
        0.0071996937657
        0.00721004217092
        0.00722040545031
        0.00723078362526
        0.00724117671716
        0.00725158474747
        0.00726200773766
        0.00727244570922
        0.00728289868369
        0.00729336668263
        0.00730384972765
        0.00731434784036
        0.00732486104243
        0.00733538935553
        0.0073459328014
        0.00735649140178
        0.00736706517846
        0.00737765415325
        0.00738825834798
        0.00739887778455
        0.00740951248486
        0.00742016247084
        0.00743082776446
        0.00744150838774
        0.0074522043627
        0.00746291571141
        0.00747364245596
        0.00748438461849
        0.00749514222116
        0.00750591528616
        0.0075167038357
        0.00752750789206
        0.00753832747752
        0.00754916261439
        0.00756001332504
        0.00757087963184
        0.00758176155722
        0.00759265912362
        0.00760357235352
        0.00761450126945
        0.00762544589393
        0.00763640624956
        0.00764738235894
        0.00765837424472
        0.00766938192957
        0.00768040543621
        0.00769144478737
        0.00770250000582
        0.00771357111438
        0.00772465813588
        0.00773576109319
        0.00774688000923
        0.00775801490693
        0.00776916580925
        0.00778033273921
        0.00779151571984
        0.00780271477421
        0.00781392992543
        0.00782516119663
        0.00783640861098
        0.00784767219168
        0.00785895196197
        0.00787024794513
        0.00788156016445
        0.00789288864327
        0.00790423340496
        0.00791559447293
        0.00792697187061
        0.00793836562148
        0.00794977574903
        0.00796120227682
        0.0079726452284
        0.0079841046274
        0.00799558049744
        0.0080070728622
        0.0080185817454
        0.00803010717077
        0.00804164916209
        0.00805320774317
        0.00806478293786
        0.00807637477004
        0.00808798326361
        0.00809960844254
        0.00811125033079
        0.00812290895239
        0.00813458433139
        0.00814627649188
        0.00815798545797
        0.00816971125382
        0.00818145390362
        0.0081932134316
        0.00820498986201
        0.00821678321916
        0.00822859352736
        0.00824042081099
        0.00825226509444
        0.00826412640215
        0.00827600475859
        0.00828790018826
        0.00829981271571
        0.0083117423655
        0.00832368916225
        0.0083356531306
        0.00834763429524
        0.00835963268088
        0.00837164831228
        0.00838368121422
        0.00839573141153
        0.00840779892906
        0.00841988379172
        0.00843198602443
        0.00844410565215
        0.0084562426999
        0.00846839719271
        0.00848056915565
        0.00849275861384
        0.00850496559241
        0.00851719011657
        0.00852943221151
        0.0085416919025
        0.00855396921484
        0.00856626417384
        0.00857857680487
        0.00859090713334
        0.00860325518467
        0.00861562098435
        0.00862800455788
        0.00864040593082
        0.00865282512874
        0.00866526217726
        0.00867771710205
        0.00869018992879
        0.00870268068322
        0.00871518939111
        0.00872771607826
        0.00874026077052
        0.00875282349375
        0.00876540427389
        0.00877800313688
        0.00879062010872
        0.00880325521543
        0.00881590848308
        0.00882857993778
        0.00884126960565
        0.00885397751289
        0.00886670368571
        0.00887944815036
        0.00889221093314
        0.00890499206037
        0.00891779155842
        0.00893060945369
        0.00894344577264
        0.00895630054173
        0.0089691737875
        0.00898206553649
        0.0089949758153
        0.00900790465057
        0.00902085206896
        0.0090338180972
        0.00904680276201
        0.00905980609021
        0.0090728281086
        0.00908586884405
        0.00909892832347
        0.0091120065738
        0.00912510362202
        0.00913821949514
        0.00915135422022
        0.00916450782437
        0.00917768033472
        0.00919087177843
        0.00920408218273
        0.00921731157487
        0.00923055998214
        0.00924382743186
        0.00925711395142
        0.00927041956823
        0.00928374430972
        0.00929708820339
        0.00931045127676
        0.00932383355742
        0.00933723507295
        0.00935065585102
        0.0093640959193
        0.00937755530552
        0.00939103403745
        0.0094045321429
        0.00941804964971
        0.00943158658577
        0.00944514297901
        0.00945871885738
        0.0094723142489
        0.00948592918162
        0.00949956368362
        0.00951321778303
        0.00952689150802
        0.0095405848868
        0.00955429794761
        0.00956803071875
        0.00958178322854
        0.00959555550536
        0.00960934757763
        0.00962315947378
        0.00963699122232
        0.00965084285178
        0.00966471439073
        0.0096786058678
        0.00969251731164
        0.00970644875095
        0.00972040021447
        0.00973437173097
        0.0097483633293
        0.0097623750383
        0.00977640688689
        0.00979045890401
        0.00980453111865
        0.00981862355984
        0.00983273625666
        0.00984686923822
        0.00986102253367
        0.00987519617221
        0.00988939018309
        0.00990360459558
        0.009917839439
        0.00993209474274
        0.00994637053618
        0.00996066684879
        0.00997498371006
        0.00998932114952
        0.0100036791967
        0.0100180578814
        0.010032457233
        0.0100468772815
        0.0100613180564
        0.0100757795876
        0.010090261905
        0.0101047650384
        0.0101192890177
        0.0101338338729
        0.010148399634
        0.010162986331
        0.0101775939941
        0.0101922226534
        0.010206872339
        0.0102215430811
        0.0102362349101
        0.0102509478563
        0.01026568195
        0.0102804372215
        0.0102952137014
        0.0103100114202
        0.0103248304082
        0.0103396706962
        0.0103545323147
        0.0103694152944
        0.010384319666
        0.0103992454603
        0.010414192708
        0.0104291614399
        0.0104441516871
        0.0104591634802
        0.0104741968505
        0.0104892518288
        0.0105043284462
        0.0105194267338
        0.0105345467228
        0.0105496884444
        0.0105648519297
        0.0105800372101
        0.010595244317
        0.0106104732816
        0.0106257241354
        0.0106409969099
        0.0106562916365
        0.0106716083468
        0.0106869470725
        0.0107023078451
        0.0107176906964
        0.010733095658
        0.0107485227619
        0.0107639720396
        0.0107794435233
        0.0107949372447
        0.0108104532359
        0.0108259915288
        0.0108415521556
        0.0108571351482
        0.0108727405389
        0.0108883683598
        0.0109040186432
        0.0109196914214
        0.0109353867267
        0.0109511045915
        0.0109668450482
        0.0109826081293
        0.0109983938672
        0.0110142022947
        0.0110300334442
        0.0110458873485
        0.0110617640402
        0.0110776635521
        0.011093585917
        0.0111095311677
        0.0111254993372
        0.0111414904584
        0.0111575045642
        0.0111735416878
        0.0111896018621
        0.0112056851204
        0.0112217914958
        0.0112379210215
        0.0112540737308
        0.011270249657
        0.0112864488336
        0.0113026712939
        0.0113189170713
        0.0113351861994
        0.0113514787119
        0.0113677946421
        0.011384134024
        0.011400496891
        0.0114168832771
        0.0114332932159
        0.0114497267414
        0.0114661838875
        0.0114826646881
        0.0114991691772
        0.0115156973888
        0.0115322493571
        0.0115488251162
        0.0115654247003
        0.0115820481437
        0.0115986954805
        0.0116153667453
        0.0116320619723
        0.011648781196
        0.0116655244509
        0.0116822917716
        0.0116990831926
        0.0117158987486
        0.0117327384742
        0.0117496024043
        0.0117664905735
        0.0117834030168
        0.011800339769
        0.0118173008651
        0.01183428634
        0.0118512962289
        0.0118683305667
        0.0118853893886
        0.0119024727299
        0.0119195806257
        0.0119367131114
        0.0119538702223
        0.0119710519937
        0.0119882584613
        0.0120054896603
        0.0120227456265
        0.0120400263953
        0.0120573320024
        0.0120746624836
        0.0120920178746
        0.0121093982112
        0.0121268035292
        0.0121442338646
        0.0121616892533
        0.0121791697313
        0.0121966753347
        0.0122142060996
        0.0122317620621
        0.0122493432586
        0.0122669497252
        0.0122845814982
        0.0123022386141
        0.0123199211093
        0.0123376290202
        0.0123553623834
        0.0123731212355
        0.0123909056131
        0.0124087155528
        0.0124265510915
        0.012444412266
        0.012462299113
        0.0124802116695
        0.0124981499724
        0.0125161140587
        0.0125341039655
        0.01255211973
        0.0125701613892
        0.0125882289804
        0.0126063225408
        0.0126244421079
        0.0126425877189
        0.0126607594114
        0.0126789572227
        0.0126971811904
        0.0127154313522
        0.0127337077457
        0.0127520104086
        0.0127703393786
        0.0127886946935
        0.0128070763913
        0.0128254845098
        0.0128439190871
        0.0128623801611
        0.0128808677699
        0.0128993819517
        0.0129179227447
        0.012936490187
        0.0129550843171
        0.0129737051733
        0.012992352794
        0.0130110272176
        0.0130297284828
        0.013048456628
        0.0130672116919
        0.0130859937132
        0.0131048027306
        0.013123638783
        0.0131425019092
        0.0131613921481
        0.0131803095387
        0.0131992541201
        0.0132182259312
        0.0132372250112
        0.0132562513994
        0.013275305135
        0.0132943862572
        0.0133134948055
        0.0133326308193
        0.0133517943381
        0.0133709854013
        0.0133902040486
        0.0134094503196
        0.013428724254
        0.0134480258917
        0.0134673552723
        0.0134867124358
        0.0135060974222
        0.0135255102714
        0.0135449510234
        0.0135644197183
        0.0135839163965
        0.0136034410979
        0.013622993863
        0.013642574732
        0.0136621837454
        0.0136818209437
        0.0137014863672
        0.0137211800566
        0.0137409020526
        0.0137606523957
        0.0137804311268
        0.0138002382867
        0.0138200739162
        0.0138399380562
        0.0138598307477
        0.0138797520318
        0.0138997019496
        0.0139196805421
        0.0139396878507
        0.0139597239166
        0.0139797887811
        0.0139998824856
        0.0140200050716
        0.0140401565806
        0.0140603370541
        0.0140805465339
        0.0141007850615
        0.0141210526788
        0.0141413494275
        0.0141616753495
        0.0141820304868
        0.0142024148814
        0.0142228285752
        0.0142432716105
        0.0142637440293
        0.014284245874
        0.0143047771867
        0.01432533801
        0.0143459283861
        0.0143665483576
        0.014387197967
        0.0144078772569
        0.0144285862699
        0.0144493250489
        0.0144700936365
        0.0144908920756
        0.0145117204092
        0.0145325786801
        0.0145534669315
        0.0145743852063
        0.0145953335479
        0.0146163119993
        0.0146373206039
        0.0146583594049
        0.0146794284459
        0.0147005277702
        0.0147216574215
        0.0147428174432
        0.0147640078791
        0.0147852287728
        0.0148064801681
        0.014827762109
        0.0148490746392
        0.0148704178027
        0.0148917916436
        0.014913196206
        0.014934631534
        0.0149560976719
        0.0149775946639
        0.0149991225543
        0.0150206813877
        0.0150422712084
        0.015063892061
        0.0150855439902
        0.0151072270405
        0.0151289412567
        0.0151506866836
        0.0151724633661
        0.0151942713491
        0.0152161106776
        0.0152379813966
        0.0152598835512
        0.0152818171867
        0.0153037823482
        0.0153257790812
        0.0153478074309
        0.0153698674429
        0.0153919591625
        0.0154140826355
        0.0154362379075
        0.015458425024
        0.015480644031
        0.0155028949743
        0.0155251778997
        0.0155474928533
        0.015569839881
        0.015592219029
        0.0156146303434
        0.0156370738705
        0.0156595496566
        0.015682057748
        0.0157045981912
        0.0157271710327
        0.0157497763189
        0.0157724140967
        0.0157950844127
        0.0158177873135
        0.0158405228462
        0.0158632910576
        0.0158860919946
        0.0159089257042
        0.0159317922337
        0.0159546916302
        0.0159776239409
        0.016000589213
        0.0160235874941
        0.0160466188315
        0.0160696832728
        0.0160927808655
        0.0161159116573
        0.0161390756959
        0.0161622730291
        0.0161855037048
        0.0162087677708
        0.0162320652751
        0.0162553962659
        0.0162787607913
        0.0163021588994
        0.0163255906386
        0.0163490560571
        0.0163725552034
        0.0163960881259
        0.0164196548733
        0.016443255494
        0.0164668900369
        0.0164905585506
        0.0165142610841
        0.0165379976861
        0.0165617684057
        0.0165855732918
        0.0166094123937
        0.0166332857605
        0.0166571934414
        0.0166811354858
        0.016705111943
        0.0167291228625
        0.0167531682939
        0.0167772482867
        0.0168013628907
        0.0168255121555
        0.016849696131
        0.0168739148671
        0.0168981684138
        0.016922456821
        0.016946780139
        0.0169711384178
        0.0169955317077
        0.017019960059
        0.0170444235222
        0.0170689221478
        0.0170934559861
        0.0171180250879
        0.0171426295039
        0.0171672692847
        0.0171919444813
        0.0172166551446
        0.0172414013254
        0.0172661830749
        0.0172910004442
        0.0173158534845
        0.0173407422471
        0.0173656667832
        0.0173906271444
        0.0174156233821
        0.0174406555479
        0.0174657236934
        0.0174908278703
        0.0175159681305
        0.0175411445257
        0.017566357108
        0.0175916059294
        0.0176168910418
        0.0176422124976
        0.0176675703489
        0.017692964648
        0.0177183954474
        0.0177438627995
        0.0177693667568
        0.0177949073719
        0.0178204846976
        0.0178460987866
        0.0178717496918
        0.017897437466
        0.0179231621622
        0.0179489238336
        0.0179747225333
        0.0180005583144
        0.0180264312304
        0.0180523413345
        0.0180782886802
        0.0181042733211
        0.0181302953107
        0.0181563547028
        0.0181824515511
        0.0182085859094
        0.0182347578316
        0.0182609673718
        0.018287214584
        0.0183134995224
        0.0183398222411
        0.0183661827945
        0.018392581237
        0.0184190176231
        0.0184454920072
        0.0184720044439
        0.0184985549881
        0.0185251436944
        0.0185517706177
        0.0185784358129
        0.0186051393351
        0.0186318812393
        0.0186586615807
        0.0186854804146
        0.0187123377962
        0.018739233781
        0.0187661684245
        0.0187931417822
        0.0188201539097
        0.0188472048629
        0.0188742946975
        0.0189014234694
        0.0189285912345
        0.0189557980489
        0.0189830439688
        0.0190103290503
        0.0190376533498
        0.0190650169235
        0.019092419828
        0.0191198621198
        0.0191473438555
        0.0191748650917
        0.0192024258853
        0.0192300262932
        0.0192576663722
        0.0192853461794
